!!!!SEGMENT: pl-wtm--r-1183a_lessel-franciszek--fantaisie-caracteristique.krn
!!!id: 18xx:1629
!!!COM: Lessel, Franciszek
!!!COM-rism: pe30004332
!!!CDT: 1780-1838/12/26
!!!CNT: Polish
!!!OTL: Fantaisie Caracteristique
!!!PDT: 1822
!!!SMS-siglum: PL-Wtm
!!!SMS-shelfmark: R 1183a
!!!NIFC-rismID: 300257607
!!!URL-scan: http://repozytorium.nifc.pl/skany/pl-wtm-nut--r1183-a
!!!ONB-nifc: UWAGA: brak partii vl, vla, vlc
!!!SMS-variant:
!!!SMS-altvar:
**kern	**kern	**dynam	**kern	**kern	**kern
*part5	*part4	*part4	*part3	*part2	*part1
*staff5	*staff4	*	*staff3	*staff2	*staff1
*I"Piano	*I"Piano	*	*I"Violoncello	*I"Viola	*I"Violino
*I'P-no	*I'P-no	*	*I'V-c.	*I'V-la	*I'V-no
*clefF4	*clefG2	*	*clefF4	*clefC3	*clefG2
*k[b-]	*k[b-]	*	*k[b-]	*k[b-]	*k[b-]
*M4/4	*M4/4	*	*M4/4	*M4/4	*M4/4
*met(c)	*met(c)	*	*met(c)	*met(c)	*met(c)
*	*	*below	*	*	*
=1	=1	=1	=1	=1	=1
!	!LO:TX:a:i:t=Adagio sostenuto.	!	!	!	!
!	!LO:TX:t=P:problem:f=fo.:global	!	!LO:TX:t=P:problem:brak partii Violoncello, źródło niekompletne	!LO:TX:t=P:problem:brak partii Viola, źródło niekompletne	!LO:TX:t=P:problem:brak partii Violino, źródło niekompletne
4AA/ 4AAA/	4A/	f	1ryy	1ryy	1ryy
8.r	8.r	.	.	.	.
!	!LO:N:vis=16	!	!	!	!
(32C#X\LLL	(32e/LLL	.	.	.	.
!	!LO:N:vis=16	!	!	!	!
32D\JJJ	32d/JJJ	.	.	.	.
4E\)	4c#X/)	.	.	.	.
8.r	8.r	.	.	.	.
16e\ 16c#X\ 16G\	16aa\ 16cc\ 16a^\	.	.	.	.
=2	=2	=2	=2	=2	=2
*2\right	*2\right	*	*	*	*
2e\ 2c\ 2G;\	2aa\ 2cc\ 2a;\	.	1ryy	1ryy	1ryy
2r;	2r;	.	.	.	.
=3	=3	=3	=3	=3	=3
*^	*	*	*	*	*
[1d/	2ryy	1r	.	1ryy	1ryy	1ryy
!	!	!	!LO:DY:b=2:t=po	!	!	!
.	2cn\	.	p	.	.	.
=4	=4	=4	=4	=4	=4	=4
2d/]	2B-\	4r	.	1ryy	1ryy	1ryy
.	.	8r	.	.	.	.
.	.	(8f#X/	.	.	.	.
2r	2ryy	[2g/)	.	.	.	.
=5	=5	=5	=5	=5	=5	=5
!	!	!	!LO:DY:b=2:t=pp.	!	!	!
2e-X/	2r	4g/]	pp	1ryy	1ryy	1ryy
.	.	4r	.	.	.	.
!LO:SIC:v:s=2d-	!	!	!	!	!	!
(2ryy	2d\ 2D-X\	2r	.	.	.	.
=6	=6	=6	=6	=6	=6	=6
2e/ 2c/)	2A-X\	4r	.	1ryy	1ryy	1ryy
.	.	8r	.	.	.	.
.	.	(8g/	.	.	.	.
2r	2ryy	[2a-X/)	.	.	.	.
=7	=7	=7	=7	=7	=7	=7
8qC/	.	.	.	.	.	.
[1c/^<	2r	4a-/]	.	1ryy	1ryy	1ryy
.	.	4r	.	.	.	.
.	2B-\	2r	.	.	.	.
!!LO:LB:g=original
=8	=8	=8	=8	=8	=8	=8
2c/]	2An\	4r	.	1ryy	1ryy	1ryy
.	.	8r	.	.	.	.
.	.	(8e/	.	.	.	.
2r	2ryy	2f/)	.	.	.	.
*v	*v	*	*	*	*	*
=9	=9	=9	=9	=9	=9
2e\ 2c#X\ 2G\	4r	.	1ryy	1ryy	1ryy
.	8r	.	.	.	.
.	(8g#X/	<	.	.	.
2r	2a/)	[[	.	.	.
=10	=10	=10	=10	=10	=10
2f\ 2d\ 2A\ 2F\	4r	.	1ryy	1ryy	1ryy
.	8.r	.	.	.	.
.	16a'/	<	.	.	.
2r	2aa\	.	.	.	.
=11	=11	=11	=11	=11	=11
2g\ 2c\ 2B-\ 2E\	4r	.	1ryy	1ryy	1ryy
.	8..r	.	.	.	.
.	32cc'\	f	.	.	.
4r	[2ccc\	.	.	.	.
8.r	.	.	.	.	.
16C/	.	.	.	.	.
=12	=12	=12	=12	=12	=12
*^	*	*	*	*	*
!	!	!	!LO:HP:b=2	!	!	!
[1c/	2ryy	4ccc\]	>	1ryy	1ryy	1ryy
.	.	4r	.	.	.	.
.	2B-\	2r	]	.	.	.
=13	=13	=13	=13	=13	=13	=13
!	!	!	!LO:DY:b=2:t=po	!	!	!
2c/]	2A-X\	4r	p	1ryy	1ryy	1ryy
.	.	8r	.	.	.	.
!	!	!LO:TX:t=P:problem:p=po:global	!LO:DY:t=po	!	!	!
.	.	(8e/	p	.	.	.
4r	2r	[2f/)	>	.	.	.
8r	.	.	.	.	.	.
(8C/	.	.	.	.	.	.
*v	*v	*	*	*	*	*
=14	=14	=14	=14	=14	=14
4FF/)	4f/]	.	1ryy	1ryy	1ryy
4C/ 4FF/	4a-X/ 4f/ 4c/ 4A-X/	] pp	.	.	.
2C/ 2CC;/	2g/ 2e/ 2c/ 2G;/	.	.	.	.
=15||	=15||	=15||	=15||	=15||	=15||
*^	*	*	*	*	*
!	!	!LO:TX:b:t=m.v.	!	!	!	!
!	!	!LO:TX:a:t=Andante	!	!	!	!
8r	2.F\	(4.cc\	.	1ryy	1ryy	1ryy
8c/L	.	.	.	.	.	.
8A/	.	.	.	.	.	.
8c/J	.	16ee\LL	.	.	.	.
.	.	16dd\JJ)	.	.	.	.
8A/L	.	8cc\L	.	.	.	.
8c/	.	8aa\	.	.	.	.
8B-/	4E\	8gg\	.	.	.	.
8G/J	.	8b-\J	.	.	.	.
=16	=16	=16	=16	=16	=16	=16
8r	2F\	2a/	.	1ryy	1ryy	1ryy
8A/L	.	.	.	.	.	.
8c/	.	.	.	.	.	.
8B-/J	.	.	.	.	.	.
4A/	2r	8r	.	.	.	.
.	.	(8a/L	.	.	.	.
4r	.	8g/	.	.	.	.
.	.	8f/J)	.	.	.	.
!!LO:LB:g=original
=17	=17	=17	=17	=17	=17	=17
8r	2.D\	2.bn\	.	1ryy	1ryy	1ryy
8F/L	.	.	.	.	.	.
8A-X/	.	.	.	.	.	.
8F/J	.	.	.	.	.	.
8A-/L	.	.	.	.	.	.
8F/	.	.	.	.	.	.
8A-/	4C\	(8.ccT\L	.	.	.	.
8F/J	.	.	.	.	.	.
.	.	32b\LL	.	.	.	.
.	.	32cc\JJJ	.	.	.	.
=18	=18	=18	=18	=18	=18	=18
8G/L	2BBn\	4dd\)	.	1ryy	1ryy	1ryy
8D/	.	.	.	.	.	.
8G/	.	8r	.	.	.	.
8D/J	.	(8dd\	.	.	.	.
4G/	2r	8ee\L	.	.	.	.
.	.	8ff\	.	.	.	.
4r	.	8gg\	.	.	.	.
.	.	8ff\J)	.	.	.	.
*v	*v	*	*	*	*	*
=19	=19	=19	=19	=19	=19
*tremolo	*	*	*	*	*
8G\ 8E\ 8D-X\ 8BB-X\L	(8ee\L	rf	1ryy	1ryy	1ryy
8G\ 8E\ 8D-X\ 8BB-X\	8ddd-X\	.	.	.	.
8G\ 8E\ 8D-X\ 8BB-X\	8bb-'\	>	.	.	.
8G\ 8E\ 8D-X\ 8BB-X\J	8gg'\J)	.	.	.	.
*Xtremolo	*	*	*	*	*
8G\ 8E\ 8C\L	8ee'\L	.	.	.	.
8G\ 8E\ 8C\	8gg'\	.	.	.	.
8G\ 8E\ 8C\	8ee'\	.	.	.	.
8G\ 8E\ 8C\J	8cc'\J	]	.	.	.
=20	=20	=20	=20	=20	=20
*	*^	*	*	*	*
2G\ 2D-X\	8b-/	2e\	.	1ryy	1ryy	1ryy
.	(8b-/L	.	p	.	.	.
.	8cc/	.	.	.	.	.
.	8b-/J)	.	.	.	.	.
2A-X\ 2D-\	8r	2f\	.	.	.	.
.	(8a-X/L	.	.	.	.	.
.	8b-/	.	.	.	.	.
.	8a-/J)	.	.	.	.	.
=21	=21	=21	=21	=21	=21	=21
2A-X\ 2E-X\	8r	2e-X\	<	1ryy	1ryy	1ryy
.	(8g-X/L	.	.	.	.	.
.	8a-X/	.	.	.	.	.
.	8g-/J)	.	.	.	.	.
2A-\ 2F\	8r	2d-X\	[	.	.	.
.	(8f/L	.	.	.	.	.
.	8g-/	.	.	.	.	.
.	8f/J)	.	.	.	.	.
*	*v	*v	*	*	*	*
=22	=22	=22	=22	=22	=22
2.G-X\	8e-X/L 8c/ 8A-X/	.	1ryy	1ryy	1ryy
.	8e-/ 8c/ 8A-/	.	.	.	.
.	8e-/ 8c/ 8A-/	.	.	.	.
.	8e-/J 8c/ 8A-/	<	.	.	.
*	*tremolo	*	*	*	*
.	8e-/ 8c/ 8A-/L	.	.	.	.
.	8e-/ 8c/ 8A-/	.	.	.	.
4GG-X/	8e-/ 8c/ 8A-/	.	.	.	.
.	8e-/ 8c/ 8A-/J	.	.	.	.
*	*Xtremolo	*	*	*	*
=23	=23	=23	=23	=23	=23
2.GGn/	8en/ 8c/ 8G/L	.	1ryy	1ryy	1ryy
.	8en/ 8c/ 8G/	.	.	.	.
.	8en/ 8c/ 8G/	.	.	.	.
.	8en/ 8c/ 8G/J	.	.	.	.
.	8e/L 8c/ 8G/	.	.	.	.
.	8e/ 8c/ 8G/	.	.	.	.
!	!LO:TX:t=P:problem:najniższa nuta w partii lewej ręki	!	!	!	!
4AA-X/ 4AAA-X/	8f/ 8c/ 8F</	.	.	.	.
.	8f/J 8c/ 8F</	.	.	.	.
=24	=24	=24	=24	=24	=24
*	*tremolo	*	*	*	*
4EEn\	8g/ 8c/ 8G</L	mf	1ryy	1ryy	1ryy
.	8g/ 8c/ 8G</	.	.	.	.
4EE\	8g/ 8c/ 8G</	.	.	.	.
.	8g/ 8c/ 8G</J	.	.	.	.
*	*Xtremolo	*	*	*	*
4EE\	8g/L 8c/ 8G</	.	.	.	.
.	8g/ 8c/ 8G</	.	.	.	.
4FF\	8a-X/ 8c/ 8A-X</	.	.	.	.
.	8a-/J 8c/ 8A-</	.	.	.	.
=25	=25	=25	=25	=25	=25
!LO:SIC:v:s=2DD-	!	!	!	!	!
[>2D-X\ [>2DD-y\	8b-/ 8f/ 8B-/	p	1ryy	1ryy	1ryy
.	(8b-/L 8d-X/	>	.	.	.
.	8a-X/ 8c/	.	.	.	.
.	8g/J 8B-/)	.	.	.	.
!!LO:LB:g=original
!LO:SIC:v:s=4DD-	!	!	!	!	!
4D-/] 4DD/]	4f/ 4A-X/	]	.	.	.
4BB-/ 4BBB-/	4g/ 4d-X/ 4B-/	.	.	.	.
=26	=26	=26	=26	=26	=26
*	*^	*	*	*	*
2C/ 2CC/	4f/	2c\ 2An\	.	1ryy	1ryy	1ryy
.	[4c/	.	.	.	.	.
2C/ 2CC/	4c/]	2d\ 2B-\	.	.	.	.
.	(8d/L	.	.	.	.	.
.	8e/J	.	.	.	.	.
=27	=27	=27	=27	=27	=27	=27
4C/ 4FF/	8f/	4An\)	.	1ryy	1ryy	1ryy
.	(8f/L	.	.	.	.	.
8r	8g-X^/	4ryy	.	.	.	.
!	!	!	!LO:HP:b=2	!	!	!
(8c\L 8A\	8f/J)	.	<	.	.	.
8d-X\ 8B-^<\	8r	2ryy	.	.	.	.
8c\J 8A\)	(8f/L	.	.	.	.	.
8r	8gn^/	.	.	.	.	.
(8c\ 8A\	8f/J)	.	.	.	.	.
*	*v	*v	*	*	*	*
=28	=28	=28	=28	=28	=28
8e-X\L 8c^<\	8r	.	1ryy	1ryy	1ryy
8dn\J 8B-\)	(8f/L	.	.	.	.
8r	8cc^/	.	.	.	.
(8d\L 8B-\	8b-/J)	.	.	.	.
8f\ 8A^<\	8r	[	.	.	.
8en\J 8G\)	(8b-\L	.	.	.	.
8r	8ff\	.	.	.	.
8B-\ 8G\	8ee\J)	.	.	.	.
=29	=29	=29	=29	=29	=29
*^	*	*	*	*	*
!	!	!	!LO:HP:b=2	!	!	!
8c/L	8A\L	(8ccc^\L	>	1ryy	1ryy	1ryy
8d/	8B-\J	8bb-\	.	.	.	.
8e^/	[4c\	8gg\ 8b-\	.	.	.	.
8f/J	.	8ff\J 8a\	.	.	.	.
8g/L	2c\]	8ee/L 8b-/	.	.	.	.
8f/	.	8dd/ 8a/	.	.	.	.
8e/	.	8cc/ 8g/	.	.	.	.
8g/J	.	8b-/J)	]	.	.	.
*v	*v	*	*	*	*	*
=30	=30	=30	=30	=30	=30
8f\L	4a/	f	1ryy	1ryy	1ryy
8f\	.	.	.	.	.
8c\ 8A\ 8F\	[4cc\ 4a\	.	.	.	.
8f\J	.	.	.	.	.
8c\L 8A\ 8F\	8cc\]L 8a\	.	.	.	.
8f\	(8aa\	>	.	.	.
8c#X\ 8G\	8bb-\	.	.	.	.
8e\J	8cc#X\J	.	.	.	.
=31	=31	=31	=31	=31	=31
*^	*	*	*	*	*
4d\	4F#X\	8dd\L	.	1ryy	1ryy	1ryy
.	.	8ff#X\ 8dd\)	.	.	.	.
8F#/L	4D\	(8aa\ 8a\	]	.	.	.
8G/J	.	8gg\J 8b-\	.	.	.	.
8A/L	2D\	8ff#X\L 8ccn\	.	.	.	.
8G/	.	8ee-X\ 8b-\	.	.	.	.
8A/	.	8dd\ 8cc\	.	.	.	.
8F#/J	.	8dd\J 8a\)	.	.	.	.
*v	*v	*	*	*	*	*
=32	=32	=32	=32	=32	=32
8d\L 8Bn\ 8G\	[2dd\ 2bn\	.	1ryy	1ryy	1ryy
8g\	.	.	.	.	.
8d\ 8B\ 8G\	.	<	.	.	.
8g\J	.	.	.	.	.
8d\L 8B\ 8G\	8dd\]L 8b\	.	.	.	.
8g\	8bbn\	[	.	.	.
8d#X\ 8A\	8ccc\	.	.	.	.
!	!LO:TX:b:t=V.S	!	!	!	!
8f#X\J	8dd#X\J	.	.	.	.
!!LO:PB:g=original
=33	=33	=33	=33	=33	=33
*^	*	*	*	*	*
4e\	4G#X\	(8ee\L	.	1ryy	1ryy	1ryy
.	.	8gg#X\ 8ee\	.	.	.	.
8G#/L	4E\	8bbn\ 8dd\	<	.	.	.
8A/J	.	8aa\J 8cc\	.	.	.	.
8Bn/L	2E\	8aa\L 8ddn\	.	.	.	.
8A/	.	8ffn\ 8cc\	.	.	.	.
8B/	.	8ee\ 8dd\	[	.	.	.
8G#/J	.	[8ee\J 8b-\)	.	.	.	.
*v	*v	*	*	*	*	*
=34	=34	=34	=34	=34	=34
8c\ 8A\L	16ee\]LL 16cc\	<	1ryy	1ryy	1ryy
.	16a\	.	.	.	.
8c\ 8A\	16cc\	.	.	.	.
.	16ee\JJ	.	.	.	.
8c\ 8A\	16aa\LL	.	.	.	.
.	16cc\	.	.	.	.
8c\ 8A\J	16ee\	.	.	.	.
.	16aa\JJ	.	.	.	.
8d\L 8Bn\ 8A\	16bbn\LL	.	.	.	.
.	16dd\	.	.	.	.
8d\ 8B\ 8A\	16ff\	.	.	.	.
.	16bb\JJ	.	.	.	.
8e\ 8c\ 8A\	16ccc\LL	.	.	.	.
.	16ee\	.	.	.	.
8e\J 8c\ 8A\	16aa\	.	.	.	.
.	16ccc\JJ	.	.	.	.
=35	=35	=35	=35	=35	=35
8f\ 8d\ 8Bn\ 8G\	16ddd\LL	f	1ryy	1ryy	1ryy
.	16bbn\	.	.	.	.
8G\L 8D\ 8BB-\ 8GG\	16gg\	.	.	.	.
.	16dd\JJ	.	.	.	.
8G\ 8D\ 8BB-\ 8GG\	16b-/LL	.	.	.	.
.	16g/	.	.	.	.
8G\J 8D\ 8BB-\ 8GG\	16d/	.	.	.	.
.	16B-/JJ	.	.	.	.
*tremolo	*	*	*	*	*
8G/ 8D/ 8BB-/ 8GG/L	16d'/LL	.	.	.	.
.	(16f#X/	.	.	.	.
8G/ 8D/ 8BB-/ 8GG/	16g/)	.	.	.	.
.	(16a#X/JJ	.	.	.	.
8G/ 8D/ 8BB-/ 8GG/	16b-\LL)	.	.	.	.
.	(16cc#X\	.	.	.	.
8G/ 8D/ 8BB-/ 8GG/J	16dd\)	.	.	.	.
.	(16gg\JJ	.	.	.	.
*Xtremolo	*	*	*	*	*
=36	=36	=36	=36	=36	=36
4G\ 4D\ 4BB-\ 4GG\	8bbn\)	.	1ryy	1ryy	1ryy
.	8r	.	.	.	.
4r	4.ddd\ 4.dd^<\	.	.	.	.
(2D/ 2BBn/	.	.	.	.	.
.	8ff\L 8f\	.	.	.	.
.	8aa-X\ 8a-X\	.	.	.	.
.	8gg\J 8g\	.	.	.	.
=37	=37	=37	=37	=37	=37
*	*^	*	*	*	*
4E-X/ 4C/)	2ee-X/	4e-X\	p	1ryy	1ryy	1ryy
4r	.	4r	.	.	.	.
2r	4bn/	2r	.	.	.	.
.	8.cc/L	.	.	.	.	.
.	16g/Jk	.	.	.	.	.
*	*v	*v	*	*	*	*
=38	=38	=38	=38	=38	=38
1r	2g/ 2e/	.	1ryy	1ryy	1ryy
.	4Bn\	.	.	.	.
.	(8.c\L	.	.	.	.
.	16G\Jk	.	.	.	.
=39	=39	=39	=39	=39	=39
*	*^	*	*	*	*
2E-X\	2g/)	4G\	.	1ryy	1ryy	1ryy
.	.	4c\	.	.	.	.
(4BBn/	4f/	4d\	.	.	.	.
8.C/L)	4e-X/	4c\	.	.	.	.
16GG/Jk	.	.	.	.	.	.
*	*v	*v	*	*	*	*
!!LO:LB:g=original
=40	=40	=40	=40	=40	=40
4GG/	4d/ 4Bn/	.	1ryy	1ryy	1ryy
2G\	8g/L 8B/	.	.	.	.
.	(8g/J 8B/	.	.	.	.
.	8a-X/L 8c/)	.	.	.	.
.	(8a-/ 8c/	.	.	.	.
4G\	8f#X/ 8d/)	.	.	.	.
.	(8f#/J 8d/	.	.	.	.
=41	=41	=41	=41	=41	=41
4GG/	8g/L 8e-X/)	.	1ryy	1ryy	1ryy
.	(8g/ 8e-/	.	.	.	.
!	!LO:TX:a:t=a' poco	!	!	!	!
2G\	8bn/ 8g/)	<	.	.	.
.	(8b/J 8g/	.	.	.	.
.	8cc/L 8a-X/)	.	.	.	.
.	(8cc/ 8a-/	.	.	.	.
4G\	8dd/ 8f#X/)	.	.	.	.
.	(8dd/J 8f#/	.	.	.	.
=42	=42	=42	=42	=42	=42
4GG/	8ee-X\L 8g\)	.	1ryy	1ryy	1ryy
.	(8ee-\ 8g\	.	.	.	.
!	!LO:TX:a:t=crescendo	!	!	!	!
2G\	8dd\ 8an\)	.	.	.	.
.	(8dd\J 8a\	.	.	.	.
.	8ee-\L 8cc\)	.	.	.	.
.	(8ee-\ 8cc\	.	.	.	.
4G-X\	8een\ 8b-X\)	[	.	.	.
.	(8ee\J 8b-\	.	.	.	.
=43	=43	=43	=43	=43	=43
*^	*	*	*	*	*
4F/	2.F\	8ff\L 8a\)	.	1ryy	1ryy	1ryy
.	.	(8ff\ 8a\	.	.	.	.
4G/	.	8ee\ 8b-\)	.	.	.	.
.	.	(8ee\J 8b-\	.	.	.	.
4A/	.	8ff\L 8cc\)	.	.	.	.
.	.	(8ff\ 8cc\	<	.	.	.
4A-X/	4AA-X\	8ff#X\ 8cc\)	.	.	.	.
.	.	(8ff#\J 8cc\	.	.	.	.
=44	=44	=44	=44	=44	=44	=44
4G/	2.GG\	8gg\L 8bn\)	.	1ryy	1ryy	1ryy
.	.	(8gg\ 8b\	.	.	.	.
4An/	.	8ff#X\ 8cc\)	.	.	.	.
.	.	(8ff#\J 8cc\	[	.	.	.
4Bn/	.	8gg\L 8dd\)	.	.	.	.
.	.	(8gg\ 8dd\	.	.	.	.
4BB-X/	4BBB-X/	8gg#X\ 8dd\)	.	.	.	.
.	.	(8gg#\J 8dd\	.	.	.	.
*v	*v	*	*	*	*	*
=45	=45	=45	=45	=45	=45
*tremolo	*	*	*	*	*
16AAA/LL	8aa\L 8cc#X\)	f	1ryy	1ryy	1ryy
16AA/	.	.	.	.	.
16AAA/	(16aa\L	.	.	.	.
16AA/	16bbn\JJ	.	.	.	.
16AAA/	16ccc#X\LL	.	.	.	.
16AA/	16aa\	.	.	.	.
16AAA/	16bb\	.	.	.	.
16AA/JJ	16ccc#\JJ	.	.	.	.
*rep	*	*	*	*	*
16AAA/LL	16ddd\LL	>	.	.	.
16AA/	16fff\	.	.	.	.
16AAA/	16bb-X\)	]	.	.	.
16AA/	16aa\JJ	.	.	.	.
16AAA/	16gg\LL	.	.	.	.
16AA/	16ff\	.	.	.	.
16AAA/	16ee\	.	.	.	.
16AA/JJ	16dd\JJ	.	.	.	.
*Xrep	*	*	*	*	*
=46	=46	=46	=46	=46	=46
16AAA/LL	(16cc#X\LL	<	1ryy	1ryy	1ryy
16AA/	16ee\	.	.	.	.
16AAA/	16aa\	.	.	.	.
16AA/	16ccc\JJ	.	.	.	.
16AAA/	16eee\LL	.	.	.	.
16AA/	16aa\	.	.	.	.
16AAA/	16bbn\	.	.	.	.
16AA/JJ	16ccc\JJ)	.	.	.	.
!!LO:LB:g=original
*rep	*	*	*	*	*
16AAA/LL	16ddd\LL	[ >	.	.	.
16AA/	16fff\	.	.	.	.
16AAA/	16bb-X\	]	.	.	.
16AA/	16aa\JJ	.	.	.	.
16AAA/	16gg\LL	.	.	.	.
16AA/	16ff\	.	.	.	.
16AAA/	16ee\	.	.	.	.
16AA/JJ	16dd\JJ	.	.	.	.
*Xrep	*	*	*	*	*
=47	=47	=47	=47	=47	=47
16AAA/LL	(16cc#X\LL	.	1ryy	1ryy	1ryy
16AA/	16ee\	.	.	.	.
16AAA/	16aa\	.	.	.	.
16AA/	16ccc\JJ	.	.	.	.
16AAA/	16eee\LL	>	.	.	.
16AA/	16ccc\	.	.	.	.
16AAA/	16aa\	.	.	.	.
16AA/JJ	16ff#X\JJ	.	.	.	.
*rep	*	*	*	*	*
16AAA/LL	16ee\LL	]	.	.	.
16AA/	16aa\	.	.	.	.
16AAA/	16gg#X\)	.	.	.	.
16AA/	16ff#\JJ	.	.	.	.
16AAA/	16ee\LL	.	.	.	.
16AA/	16dd\	.	.	.	.
16AAA/	16cc#\	.	.	.	.
16AA/JJ	16bn\JJ	.	.	.	.
*Xrep	*	*	*	*	*
=48	=48	=48	=48	=48	=48
16AAA/LL	(16a/LL	.	1ryy	1ryy	1ryy
16AA/	16e/	.	.	.	.
16AAA/	16a/	.	.	.	.
16AA/	16cc#X/JJ	>	.	.	.
16AAA/	16ee\LL	.	.	.	.
16AA/	16cc#\	.	.	.	.
16AAA/	16a\	.	.	.	.
16AA/JJ	16f#X\JJ	.	.	.	.
*rep	*	*	*	*	*
16AAA/LL	16e/LL	]	.	.	.
16AA/	16a/	.	.	.	.
16AAA/	16g#X/)	.	.	.	.
16AA/	16f#/JJ	.	.	.	.
16AAA/	16e/LL	.	.	.	.
16AA/	16d/	.	.	.	.
16AAA/	16c/	.	.	.	.
16AA/JJ	16Bn/JJ	.	.	.	.
*Xrep	*	*	*	*	*
*Xtremolo	*	*	*	*	*
=49	=49	=49	=49	=49	=49
*tremolo	*	*	*	*	*
16AAA/LL	(16A</LL	.	1ryy	1ryy	1ryy
16AA/	16E</	.	.	.	.
16AAA/	16A</	.	.	.	.
16AA/	16c#X</JJ	.	.	.	.
16AAA/	16e</LL	.	.	.	.
16AA/	16c#</	.	.	.	.
16AAA/	16A</	.	.	.	.
16AA/JJ	16F#X</JJ	.	.	.	.
16AAA\LL	16E</LL	.	.	.	.
16AA\	16A</)	.	.	.	.
16GG#X\	16G#X</	.	.	.	.
16FF#X\JJ	16F#X</JJ	.	.	.	.
16EE\LL	16E</LL	.	.	.	.
16DD\	16D</	.	.	.	.
16CC#X\	16C#X</	.	.	.	.
16BBBn/JJ	16BBn</JJ	.	.	.	.
=50	=50	=50	=50	=50	=50
*^	*	*	*	*	*
2AA;/	2AAA;\	1r;	.	1ryy	1ryy	1ryy
2r;	2ryy	.	.	.	.	.
*v	*v	*	*	*	*	*
=51||	=51||	=51||	=51||	=51||	=51||
!	!LO:TX:a:t=Adagio.	!	!	!	!
(2F\	(2cc\ 2a\	pp	1ryy	1ryy	1ryy
2D\	2dd\ 2f#X\	.	.	.	.
=52	=52	=52	=52	=52	=52
2G\	2b-/ 2g/	.	1ryy	1ryy	1ryy
2C/	2cc/ 2e/	.	.	.	.
=53	=53	=53	=53	=53	=53
2F\	2a/ 2fn/	.	1ryy	1ryy	1ryy
2F\ 2BB-\)	2b-/ 2d/)	.	.	.	.
!!LO:LB:g=original
=54	=54	=54	=54	=54	=54
2C;/	2g/ 2e;/	.	1ryy	1ryy	1ryy
2r	4r	.	.	.	.
.	8r	.	.	.	.
!	!	!LO:DY:t=m.fo	!	!	!
.	8c/	mf	.	.	.
=55	=55	=55	=55	=55	=55
!	!LO:TX:a:t=all(egr)o. agitato	!	!	!	!
2r	(8d-X/L	.	1ryy	1ryy	1ryy
.	8c/	.	.	.	.
.	8g/	.	.	.	.
.	8f/J)	.	.	.	.
8r	4e/	<	.	.	.
(8C\	.	.	.	.	.
4B-\)	8r	.	.	.	.
.	8g/	[[	.	.	.
=56	=56	=56	=56	=56	=56
2r	(8a-X/L	.	1ryy	1ryy	1ryy
.	8g/	.	.	.	.
.	8dd-X/	>	.	.	.
.	8cc/J)	]	.	.	.
8r	4b-/	.	.	.	.
(8G\	.	.	.	.	.
4e\)	8r	.	.	.	.
.	8cc\	f	.	.	.
=57	=57	=57	=57	=57	=57
2r	(8dd-X\L	>	1ryy	1ryy	1ryy
.	8cc\	.	.	.	.
.	8bb-\	.	.	.	.
.	8aa-X\J)	.	.	.	.
8e\ 8c#X\ 8G'\	8r	.	.	.	.
8r	8gg\L	.	.	.	.
4r	8ff\	.	.	.	.
.	8ee\J	]]	.	.	.
=58	=58	=58	=58	=58	=58
8e\ 8c#X\ 8G\	12r	.	1ryy	1ryy	1ryy
.	12b-/L	.	.	.	.
8r	.	.	.	.	.
.	12g/	.	.	.	.
4r	12ee/	.	.	.	.
.	12a/	.	.	.	.
.	12b-/J	.	.	.	.
8A\ 8E\ 8C#X\	8r	p	.	.	.
8r	(8e/L	.	.	.	.
4r	8a/	.	.	.	.
.	8g/J)	.	.	.	.
=59	=59	=59	=59	=59	=59
8A\ 8E-X\ 8Cn\	12r	.	1ryy	1ryy	1ryy
.	(12f#X/L	.	.	.	.
8r	.	.	.	.	.
.	12e-X/	.	.	.	.
4r	12d/	.	.	.	.
.	12b-^/	.	.	.	.
.	12a/J)	.	.	.	.
8G\ 8D\ 8BB-\	12r	pp	.	.	.
.	12f#X/L	.	.	.	.
8r	.	.	.	.	.
.	12g/	.	.	.	.
4r	12b-/	.	.	.	.
.	12ee-X^/	.	.	.	.
.	12dd/J	.	.	.	.
=60	=60	=60	=60	=60	=60
4G\ 4E\ 4C#X\ 4AA\	12r	.	1ryy	1ryy	1ryy
!	!LO:TUP:a	!	!	!	!
.	(12cc#X\L	.	.	.	.
.	12een\	.	.	.	.
4r	12ff\	.	.	.	.
.	12bb-^\	.	.	.	.
.	12aa\J	.	.	.	.
!LO:TX:t=P:problem:wiem że rytmicznie nie jest to idealne rozwiązanie, \nale moim zdaniem jest najbliższe oryginałowi i temu, \nna co pozwala zapis w musescore	!	!	!	!	!
6r	12gg\L	.	.	.	.
.	12ee\	.	.	.	.
12ryy	12dd\	.	.	.	.
12r	12cc#X\	.	.	.	.
12B-X\L	12b-^\	.	.	.	.
12A\J	12a\J)	.	.	.	.
!!LO:PB:g=original
=61	=61	=61	=61	=61	=61
*	*Xtuplet	*	*	*	*
4G\	12g/L	.	1ryy	1ryy	1ryy
.	12f/	.	.	.	.
.	12e/	.	.	.	.
*Xtuplet	*	*	*	*	*
12r	12d/	.	.	.	.
12C#X\L	12c#X^/	.	.	.	.
12BB-\J	12B-/J	.	.	.	.
[<2AA\	12A</L	.	.	.	.
.	12G</	.	.	.	.
.	12F</	.	.	.	.
.	12E</	.	.	.	.
.	12G</	.	.	.	.
.	12F</J	.	.	.	.
=62	=62	=62	=62	=62	=62
2AA\]	4E</	.	1ryy	1ryy	1ryy
.	4r<	.	.	.	.
2GG\	2r<;	.	.	.	.
=63	=63	=63	=63	=63	=63
*k[f#c#g#d#a#e#]	*k[f#c#g#d#a#e#]	*	*k[f#c#g#d#a#e#]	*k[f#c#g#d#a#e#]	*k[f#c#g#d#a#e#]
!	!LO:TX:a:t=Adagio	!	!	!	!
2F#\ 2FF#\	(2cc#\ 2a#\ 2f#\	pp	1ryy	1ryy	1ryy
*	*ped	*	*	*	*
!	!LO:TX:b:t=P:problem:Pedale	!	!	!	!
(2D#\ 2DD#\	2dd#\ 2a#\ 2f##X\	.	.	.	.
=64	=64	=64	=64	=64	=64
*	*^	*	*	*	*
2G#\ 2GG#\	4.b/	2g#\	.	1ryy	1ryy	1ryy
.	8b#X/	.	.	.	.	.
2C#/ 2CC#/	2cc#/ 2g#/	2e#\	.	.	.	.
=65	=65	=65	=65	=65	=65	=65
2F#/ 2FF#/)	2a#/	2f#\	.	1ryy	1ryy	1ryy
2BB/ 2BBB/	2b/ 2f#/ 2d#^/)	2ryy	.	.	.	.
*	*v	*v	*	*	*	*
=66	=66	=66	=66	=66	=66
2E#\ 2EE#;\	2g#/ 2en;/	.	1ryy	1ryy	1ryy
2r	4r	.	.	.	.
.	8.r	.	.	.	.
.	16e/	.	.	.	.
=67||	=67||	=67||	=67||	=67||	=67||
=67||	=67||	=67||	=67||	=67||	=67||
*k[]	*k[]	*	*k[]	*k[]	*k[]
*M3/4	*M3/4	*	*M3/4	*M3/4	*M3/4
!	!LO:TX:i:a:t=allegro assai.	!	!	!	!
2.r	16f/LL	f	2.ryy	2.ryy	2.ryy
.	16e/	.	.	.	.
.	16a/	.	.	.	.
.	16g#X/JJ	.	.	.	.
.	(16cc\LL	<	.	.	.
.	16b\	.	.	.	.
.	16g#\	.	.	.	.
.	16a\JJ	.	.	.	.
.	16b\LL	.	.	.	.
.	16cc\	[	.	.	.
.	16dd\)	.	.	.	.
.	16ee\JJ	.	.	.	.
!!LO:LB:g=original
=68	=68	=68	=68	=68	=68
!	!	!	!LO:DY:b=2	!	!
2B\ 2G#X\ 2F\ 2D;\	2ff;\	rf	2.ryy	2.ryy	2.ryy
4r	8.r	.	.	.	.
.	16b\	.	.	.	.
=69	=69	=69	=69	=69	=69
2.r	16dd\LL	.	2.ryy	2.ryy	2.ryy
.	(16cc\	.	.	.	.
.	16ff#X\	.	.	.	.
.	16ee\JJ	.	.	.	.
.	16dd\LL	<	.	.	.
.	16bb\	.	.	.	.
.	16aa\	.	.	.	.
.	16gg#X\JJ	.	.	.	.
.	16aa\LL	.	.	.	.
.	16bb\	.	.	.	.
.	16ccc\	[	.	.	.
.	16ddd\JJ)	.	.	.	.
=70	=70	=70	=70	=70	=70
2c\ 2A\ 2E\ 2C;\	2eee\ 2ee;\	.	2.ryy	2.ryy	2.ryy
8.r	4r	.	.	.	.
16E\	.	.	.	.	.
=71||	=71||	=71||	=71||	=71||	=71||
*M4/4	*M4/4	*	*M4/4	*M4/4	*M4/4
*met(c)	*met(c)	*	*met(c)	*met(c)	*met(c)
!	!	!LO:DY:rj	!	!	!
16A\LL	8r	f	1ryy	1ryy	1ryy
!	!	!LO:DY:b=2	!	!	!
16G#X\	.	rf	.	.	.
16c\	(16cc\LL	>	.	.	.
16B\JJ	16b\JJ	.	.	.	.
16A\LL	16a/LL	.	.	.	.
16G#^<\	16g#X/	.	.	.	.
16A\	16a/	.	.	.	.
16F\JJ	16f/JJ	.	.	.	.
16E/LL	16e/LL	]	.	.	.
16D/	16d/	.	.	.	.
16C/	16c/	.	.	.	.
16BB/JJ	16B/JJ	.	.	.	.
16AA/LL	16A/LL	.	.	.	.
16GG/	16G/	.	.	.	.
16FF/	16F/	.	.	.	.
16EE/JJ	16E/JJ)	.	.	.	.
=72	=72	=72	=72	=72	=72
*^	*	*	*	*	*
[2D^/	1DD\	16r	.	1ryy	1ryy	1ryy
.	.	(16A/LL	.	.	.	.
.	.	16G#X/	.	.	.	.
.	.	16A/JJ	.	.	.	.
.	.	16f/LL	.	.	.	.
.	.	16c#X/	.	.	.	.
.	.	16e/)	.	.	.	.
.	.	16d/JJ	.	.	.	.
8.D/L]	.	8A'/L	.	.	.	.
.	.	8A'/	.	.	.	.
16AA/Jk	.	.	.	.	.	.
4D/	.	8A'/	.	.	.	.
.	.	8A'/J	.	.	.	.
=73	=73	=73	=73	=73	=73	=73
[<2E/	1EE\^	16r	.	1ryy	1ryy	1ryy
.	.	(16A/LL	.	.	.	.
.	.	16G#X/	.	.	.	.
.	.	16A/JJ	.	.	.	.
.	.	16e/LL	.	.	.	.
.	.	16B/)	.	.	.	.
.	.	16d/	.	.	.	.
.	.	16c/JJ	.	.	.	.
8.E/L]	.	8A/L	.	.	.	.
.	.	8A/	.	.	.	.
16AA/Jk	.	.	.	.	.	.
4E/	.	8A/	.	.	.	.
.	.	8A/J	.	.	.	.
=74	=74	=74	=74	=74	=74	=74
2.F/	1FF\^	16r	.	1ryy	1ryy	1ryy
.	.	(16A/LL	.	.	.	.
.	.	16G#X/	.	.	.	.
.	.	16A/JJ	.	.	.	.
.	.	16d#X/LL	.	.	.	.
.	.	16B/	.	.	.	.
.	.	16dn/	.	.	.	.
.	.	16c/JJ)	.	.	.	.
.	.	8A/	.	.	.	.
.	.	4a^/	.	.	.	.
4AA/	.	.	.	.	.	.
.	.	8d#X/	.	.	.	.
*v	*v	*	*	*	*	*
!!LO:LB:g=original
=75	=75	=75	=75	=75	=75
[[16EE/LL	8e/	f	1ryy	1ryy	1ryy
[[16BB/J	.	.	.	.	.
[[8E/J	16r	.	.	.	.
.	16G#X/	.	.	.	.
2.E/]] 2.BB/]] 2.EE/]]	16B/LL	.	.	.	.
.	16e/	.	.	.	.
.	16g/	.	.	.	.
.	16b/JJ	.	.	.	.
.	16a/LL	.	.	.	.
.	16f#X/	.	.	.	.
.	16d#X/	.	.	.	.
.	(16B/JJ	>	.	.	.
.	8.ccn\L)	.	.	.	.
.	32b\LL	.	.	.	.
.	32a\JJJ	]	.	.	.
=76	=76	=76	=76	=76	=76
[[16EE/LL	8.g#X/L	.	1ryy	1ryy	1ryy
[[16BB/J	.	.	.	.	.
[[8E/J	.	.	.	.	.
.	16G/Jk	.	.	.	.
2.E/]] 2.BB/]] 2.EE/]]	16B/LL	.	.	.	.
.	16e/	.	.	.	.
.	16g#/	p	.	.	.
.	16b/JJ	.	.	.	.
.	16a/LL	.	.	.	.
.	16f#X/	.	.	.	.
.	(16d#X/	.	.	.	.
.	16B/JJ	.	.	.	.
.	16c/LL	.	.	.	.
.	16B/	.	.	.	.
.	16f#/	.	.	.	.
.	16d#/JJ)	.	.	.	.
=77	=77	=77	=77	=77	=77
[[16EE/LL	8e/	.	1ryy	1ryy	1ryy
[[16BB/J	.	.	.	.	.
[[8E/J	16r	.	.	.	.
.	16G#X/	.	.	.	.
2.E/]] 2.BB/]] 2.EE/]]	16B/LL	.	.	.	.
.	16e/	f	.	.	.
.	16g/	.	.	.	.
.	16b/JJ	.	.	.	.
.	16a/LL	.	.	.	.
.	16f#X/	.	.	.	.
.	16d#X/	.	.	.	.
.	(16B/JJ	.	.	.	.
.	8.ccn^\L)	.	.	.	.
.	32b\LL	.	.	.	.
.	32a\JJJ	.	.	.	.
=78	=78	=78	=78	=78	=78
[[16EE/LL	8.g#X/L	.	1ryy	1ryy	1ryy
[[16BB/J	.	.	.	.	.
[[8E/J	.	.	.	.	.
.	16G#X/Jk	.	.	.	.
2.E/]] 2.BB/]] 2.EE/]]	16B/LL	p	.	.	.
.	16e/	.	.	.	.
.	16g#/	.	.	.	.
.	16b/JJ	.	.	.	.
.	16a'/LL	.	.	.	.
.	16f#X/	.	.	.	.
.	(16d#X/	.	.	.	.
.	16B/JJ	.	.	.	.
.	16c/LL	.	.	.	.
.	16B/	.	.	.	.
.	16f#/	.	.	.	.
.	16d#/JJ)	.	.	.	.
=79	=79	=79	=79	=79	=79
[[16EE/LL	8e/L	.	1ryy	1ryy	1ryy
[[16BB/J	.	.	.	.	.
[[8E/J	16r	.	.	.	.
.	16G#X/Jk	.	.	.	.
2.E/]] 2.BB/]] 2.EE/]]	16B/LL	.	.	.	.
.	16e/	pp	.	.	.
.	16g/	.	.	.	.
.	16b/JJ	.	.	.	.
.	16a/LL	.	.	.	.
.	16f#X/	.	.	.	.
.	(16d#X/	.	.	.	.
.	16B/JJ	.	.	.	.
.	16c/LL	.	.	.	.
.	16B/	.	.	.	.
.	16f#/	.	.	.	.
.	16d#/JJ)	.	.	.	.
=80	=80	=80	=80	=80	=80
[[16EE/LL	8e/L	.	1ryy	1ryy	1ryy
[[16BB/J	.	.	.	.	.
[[8E/J	16r	.	.	.	.
.	(16G#X/Jk	.	.	.	.
4E/]] 4BB/]] 4EE/]]	16B/LL	.	.	.	.
.	16e/	.	.	.	.
.	16g/	.	.	.	.
.	16b/JJ)	.	.	.	.
!!LO:LB:g=original
[[16EE/LL	8a/L	.	.	.	.
[[16Cn/J	.	.	.	.	.
[[8D#X/J	16r	.	.	.	.
.	16c/Jk	.	.	.	.
4D#/]] 4C/]] 4EE/]]	16d#X^/LL	.	.	.	.
.	16f#X/	.	.	.	.
.	16a/	.	.	.	.
.	16cc/JJ	.	.	.	.
=81	=81	=81	=81	=81	=81
[[16EE/LL	8b/L	.	1ryy	1ryy	1ryy
[[16D/J	.	.	.	.	.
[[8F/J	16r	.	.	.	.
.	16dn/Jk	.	.	.	.
4F/]] 4D/]] 4EE/]]	16fn^/LL	.	.	.	.
.	16g#X/	.	.	.	.
.	16b/	.	.	.	.
.	16dd/JJ	.	.	.	.
[[16EE/LL	8cc/L	.	.	.	.
[[16C/J	.	.	.	.	.
[[8E/J	16r	.	.	.	.
.	16d#X/Jk	.	.	.	.
4E/]] 4C/]] 4EE/]]	16e^/LL	.	.	.	.
.	16a/	.	.	.	.
.	16cc/	.	.	.	.
.	16ee/JJ	.	.	.	.
=82	=82	=82	=82	=82	=82
[[16EE/LL	8dd\L	.	1ryy	1ryy	1ryy
[[16BB/J	.	.	.	.	.
[[8D/J	16r	.	.	.	.
.	16g#X\Jk	.	.	.	.
2.D/_ 2.BB/_ 2.EE/_]	(16b\LL	.	.	.	.
.	16dd\	.	.	.	.
.	16ff\	.	.	.	.
.	16ee\JJ	.	.	.	.
.	16dd\LL	.	.	.	.
.	16gg#X\	.	.	.	.
.	16bb\	.	.	.	.
.	16aa\JJ	.	.	.	.
.	16gg#\LL	>	.	.	.
.	16bb\	.	.	.	.
.	16ddd\	.	.	.	.
.	16ccc\JJ	.	.	.	.
=83	=83	=83	=83	=83	=83
4D/] 4BB/] 4EE/]	16bb\LL	.	1ryy	1ryy	1ryy
.	16ddd\	.	.	.	.
.	16fff\	.	.	.	.
.	16ddd\JJ	.	.	.	.
4r	16bb\LL	]	.	.	.
.	16gg#X\	.	.	.	.
.	16ffn\	.	.	.	.
.	16ee\JJ	.	.	.	.
2r	16dd\LL	.	.	.	.
.	16cc\)	.	.	.	.
.	16b\	.	.	.	.
.	16a\JJ	.	.	.	.
.	16g\LL	.	.	.	.
.	16ff\	.	.	.	.
.	16ee\	.	.	.	.
.	16dd\JJ	.	.	.	.
=84	=84	=84	=84	=84	=84
!	!LO:TX:b:t=rallent(ando).	!	!	!	!
1r	16cc\LL	.	1ryy	1ryy	1ryy
.	16b\	.	.	.	.
.	16a\	.	.	.	.
.	16g#X\JJ	.	.	.	.
.	16ff\LL	.	.	.	.
.	16ee\	.	.	.	.
.	16dd\	.	.	.	.
.	16cc\JJ	.	.	.	.
.	16b\LL	.	.	.	.
.	16a\	.	.	.	.
.	16g#\	.	.	.	.
.	16ff\JJ	.	.	.	.
.	16ee\LL	.	.	.	.
.	16dd\	.	.	.	.
.	16cc\	.	.	.	.
.	16b\JJ	.	.	.	.
=85	=85	=85	=85	=85	=85
*	*Xtuplet	*	*	*	*
!	!LO:N:vis=12	!	!	!	!
1r;	(24a\LL	p	1ryy	1ryy	1ryy
!	!LO:N:vis=12	!	!	!	!
.	24g#X\	.	.	.	.
!	!LO:N:vis=12	!	!	!	!
.	24ff\JJ	.	.	.	.
!	!LO:N:vis=8	!	!	!	!
.	16ee\LL	.	.	.	.
!	!LO:N:vis=8	!	!	!	!
.	16dd#X\JJ	.	.	.	.
.	4ddn;\)	.	.	.	.
.	4r	.	.	.	.
!	!LO:TX:b:t=V.S.	!	!	!	!
.	4r	.	.	.	.
!!LO:LB:g=original
=86||	=86||	=86||	=86||	=86||	=86||
*k[f#c#g#]	*k[f#c#g#]	*	*k[f#c#g#]	*k[f#c#g#]	*k[f#c#g#]
!	!LO:TX:i:a:t=Andantino	!	!	!	!
2A\ 2AA\	2ee\ 2cc#\ 2a\	p	1ryy	1ryy	1ryy
2F#\ 2FF#\	2ff#\ 2cc#\ 2a#X\	.	.	.	.
=87	=87	=87	=87	=87	=87
2B\ 2BB\	2dd\ 2b\	.	1ryy	1ryy	1ryy
2E/ 2EE/	2ee\ 2b\ 2g#\	.	.	.	.
=88	=88	=88	=88	=88	=88
4A\ 4AA\	4cc#\ 4a\	.	1ryy	1ryy	1ryy
4D\	4dd\ 4b\ 4f#\	.	.	.	.
4E\	4cc#\ 4a\ 4e\	.	.	.	.
4EE/	4b\ 4g#\ 4d\	.	.	.	.
=89	=89	=89	=89	=89	=89
2AA/	2a/ 2c#/	.	1ryy	1ryy	1ryy
2r	4r	.	.	.	.
!	!LO:TX:b:t=con espresione	!	!	!	!
.	8a\L	.	.	.	.
.	8b\J	.	.	.	.
=90	=90	=90	=90	=90	=90
*^	*	*	*	*	*
8r	2AA\	4.ccn\	.	1ryy	1ryy	1ryy
8Cn/L	.	.	.	.	.	.
8E/	.	.	.	.	.	.
8A/J	.	8cc\	.	.	.	.
8r	2AA\	4cc\	.	.	.	.
8C/L	.	.	.	.	.	.
8Fn/	.	8ffn\L	.	.	.	.
8A/J	.	8ee\J	.	.	.	.
=91	=91	=91	=91	=91	=91	=91
8r	2BB-X\	8dd\L	.	1ryy	1ryy	1ryy
8D/L	.	16ee\L	.	.	.	.
.	.	16dd\JJ	.	.	.	.
8Fn/	.	4dd\	.	.	.	.
8B/J	.	.	.	.	.	.
8r	2BB-\	(8.ffn\L	.	.	.	.
8D/L	.	.	.	.	.	.
.	.	32gg#\LL	.	.	.	.
.	.	32ff\JJJ	.	.	.	.
8Gn/	.	8ee\L	.	.	.	.
8B/J	.	8dd\J)	.	.	.	.
=92	=92	=92	=92	=92	=92	=92
8r	2Cn\	4.ccn\	.	1ryy	1ryy	1ryy
8Fn/L	.	.	.	.	.	.
8A/	.	.	.	.	.	.
8c#/J	.	8a\	.	.	.	.
8r	2C\	(8cc\L	.	.	.	.
8Gn/L	.	8b\	.	.	.	.
8B-X/	.	8b-X\	.	.	.	.
8e/J	.	8g#\J)	.	.	.	.
=93	=93	=93	=93	=93	=93	=93
8r	2Fn\	8fn/	.	1ryy	1ryy	1ryy
8A/L	.	8r	.	.	.	.
8cn/	.	[4aa^\	.	.	.	.
8f#/J	.	.	.	.	.	.
8r	2A\	8aa\L]	.	.	.	.
8c/L	.	16ggn\L	.	.	.	.
.	.	16ffn\JJ	.	.	.	.
8f#/	.	16ee\LL	.	.	.	.
.	.	16ff\	.	.	.	.
8c/J	.	16gg\	.	.	.	.
.	.	16ff\JJ	.	.	.	.
*clefG2	*	*	*	*	*	*
=94	=94	=94	=94	=94	=94	=94
*	*	*^	*	*	*	*
8r	2B-X\	(16dd\LL	2.ryy	>	1ryy	1ryy	1ryy
.	.	16ff#X\	.	.	.	.	.
8d/L	.	16ggn\	.	.	.	.	.
.	.	16aa/JJ	.	.	.	.	.
8gn/	.	16cccn\LL	.	.	.	.	.
.	.	16bb-X\	.	.	.	.	.
8d/J	.	16dd\	.	.	.	.	.
.	.	16gg/JJ)	.	.	.	.	.
8r	4cn\	4ffnS\	.	.	.	.	.
8a/ 8fn/	.	.	.	.	.	.	.
8r	4c\	8aa/L	4ee\	]	.	.	.
8b-X/ 8g/	.	8gg/J	.	.	.	.	.
*v	*v	*	*	*	*	*	*
*	*v	*v	*	*	*	*
!!LO:LB:g=original
=95	=95	=95	=95	=95	=95
4a/ 4fn/	4ffn\	.	1ryy	1ryy	1ryy
*clefF4	*	*	*	*	*
!LO:SIC:v:s=4f	!	!	!	!	!
4f\ 4F#\	4aa\ 4ccn\ 4a\	.	.	.	.
!LO:SIC:v:s=4F	!	!	!	!	!
4f\ 4F#\	4ff\ 4cc\ 4a\	.	.	.	.
4r	4r	.	.	.	.
=96	=96	=96	=96	=96	=96
4A\ 4AA\	8r	p	1ryy	1ryy	1ryy
.	8cc#/L 8a/ 8gn/	.	.	.	.
4r	8cc#/ 8a/ 8g/	.	.	.	.
.	8cc#/J 8a/ 8g/	.	.	.	.
4A\ 4AA\	8r	.	.	.	.
.	8cc#/L 8a/ 8g/	.	.	.	.
4r	8cc#/ 8a/ 8g/	.	.	.	.
.	8cc#/J 8a/ 8g/	.	.	.	.
=97	=97	=97	=97	=97	=97
4D/ 4DD/	8r	.	1ryy	1ryy	1ryy
.	8dd/L 8a/ 8fn/	.	.	.	.
4r	8dd/ 8a/ 8f/	.	.	.	.
.	8dd/J 8a/ 8f/	.	.	.	.
4D/ 4DD/	8r	.	.	.	.
.	8dd/L 8a/ 8f/	.	.	.	.
4r	8dd/ 8a/ 8f/	.	.	.	.
.	8dd/J 8a/ 8f/	.	.	.	.
=98	=98	=98	=98	=98	=98
4BB-X/ 4BBB-X/	8r	.	1ryy	1ryy	1ryy
.	8dd/L 8g#X/ 8fn/	.	.	.	.
4r	8dd/ 8g#/ 8f/	.	.	.	.
.	8dd/J 8g#/ 8f/	.	.	.	.
((<2BB-/ 2BBB-/	8r	.	.	.	.
.	8dd/L 8g#/ 8d/	.	.	.	.
.	8dd/ 8g#/ 8d/	.	.	.	.
.	8dd/J 8g#/ 8d/	.	.	.	.
=99	=99	=99	=99	=99	=99
4AA/ 4AAA/))	4cc#/ 4a/ 4e/	.	1ryy	1ryy	1ryy
4r	4r	.	.	.	.
2r	4r	.	.	.	.
.	8dd\L	.	.	.	.
.	8ee\J	.	.	.	.
=100||	=100||	=100||	=100||	=100||	=100||
*k[f#c#]	*k[f#c#]	*	*k[f#c#]	*k[f#c#]	*k[f#c#]
!	!LO:TX:b:t=Dolce legato.	!	!	!	!
2F#\ 2D\	(16ff#\LL	.	1ryy	1ryy	1ryy
.	16gg\	.	.	.	.
.	16ff#\	.	.	.	.
.	16ee#X\JJ	.	.	.	.
.	16ff#\LL	.	.	.	.
.	16gg\	.	.	.	.
.	16gg#X\	.	.	.	.
.	16aa\JJ	.	.	.	.
2B\ 2BB\	16aa#X\LL	.	.	.	.
.	16bb\	.	.	.	.
.	16fff#^\	.	.	.	.
.	16eee\JJ	.	.	.	.
.	16ddd#X\LL	.	.	.	.
.	16cccn\	.	.	.	.
.	16bb\	.	.	.	.
.	16aa#\JJ)	.	.	.	.
=101	=101	=101	=101	=101	=101
2B\ 2E\	16ff#\LL	.	1ryy	1ryy	1ryy
.	16gg\	.	.	.	.
.	16aa#X\	.	.	.	.
.	16bb\JJ	.	.	.	.
.	16ff#\LL	.	.	.	.
.	16aan\	.	.	.	.
.	16gg\	.	.	.	.
.	16ee\JJ	.	.	.	.
2A\ 2E\ 2AA\	16dd\LL	.	.	.	.
.	16cc#\	.	.	.	.
.	16ee\	.	.	.	.
.	16b-X\JJ	.	.	.	.
.	16a\LL	.	.	.	.
.	16g#X\	.	.	.	.
.	16a\	.	.	.	.
.	16ggn\JJ	.	.	.	.
!!LO:LB:g=original
=102	=102	=102	=102	=102	=102
*^	*	*	*	*	*
4A\	4D\	16ff#\LL	.	1ryy	1ryy	1ryy
.	.	16cc#\	.	.	.	.
.	.	16ee\	.	.	.	.
.	.	16dd\JJ	.	.	.	.
4B\	4GG\	16a#X\LL	.	.	.	.
.	.	16cc#\	.	.	.	.
.	.	16b\	.	.	.	.
.	.	16g\JJ	.	.	.	.
4A/	2AA\	(16f#/LL	.	.	.	.
.	.	16g/	.	.	.	.
.	.	16g#X/	.	.	.	.
.	.	16an/JJ)	.	.	.	.
4G/	.	(16gn/LL	.	.	.	.
.	.	16e/	.	.	.	.
.	.	16B/	.	.	.	.
.	.	16c#/JJ	.	.	.	.
*v	*v	*	*	*	*	*
=103	=103	=103	=103	=103	=103
4F#\ 4D\	16d/LL	.	1ryy	1ryy	1ryy
.	16A/)	.	.	.	.
.	16f#/	.	.	.	.
.	16e/JJ	.	.	.	.
4r	16d/LL	.	.	.	.
.	16c#/	.	.	.	.
.	16d/	.	.	.	.
.	16B/JJ	.	.	.	.
2r	16A</LL	.	.	.	.
.	16F#</	.	.	.	.
.	16B</	.	.	.	.
.	16A</JJ	.	.	.	.
.	16F#</LL	.	.	.	.
.	16G</	.	.	.	.
.	16E</	.	.	.	.
.	16C#</JJ	.	.	.	.
=104	=104	=104	=104	=104	=104
*^	*	*	*	*	*
4D/	16r	4ryy	.	1ryy	1ryy	1ryy
.	16AA\LL	.	.	.	.	.
.	16Fn\	.	.	.	.	.
.	16E\JJ	.	.	.	.	.
4ryy	16D\LL	4fn/ 4d/	p	.	.	.
.	16C#\	.	.	.	.	.
.	16D\	.	.	.	.	.
.	16Cn\JJ	.	.	.	.	.
2ryy	16BB-X/LL	4f/ 4d/	<	.	.	.
.	16AA/	.	.	.	.	.
.	16GG/	.	.	.	.	.
.	16FF#/JJ	.	.	.	.	.
.	16EE-X/LL	4b-X/ 4d/	[[	.	.	.
.	16DD/	.	.	.	.	.
.	16CC#/	.	.	.	.	.
.	16BBB/JJ	.	.	.	.	.
*v	*v	*	*	*	*	*
=105	=105	=105	=105	=105	=105
.	16qqa/	.	.	.	.
16EE-X/LL	4g/ 4e-X/	.	1ryy	1ryy	1ryy
16DD/	.	.	.	.	.
16EE-/	.	.	.	.	.
16FFn/JJ	.	.	.	.	.
16GG/LL	2b-X/ 2B-X/	>	.	.	.
16FF/	.	.	.	.	.
16EE-/	.	.	.	.	.
16DD/JJ	.	.	.	.	.
16EE-/LL	.	]	.	.	.
16GG/	.	.	.	.	.
16BB-X/	.	.	.	.	.
16E-X/JJ	.	.	.	.	.
!	!LO:TX:t=P:problem:mixed beam	!	!	!	!
8G\L	(16B-/LL	.	.	.	.
.	16b-\	.	.	.	.
16F#\L	16a\	.	.	.	.
16E-\JJ	16g\JJ)	.	.	.	.
=106	=106	=106	=106	=106	=106
16D\LL	4fn/	.	1ryy	1ryy	1ryy
16Fn\	.	.	.	.	.
16E-X\	.	.	.	.	.
16D\JJ	.	.	.	.	.
16Cn/LL	4dd\ 4b-X\ 4f\	.	.	.	.
16BB-X/	.	.	.	.	.
16AA/	.	.	.	.	.
16GG/JJ	.	.	.	.	.
16FF#/LL	4ee-X\ 4a\ 4f\	.	.	.	.
16EEn/	.	.	.	.	.
16FF#/	.	.	.	.	.
16GG/JJ	.	.	.	.	.
16FF#/LL	4ee-\ 4a\ 4f\	.	.	.	.
16EE-X/	.	.	.	.	.
16DD/	.	.	.	.	.
16CC#/JJ	.	.	.	.	.
=107	=107	=107	=107	=107	=107
16BBB-X/LL	2dd\ 2b-X\ 2fn\	.	1ryy	1ryy	1ryy
16DD/	.	.	.	.	.
16FFn/	.	.	.	.	.
16BB-X/JJ	.	.	.	.	.
16D\LL	.	.	.	.	.
16Fn\	.	.	.	.	.
16B-X\	.	.	.	.	.
16d\JJ	.	.	.	.	.
!!LO:LB:g=original
8fn\	16r	.	.	.	.
.	(16a\LL	.	.	.	.
8r	16dd\	.	.	.	.
.	16ffn\JJ	.	.	.	.
*clefG2	*	*	*	*	*
4b-X/ 4fn/ 4d/	16bb\LL	.	.	.	.
.	16ddd\	.	.	.	.
.	16aa\	.	.	.	.
.	16bb\JJ)	.	.	.	.
=108	=108	=108	=108	=108	=108
2ccn/ 2g/ 2e-X/	16gg\LL	.	1ryy	1ryy	1ryy
.	16bbn\	.	.	.	.
.	16cccn\	.	.	.	.
.	16ddd\JJ	.	.	.	.
.	16fffn\LL	.	.	.	.
.	16eee-X\	.	.	.	.
.	16gg\	.	.	.	.
.	16ccc\JJ	.	.	.	.
4dd\ 4b-X\ 4fn\	16bb-X\LL	.	.	.	.
.	16ddd\	.	.	.	.
.	16ggg^\	.	.	.	.
.	16fff\JJ	.	.	.	.
4ee-X/ 4ccn/ 4f/	16aa\LL	.	.	.	.
.	16ccc\	.	.	.	.
.	16ggg^\	.	.	.	.
.	16fff\JJ	.	.	.	.
=109	=109	=109	=109	=109	=109
2dd\ 2b-X\	16r	.	1ryy	1ryy	1ryy
*	*8va	*	*	*	*
.	16bb-X\LL	.	.	.	.
.	16cccn\	.	.	.	.
.	16ddd\JJ	.	.	.	.
.	16eee-X\LL	.	.	.	.
.	16fffn\	.	.	.	.
.	16ggg\	.	.	.	.
.	16aaa\JJ	.	.	.	.
*clefF4	*	*	*	*	*
!	!LO:SIC:v:s=4bbb-	!	!	!	!
8r	4bbb\	.	.	.	.
8B-Xt\L	.	.	.	.	.
8A\	4r	.	.	.	.
8G\J	.	.	.	.	.
*	*X8va	*	*	*	*
=110	=110	=110	=110	=110	=110
!	!LO:TX:i:a:t=loco	!	!	!	!
8F#X\L	16r	.	1ryy	1ryy	1ryy
.	(16dd\LL	.	.	.	.
8A\J	16cc#X\	.	.	.	.
.	16dd\JJ	.	.	.	.
4d\ 4D^<\	16ee-X\LL	.	.	.	.
.	16dd\	.	.	.	.
.	16aa\	.	.	.	.
.	16gg\JJ	.	.	.	.
8F#\L	16ff#X\LL	.	.	.	.
.	16ee-X\	.	.	.	.
8A\J	16dd\	.	.	.	.
.	16cc#\JJ	.	.	.	.
4d\ 4D^<\	16dd\LL)	.	.	.	.
.	16ee-\	.	.	.	.
.	16a\	.	.	.	.
.	16dd\JJ	.	.	.	.
=111	=111	=111	=111	=111	=111
8G\L	16ccn\LL	.	1ryy	1ryy	1ryy
.	16b-X\	.	.	.	.
8B-X\J	16a\	.	.	.	.
.	16g\JJ	.	.	.	.
4d\ 4D^<\	16f#X\LL	.	.	.	.
.	16g\	.	.	.	.
.	16b-\	.	.	.	.
.	16ee-X\JJ	.	.	.	.
8G\L	16dd\LL	.	.	.	.
.	16cc#X\	.	.	.	.
8B-\J	16dd\	.	.	.	.
.	16ff#\JJ	.	.	.	.
4d\ 4D^<\	16gg\LL	.	.	.	.
.	16ff#\	.	.	.	.
.	16gg\	.	.	.	.
.	16aa\JJ	.	.	.	.
=112	=112	=112	=112	=112	=112
8G\L	16bb-X\LL	.	1ryy	1ryy	1ryy
.	16ff#X\	.	.	.	.
8B-X\J	16gg\	.	.	.	.
.	16aa\JJ	.	.	.	.
[4c#X\ [4B-\ [4G\ [4E-X\	16cccn^<\LL	.	.	.	.
.	16bb-\	.	.	.	.
.	16aa\	.	.	.	.
.	16gg\JJ	.	.	.	.
!!LO:PB:g=original
2c#\] 2B-\] 2G\] 2E-\]	16ggg^<\LL	.	.	.	.
.	16fffn\	.	.	.	.
.	16eee-X\	.	.	.	.
.	16ddd\JJ	.	.	.	.
.	16ccc#X\LL	.	.	.	.
.	16bbb-X^<\	.	.	.	.
.	16aaa\	.	.	.	.
.	16ggg\JJ	.	.	.	.
=113	=113	=113	=113	=113	=113
4d\ 4A\ 4D\	16fff#X\LL	.	1ryy	1ryy	1ryy
.	(16ddd\	.	.	.	.
.	16ccc#X\	>	.	.	.
.	16ddd\JJ	.	.	.	.
4r	16ddd#X\LL	.	.	.	.
.	16eee\	.	.	.	.
.	16bb\	.	.	.	.
.	16dddn\JJ	.	.	.	.
2r	16cccn\LL	.	.	.	.
.	16aa\	.	.	.	.
.	16ff#\	.	.	.	.
.	16dd\JJ	.	.	.	.
!	!LO:TX:b:t=rallent(ando).	!	!	!	!
.	16cc#X\LL	]	.	.	.
.	16dd\	.	.	.	.
.	16dd#X\	.	.	.	.
.	16ee\JJ	.	.	.	.
=114	=114	=114	=114	=114	=114
1r;	16b\LL	.	1ryy	1ryy	1ryy
.	16dd\JJ	.	.	.	.
*	*tuplet	*	*	*	*
!	!LO:TX:t=P:problem:klamra łukowa i cyfra	!	!	!	!
.	24b\LL	.	.	.	.
.	24a\	.	.	.	.
.	24g\JJ	.	.	.	.
.	4f#/)	.	.	.	.
.	4r;	.	.	.	.
.	4r	.	.	.	.
=115||	=115||	=115||	=115||	=115||	=115||
*k[f#]	*k[f#]	*	*k[f#]	*k[f#]	*k[f#]
!	!LO:TUP:b	!	!	!	!
4GG/	24d/LL	p	1ryy	1ryy	1ryy
.	24g/	.	.	.	.
.	24b/	.	.	.	.
.	24f#/	.	.	.	.
.	24g/	.	.	.	.
.	24b/JJ	.	.	.	.
8qF#/	.	.	.	.	.
!	!LO:TUP:b	!	!	!	!
4G\	24d/LL	.	.	.	.
.	24g/	.	.	.	.
.	24b/	.	.	.	.
.	24f#/	.	.	.	.
.	24g/	.	.	.	.
.	24b/JJ	.	.	.	.
!	!LO:TUP:b	!	!	!	!
4EE/	24d/LL	.	.	.	.
.	24g#X/	.	.	.	.
.	24b/	.	.	.	.
.	24f##X/	.	.	.	.
.	24g#/	.	.	.	.
.	24b/JJ	.	.	.	.
8qD#X/	.	.	.	.	.
!	!LO:TUP:b	!	!	!	!
4E\	24d/LL	.	.	.	.
.	24g#/	.	.	.	.
.	24b/	.	.	.	.
.	24f##/	.	.	.	.
.	24g#/	.	.	.	.
.	24b/JJ	.	.	.	.
=116	=116	=116	=116	=116	=116
*	*Xtuplet	*	*	*	*
4AA/	24c/LL	.	1ryy	1ryy	1ryy
.	24a/	.	.	.	.
.	24cc/	.	.	.	.
.	24g#X/	.	.	.	.
.	24a/	.	.	.	.
.	24cc/JJ	.	.	.	.
8qG#X/	.	.	.	.	.
4A\	24e/LL	.	.	.	.
.	24a/	.	.	.	.
.	24cc/	.	.	.	.
.	24g#/	.	.	.	.
.	24a/	.	.	.	.
.	24cc/JJ	.	.	.	.
4AA/	24d/LL	.	.	.	.
.	24a/	.	.	.	.
.	24cc/	.	.	.	.
.	24g#X/	.	.	.	.
.	24a/	.	.	.	.
.	24cc/JJ	.	.	.	.
8qE#X/	.	.	.	.	.
4F#\	24d/LL	.	.	.	.
.	24a/	.	.	.	.
.	24cc/	.	.	.	.
.	24g#/	.	.	.	.
.	24a/	.	.	.	.
.	24cc/JJ	.	.	.	.
!!LO:LB:g=original
=117	=117	=117	=117	=117	=117
!LO:TX:t=P:problem:mixed beam	!	!	!	!	!
8GG/L	24d/LL	.	1ryy	1ryy	1ryy
.	24gn/	.	.	.	.
.	24b/	.	.	.	.
8G\J	24f#^/	.	.	.	.
.	24g/	.	.	.	.
.	24b/JJ	.	.	.	.
8r	24e/LL	.	.	.	.
.	24a/	.	.	.	.
.	24cc/	.	.	.	.
8C\	24g#X^/	.	.	.	.
.	24a/	.	.	.	.
.	24cc/JJ	.	.	.	.
8r	24d/LL	.	.	.	.
.	24gn/	.	.	.	.
.	24b/	.	.	.	.
8D\	24f#^/	.	.	.	.
!	!	!LO:HP:t=crescendo	!	!	!
.	24g/	<	.	.	.
.	24b/JJ	.	.	.	.
8r	24c/LL	.	.	.	.
.	24f#/	.	.	.	.
.	24a/	.	.	.	.
8DD/	24e#X^/	.	.	.	.
.	24f#/	.	.	.	.
.	24a/JJ	.	.	.	.
=118	=118	=118	=118	=118	=118
4GG/	24B/LL	.	1ryy	1ryy	1ryy
.	24d/	.	.	.	.
.	24g/	.	.	.	.
.	(24c#X^/	.	.	.	.
.	24d/	.	.	.	.
.	24g/JJ	.	.	.	.
2G\	24d/LL	.	.	.	.
.	24g/	.	.	.	.
.	24b/	.	.	.	.
.	24f#^/	.	.	.	.
.	24g/	.	.	.	.
.	24b/JJ	.	.	.	.
.	24g/LL	<	.	.	.
.	24b/	.	.	.	.
.	24dd/	.	.	.	.
.	24a#X^/	.	.	.	.
.	24b/	.	.	.	.
.	24dd/JJ	.	.	.	.
8D/L	24b\LL	.	.	.	.
.	24dd\	[	.	.	.
.	24gg\)	.	.	.	.
8BB/J	24cc#X^<\	f	.	.	.
.	24dd\	.	.	.	.
.	24gg\JJ	.	.	.	.
=119	=119	=119	=119	=119	=119
4r	(24dd\LL	>	1ryy	1ryy	1ryy
.	24gg\	.	.	.	.
.	24bb-X\	.	.	.	.
.	24ff#^<\	.	.	.	.
.	24gg\	.	.	.	.
.	24bb-\JJ	.	.	.	.
4GG/	24b-X\LL	]	.	.	.
.	24dd\	.	.	.	.
.	24gg\	.	.	.	.
.	24cc#X^<\	.	.	.	.
.	24dd\	.	.	.	.
.	24gg\JJ	.	.	.	.
4G\	24g\LL	.	.	.	.
.	24b-\	.	.	.	.
.	24dd\	.	.	.	.
.	24a^<\	.	.	.	.
.	24b-\	.	.	.	.
.	24dd\JJ)	.	.	.	.
4E-X\	24g\LL	.	.	.	.
.	24b-\	.	.	.	.
.	24ee-X\	.	.	.	.
!	!	!LO:HP:t=dimin	!	!	!
.	24a^<\	>	.	.	.
.	24b-\	.	.	.	.
.	24ee-\JJ	.	.	.	.
=120	=120	=120	=120	=120	=120
4AA-X/	24a-X\LL	.	1ryy	1ryy	1ryy
.	24cc\	.	.	.	.
.	24ee-X\	.	.	.	.
.	24bn^<\	.	.	.	.
.	24cc\	.	.	.	.
.	24ee-\JJ	.	.	.	.
!LO:SIC:v:s=2A-	!	!	!	!	!
2A^\	24e-X\LL	.	.	.	.
.	24a-\	.	.	.	.
.	24cc\	.	.	.	.
.	24g^<\	.	.	.	.
.	24a-\	.	.	.	.
.	24cc\JJ	.	.	.	.
.	24c/LL	.	.	.	.
.	24e-/	.	.	.	.
.	24a-/	.	.	.	.
.	24d^</	.	.	.	.
.	24e-/	.	.	.	.
.	24a-/JJ	.	.	.	.
4AA-/	24c/LL	.	.	.	.
.	24e-/	.	.	.	.
.	24a-/	.	.	.	.
.	24d^/	.	.	.	.
.	24e-/	.	.	.	.
.	24a-/JJ	.	.	.	.
!!LO:LB:g=original
=121	=121	=121	=121	=121	=121
4BB-X/	(24B-X/LL	.	1ryy	1ryy	1ryy
.	24e-X/	.	.	.	.
.	24g/	.	.	.	.
.	24d^/	.	.	.	.
.	24e-/	.	.	.	.
.	24g/JJ	.	.	.	.
!LO:SIC:v:s=4B-	!	!	!	!	!
4B\	24e-/LL	.	.	.	.
.	24g/	.	.	.	.
.	24b/	.	.	.	.
.	24f#X^/	.	.	.	.
.	24g/	.	.	.	.
.	24b/JJ	.	.	.	.
4BB-/	24fn/LL	.	.	.	.
.	24b-X/	.	.	.	.
.	24dd/	.	.	.	.
.	24a^/	.	.	.	.
.	24b-/	.	.	.	.
.	24dd/JJ	.	.	.	.
!LO:SIC:v:s=2A-	!	!	!	!	!
4B\	24a-X\LL	.	.	.	.
.	24dd\)	.	.	.	.
.	24ffn\	.	.	.	.
.	24cc#X^<\	.	.	.	.
.	24dd\	.	.	.	.
.	24ff\JJ	.	.	.	.
=122	=122	=122	=122	=122	=122
2E-X\	24g\LL	.	1ryy	1ryy	1ryy
.	24b-X\	.	.	.	.
.	24ee-X\	.	.	.	.
.	24an^<\	.	.	.	.
.	24b-\	.	.	.	.
.	24ee-\JJ	.	.	.	.
.	24g\LL	.	.	.	.
.	24b-\	.	.	.	.
.	24ee-^<\	.	.	.	.
.	24a\	.	.	.	.
.	24b-\	.	.	.	.
.	24ee-\JJ	.	.	.	.
2G\ 2GG\	24e\LL	p	.	.	.
.	24bn\	.	.	.	.
.	24ee-\	.	.	.	.
.	24a^<\	.	.	.	.
.	24b\	.	.	.	.
.	24ee-\JJ	.	.	.	.
.	24e\LL	.	.	.	.
.	24b\	.	.	.	.
.	24ee-\	.	.	.	.
.	24a^<\	.	.	.	.
.	24b\	.	.	.	.
.	24ee-\JJ	.	.	.	.
=123	=123	=123	=123	=123	=123
4A-X\ 4AA-X\	(24g\LL	.	1ryy	1ryy	1ryy
.	24a-X\	.	.	.	.
.	24cc\	.	.	.	.
.	24fn\	.	.	.	.
.	24a-\	.	.	.	.
.	24cc\JJ	.	.	.	.
4A-\	24bn\LL	.	.	.	.
.	24cc\	.	.	.	.
.	24ff#\	.	.	.	.
.	24a-\	.	.	.	.
.	24cc\	.	.	.	.
.	24ff#\JJ	.	.	.	.
4B-X\	24g\LL	.	.	.	.
.	24b-X\	.	.	.	.
.	24ee-X\	.	.	.	.
.	24an\	<	.	.	.
.	24b-\	.	.	.	.
.	24ee-\JJ	.	.	.	.
4BB-X/	24fn\LL	.	.	.	.
.	24b-\	.	.	.	.
.	24dd\)	.	.	.	.
.	24a-X\	.	.	.	.
.	24b-\	[	.	.	.
.	24dd\JJ	.	.	.	.
=124	=124	=124	=124	=124	=124
4E-X\	(24g\LL	.	1ryy	1ryy	1ryy
.	24b-X\	.	.	.	.
.	24ee-X\	.	.	.	.
.	24a\	.	.	.	.
.	24b-\	.	.	.	.
.	24ee-\JJ	.	.	.	.
4EE-X/	24b-\LL	.	.	.	.
.	24ee-\	.	.	.	.
.	24gg\	.	.	.	.
.	24dd\	>	.	.	.
.	24ee-\	.	.	.	.
.	24gg\JJ	.	.	.	.
4r	24g\LL	.	.	.	.
.	24b-\)	.	.	.	.
.	24ee-\	.	.	.	.
.	24a\	.	.	.	.
.	24b-\	.	.	.	.
.	24ee-\JJ	.	.	.	.
4C/	24g\LL	]	.	.	.
.	24cc\	.	.	.	.
.	24ee-\	.	.	.	.
.	24bn\	.	.	.	.
.	24cc\	.	.	.	.
.	24ee-\JJ	.	.	.	.
!!LO:LB:g=original
=125	=125	=125	=125	=125	=125
4GG/	24g\LL	.	1ryy	1ryy	1ryy
.	24dd\	.	.	.	.
.	24ffn\	.	.	.	.
.	24cc#X\	.	.	.	.
.	24dd\	.	.	.	.
.	24ff\JJ	.	.	.	.
2G\	24a-X\LL	rf	.	.	.
.	24dd\	.	.	.	.
.	24ff\	.	.	.	.
.	24cc#\	.	.	.	.
.	24dd\	.	.	.	.
.	24ff\JJ	.	.	.	.
.	24g\LL	<	.	.	.
.	24dd\	.	.	.	.
.	24ff\	.	.	.	.
.	24cc#\	.	.	.	.
.	24dd\	.	.	.	.
.	24ff\JJ	.	.	.	.
4BBn/	24g\LL	.	.	.	.
.	24dd\	.	.	.	.
.	24ff\	[	.	.	.
.	24cc#\	.	.	.	.
.	24dd\	.	.	.	.
.	24ff\JJ	.	.	.	.
=126	=126	=126	=126	=126	=126
4C/	24g\LL	.	1ryy	1ryy	1ryy
.	24cc\	.	.	.	.
.	24ee-X\	.	.	.	.
.	24bn\	.	.	.	.
.	24cc\	.	.	.	.
.	24ee-\JJ	.	.	.	.
4E-X/	24g\LL	.	.	.	.
.	24cc\	.	.	.	.
.	24ee-\	.	.	.	.
.	24b\	.	.	.	.
.	24cc\	.	.	.	.
!	!	!LO:HP:t=crescendo	!	!	!
.	24ee-\JJ	<	.	.	.
4C/	24g\LL	.	.	.	.
.	24cc\	.	.	.	.
.	24ee-\	.	.	.	.
.	24b\	.	.	.	.
.	24cc\	.	.	.	.
.	24ee-\JJ	.	.	.	.
4BB-X/	24g\LL	.	.	.	.
.	24cc\	.	.	.	.
.	24ee-\	.	.	.	.
.	24b\	.	.	.	.
.	24cc\	.	.	.	.
.	24ee-\JJ	.	.	.	.
=127	=127	=127	=127	=127	=127
4AA-X/	24cc\LL	.	1ryy	1ryy	1ryy
.	24ee-X\	.	.	.	.
.	24ff#X\	.	.	.	.
.	24dd\	.	.	.	.
.	24ee-\	.	.	.	.
.	24ff#\JJ	.	.	.	.
!LO:SIC:v:s=2A-	!	!	!	!	!
2A^\	24cc\LL	.	.	.	.
.	24ee-\	.	.	.	.
.	24ff#\	.	.	.	.
.	24dd\	rf	.	.	.
.	24ee-\	.	.	.	.
.	(24ff#\JJ	.	.	.	.
.	24cc\LL	.	.	.	.
.	24ee-\	.	.	.	.
.	24ccc\	.	.	.	.
.	24cc\	>	.	.	.
.	24ee-\	.	.	.	.
.	24aa-X\JJ	.	.	.	.
4AA-/	24cc\LL	.	.	.	.
.	24ee-\	.	.	.	.
.	24gg\	.	.	.	.
.	24cc\	]	.	.	.
.	24ee-\	.	.	.	.
.	24ff#X\JJ	.	.	.	.
=128	=128	=128	=128	=128	=128
[1GG/	24b\LL	.	1ryy	1ryy	1ryy
.	24dd\)	.	.	.	.
.	24gg\	.	.	.	.
.	24cc#X^<\	.	.	.	.
.	24dd\	.	.	.	.
.	24gg\JJ	.	.	.	.
.	24g\LL	.	.	.	.
.	24b\	.	.	.	.
.	24dd\	.	.	.	.
.	24a#X^<\	.	.	.	.
.	24b\	.	.	.	.
.	24dd\JJ	.	.	.	.
.	24d/LL	.	.	.	.
.	24f#/	.	.	.	.
.	24b/	.	.	.	.
.	24f#^</	.	.	.	.
.	24g/	.	.	.	.
.	24b/JJ	.	.	.	.
.	24B/LL	.	.	.	.
.	24d/	.	.	.	.
.	24g/	.	.	.	.
.	24c#X^/	.	.	.	.
.	24d/	.	.	.	.
!	!LO:TX:i:a:t=V.S	!	!	!	!
.	24g/JJ	.	.	.	.
!!LO:PB:g=original
=129	=129	=129	=129	=129	=129
4GG/]	24G/LL	.	1ryy	1ryy	1ryy
.	24d/	.	.	.	.
.	24g/	.	.	.	.
.	24B/	.	.	.	.
.	24d/	.	.	.	.
.	24g/JJ	.	.	.	.
*clefG2	*	*	*	*	*
4fn;</	24G/LL	p	.	.	.
.	24d/	.	.	.	.
.	24g/	.	.	.	.
.	24B/	.	.	.	.
.	24d/	.	.	.	.
.	24g/JJ	.	.	.	.
4f;</	24G/LL	.	.	.	.
.	24d/	.	.	.	.
.	24g/	.	.	.	.
.	24B/	.	.	.	.
.	24d/	.	.	.	.
.	24g/JJ	.	.	.	.
4f;</	24B/LL	.	.	.	.
.	24d/	.	.	.	.
.	24g/	.	.	.	.
.	24c#X/	.	.	.	.
.	24d/	.	.	.	.
.	24g/JJ	.	.	.	.
=130	=130	=130	=130	=130	=130
8r	24B/LL	.	1ryy	1ryy	1ryy
.	24d/	.	.	.	.
.	24g/	.	.	.	.
(8f#X/L	24r	.	.	.	.
.	(24d/	.	.	.	.
.	24g/JJ)	.	.	.	.
8a-X^/	24r	.	.	.	.
.	(24d/LL	.	.	.	.
.	24g/)	.	.	.	.
8fn/J)	24r	.	.	.	.
.	(24d/	.	.	.	.
.	24g/JJ)	.	.	.	.
8B'/	24r	.	.	.	.
.	(24d/LL	.	.	.	.
.	24g/)	.	.	.	.
!	!	!LO:HP:t=diminuendo	!	!	!
(8f#X/L	24r	>	.	.	.
.	(24d/	.	.	.	.
.	24g/JJ)	.	.	.	.
8a-X^/	24r	.	.	.	.
.	(24d/LL	.	.	.	.
.	24g/)	.	.	.	.
8fn/J)	24r	.	.	.	.
.	(24d/	.	.	.	.
.	24g/JJ)	.	.	.	.
=131!|:	=131!|:	=131!|:	=131!|:	=131!|:	=131!|:
8B'/	24r	>	1ryy	1ryy	1ryy
.	(24d/LL	.	.	.	.
.	24g/	.	.	.	.
(8f#X/L	24r	.	.	.	.
.	24d/)	.	.	.	.
.	24g/JJ	.	.	.	.
8a-X^/	24r	]	.	.	.
.	24d/LL	.	.	.	.
.	(24g/	.	.	.	.
8fn/J)	24r	.	.	.	.
.	24d/)	.	.	.	.
!	!LO:TX:i:a:t=bis.	!	!	!	!
.	24g/JJ	.	.	.	.
8B'/	24r	.	.	.	.
!	!LO:TX:b:t=rallent.(ando)	!	!	!	!
.	24d/LL	.	.	.	.
.	(24g/	.	.	.	.
(8f#X/L	24r	.	.	.	.
.	24d/)	.	.	.	.
.	24g/JJ	.	.	.	.
8a-X^/	24r	.	.	.	.
.	(24d/LL	.	.	.	.
.	24g/	.	.	.	.
8fn/J)	24r	.	.	.	.
.	24d/)	.	.	.	.
.	24g/JJ	.	.	.	.
=132:|!	=132:|!	=132:|!	=132:|!	=132:|!	=132:|!
8B'/	24r	pp	1ryy	1ryy	1ryy
.	(24d/LL	.	.	.	.
.	24g/	.	.	.	.
(8f#X/L	24r	.	.	.	.
.	24d/	.	.	.	.
.	24g/JJ	.	.	.	.
8a-X^/	24r	.	.	.	.
.	24d/LL	.	.	.	.
.	24g/	.	.	.	.
8fn/J)	24r	.	.	.	.
.	24d/	.	.	.	.
.	24g/JJ)	.	.	.	.
4r	4r;	.	.	.	.
*clefF4	*	*	*	*	*
!LO:TX:t=P:problem:wracam do klucza basowego,gdyż to wydaje mi się najbardziej sensowne	!	!	!	!	!
8.r	8.r	.	.	.	.
!	!LO:TX:t=P:problem:ff=ffo.:global	!	!	!	!
16A-X\ 16AA-X\	16aa-X\ 16a-X\	ff	.	.	.
!!LO:LB:g=original
=133	=133	=133	=133	=133	=133
!	!LO:TX:i:a:t=Maestoso e riſoluto.	!	!	!	!
4.A-X\ 4.AA-X\	4.aa-X\ 4.a-X\	.	1ryy	1ryy	1ryy
16r	16r	.	.	.	.
16C/ 16CC/	16cc/ 16c/	.	.	.	.
4.C/ 4.CC/	4.cc/ 4.c/	.	.	.	.
16r	16r	.	.	.	.
16Fn\ 16C\ 16FFn\	16ffn\ 16a-X\ 16fn\	rf	.	.	.
=134	=134	=134	=134	=134	=134
2F#\ 2C\ 2FF#\	2ff#\ 2a\ 2f#\	.	1ryy	1ryy	1ryy
4r	4r	.	.	.	.
8.r	8.r	.	.	.	.
16Fn\ 16C\ 16FFn\	16ffn\ 16a-X\ 16fn\	.	.	.	.
=135	=135	=135	=135	=135	=135
4.F#\ 4.C\ 4.FF#\	4.ff#\ 4.a\ 4.f#\	.	1ryy	1ryy	1ryy
16r	16r	.	.	.	.
16AA-X/ 16AAA-X/	16a-X/ 16A-X/	.	.	.	.
4.AA-/ 4.AAA-/	(4.a-/ 4.A-/	.	.	.	.
16r	16r	.	.	.	.
16F#X\ 16FF#X\	16aan\ 16ee-X\ 16cc\)	.	.	.	.
=136	=136	=136	=136	=136	=136
1F#X/ 1FF#X/;	1aa\ 1ee\ 1cc\;	.	1ryy	1ryy	1ryy
=137||	=137||	=137||	=137||	=137||	=137||
*k[b-e-]	*k[b-e-]	*	*k[b-e-]	*k[b-e-]	*k[b-e-]
!	!LO:TX:i:a:t=Molto agitato. e Presto assai	!	!	!	!
8G\': 8D\: 8BB-\: 8GG:\	16r	p	1ryy	1ryy	1ryy
.	(16g/LL	.	.	.	.
8r	16d/	.	.	.	.
.	16B-/JJ	.	.	.	.
4r	16G/LL	.	.	.	.
.	16d/	.	.	.	.
.	16B-/	.	.	.	.
.	16G/JJ)	.	.	.	.
8G\': 8D\: 8BB-\: 8GG:\	16r	.	.	.	.
.	(16b-/LL	.	.	.	.
8r	16g/	.	.	.	.
.	16d/JJ	.	.	.	.
4r	16B-/LL	.	.	.	.
.	16g/	.	.	.	.
.	16d/	.	.	.	.
.	16B-/JJ)	.	.	.	.
=138	=138	=138	=138	=138	=138
8F#X\' 8D\ 8AA\ 8FF#X\	16r	.	1ryy	1ryy	1ryy
.	16dd/LL	.	.	.	.
8r	16a/	.	.	.	.
.	16f#X/JJ	.	.	.	.
4r	16d/LL	.	.	.	.
!	!	!LO:HP:t=crescendo	!	!	!
.	16a/	<	.	.	.
.	16f#/	.	.	.	.
.	16d/JJ	.	.	.	.
8Fn\' 8D\ 8AA\ 8FFn\	16r	.	.	.	.
.	16dd/LL	.	.	.	.
8r	16a/	.	.	.	.
.	16fn/JJ	.	.	.	.
4r	16d^/LL	.	.	.	.
.	16a/	.	.	.	.
.	16f/	.	.	.	.
.	16d/JJ	.	.	.	.
=139	=139	=139	=139	=139	=139
*	*^	*	*	*	*
8En/ 8C#X/ 8GG/ 8EEn/	2ryy	16r	.	1ryy	1ryy	1ryy
.	.	16gg\LL	.	.	.	.
8r	.	16een\	.	.	.	.
.	.	16cc#X\JJ	.	.	.	.
4r	.	16g^<\LL	.	.	.	.
.	.	16ee\	.	.	.	.
.	.	16cc#\	.	.	.	.
.	.	16g\JJ	.	.	.	.
!!LO:LB:g=original
8cn\ 8G\ 8E-X\	16ryy	16r	.	.	.	.
.	4gg/	16gg\LL	rf	.	.	.
8r	.	16ee-X\	.	.	.	.
.	.	16ccn\JJ	.	.	.	.
4r	.	16g\LL	.	.	.	.
.	16ryy	16ee-\	.	.	.	.
.	16ryy	16cc\	.	.	.	.
.	16ryy	16g\JJ	.	.	.	.
=140	=140	=140	=140	=140	=140	=140
8d\ 8A\ 8F#X\ 8D\	16ryy	16r	.	1ryy	1ryy	1ryy
.	4ff#X/	16ff#^\LL	.	.	.	.
8r	.	16dd\	.	.	.	.
.	.	16cc\JJ	.	.	.	.
4r	.	16a\LL	.	.	.	.
.	16ryy	16dd\	.	.	.	.
.	16ryy	16cc\	.	.	.	.
.	16ryy	16a\JJ	.	.	.	.
8G\ 8Fn\ 8BBn\	16ryy	16r	.	.	.	.
!	!	!	!LO:HP:t=diminuendo	!	!	!
.	4ffn/	16ffn^\LL	>	.	.	.
8r	.	16dd\	.	.	.	.
.	.	16bn\JJ	.	.	.	.
4r	.	16g\LL	.	.	.	.
.	16ryy	16dd\	.	.	.	.
.	16ryy	16b\	.	.	.	.
.	16ryy	16g\JJ	.	.	.	.
=141	=141	=141	=141	=141	=141	=141
8G\ 8En\ 8C\	16ryy	16r	.	1ryy	1ryy	1ryy
.	4een/	16een^\LL	.	.	.	.
8r	.	16cc\	.	.	.	.
.	.	16g\JJ	.	.	.	.
4r	.	16e-\LL	.	.	.	.
.	16ryy	16cc\	.	.	.	.
.	16ryy	16g\	.	.	.	.
.	16ryy	16e-\JJ	.	.	.	.
8A\ 8E-X\ 8C\ 8AA\	16ryy	16r	.	.	.	.
.	4ee-X/	16ee-\LL	.	.	.	.
8r	.	16cc\	.	.	.	.
.	.	16a\JJ	.	.	.	.
4r	.	16e-\LL	.	.	.	.
.	16ryy	16cc\	.	.	.	.
.	16ryy	16a\	.	.	.	.
.	16ryy	16e-\JJ	p	.	.	.
=142	=142	=142	=142	=142	=142	=142
8D/ 8C/ 8AA/ 8FF#X'/	16ryy	16r	.	1ryy	1ryy	1ryy
.	4dd/	16dd\LL	.	.	.	.
8r	.	16cc\	.	.	.	.
.	.	16a\JJ	.	.	.	.
4r	.	16d\LL	.	.	.	.
.	4cc/	16cc\	.	.	.	.
.	.	16a\	.	.	.	.
.	.	16d\JJ	.	.	.	.
8E-/ 8BB-/ 8GG'/	.	16r	.	.	.	.
.	4ryy/	16ee-X\LL	.	.	.	.
8r	.	16b-\	.	.	.	.
.	.	16g\JJ	.	.	.	.
4r	.	16e-\LL	.	.	.	.
.	16ryy	16b-\	.	.	.	.
.	16ryy	16g\	.	.	.	.
.	16ryy	16e-\JJ	.	.	.	.
*	*v	*v	*	*	*	*
=143	=143	=143	=143	=143	=143
8F/ 8D/ 8AA/	16r	.	1ryy	1ryy	1ryy
.	16dd\LL	.	.	.	.
8r	16a\	.	.	.	.
.	16f\JJ	.	.	.	.
4r	16d/LL	.	.	.	.
.	16a/	.	.	.	.
.	16f/	.	.	.	.
.	16d/JJ	.	.	.	.
8G/ 8E-/ 8AA/	16r	.	.	.	.
.	16cc#X/LL	.	.	.	.
8r	16a/	.	.	.	.
.	16g/JJ	.	.	.	.
4r	16en/LL	.	.	.	.
.	16a/	.	.	.	.
.	16g/	.	.	.	.
.	16e/JJ	.	.	.	.
=144	=144	=144	=144	=144	=144
8F#X\ 8D\	16r	.	1ryy	1ryy	1ryy
.	16ccn/LL	.	.	.	.
8r	16a/	.	.	.	.
.	16f#X/JJ	.	.	.	.
4r	16c/LL	.	.	.	.
.	16a/	.	.	.	.
.	16f#/	.	.	.	.
.	16c/JJ	.	.	.	.
(2A\ 2F#X\ 2E-X\	16r	.	.	.	.
.	16cc/LL	.	.	.	.
.	16a/	.	.	.	.
.	16f#/JJ	.	.	.	.
.	16c/LL	.	.	.	.
.	16a/	.	.	.	.
.	16f#/	.	.	.	.
.	16c/JJ	.	.	.	.
!!LO:LB:g=original
=145	=145	=145	=145	=145	=145
8A\ 8F#X\ 8D\)	16r	.	1ryy	1ryy	1ryy
.	16cc/LL	.	.	.	.
8r	16a/	.	.	.	.
.	16f#X/JJ	.	.	.	.
4r	16c/LL	.	.	.	.
.	16a/	.	.	.	.
.	16f#/	.	.	.	.
.	16c/JJ	.	.	.	.
8G/ 8D/ 8BB-X/ 8GG/	16r	.	.	.	.
.	16b-X/LL	.	.	.	.
8r	16g/	.	.	.	.
.	16d/JJ	.	.	.	.
4r	16B-^/LL	.	.	.	.
.	16g/	.	.	.	.
.	16d/	.	.	.	.
.	16B-/JJ	.	.	.	.
=146	=146	=146	=146	=146	=146
*	*^	*	*	*	*
8En/ 8C#X/ 8AA/ 8GG/	16r	2.ryy	.	1ryy	1ryy	1ryy
.	16cc#X/LL	.	.	.	.	.
8r	16a/	.	.	.	.	.
.	16en/JJ	.	.	.	.	.
!	!LO:SIC:v:s=16c#	!	!	!	!	!
4r	16c^/LL	.	.	.	.	.
.	16a/	.	.	.	.	.
.	16e/	.	.	.	.	.
.	16c/JJ	.	.	.	.	.
8F#X/ 8D/ 8AA/ 8FF#X/	16r	.	.	.	.	.
.	16dd/LL	.	.	.	.	.
8r	16a/	.	.	.	.	.
.	16f#X/JJ	.	.	.	.	.
4r	16d/LL	4d\	.	.	.	.
.	16f#^</	.	.	.	.	.
!	!	!	!LO:TX:t=cres_:problem:dynamics with extention lines	!	!	!
.	16a/	.	<	.	.	.
.	16dd/JJ	.	.	.	.	.
=147	=147	=147	=147	=147	=147	=147
8E-X/ 8D/ 8GG/	16r	4ryy	.	1ryy	1ryy	1ryy
.	16dd\LL	.	.	.	.	.
8r	16b-X\	.	.	.	.	.
.	16g\JJ	.	.	.	.	.
4r	16e-X/LL	4e-X\	.	.	.	.
.	16b-^</	.	.	.	.	.
.	16g/	.	.	.	.	.
.	16e-/JJ	.	.	.	.	.
8A\ 8E-X\ 8C\ 8AA\	16r	4ryy	.	.	.	.
.	16cc/LL	.	.	.	.	.
8r	16a/	.	.	.	.	.
.	16e-/JJ	.	.	.	.	.
4r	16c/LL	4c\	.	.	.	.
.	16e-^</	.	.	.	.	.
.	16a/	.	.	.	.	.
.	16cc/JJ	.	.	.	.	.
=148	=148	=148	=148	=148	=148	=148
8D/ 8C/ 8FF#X/	16r	4ryy	.	1ryy	1ryy	1ryy
.	16cc/LL	.	.	.	.	.
8r	16a/	.	.	.	.	.
.	16f#X/JJ	.	.	.	.	.
4r	16d/LL	4d\	.	.	.	.
.	16a/	.	.	.	.	.
.	16f#^</	.	.	.	.	.
.	16d/JJ	.	.	.	.	.
8D/ 8BBn/ 8FFn/	16r	4ryy	.	.	.	.
.	16dd/LL	.	.	.	.	.
8r	16bn/	.	.	.	.	.
.	16g/JJ	.	.	.	.	.
4r	16d/LL	4d\	.	.	.	.
.	16g/	.	.	.	.	.
.	16b/	.	.	.	.	.
.	16dd/JJ	.	.	.	.	.
=149	=149	=149	=149	=149	=149	=149
8C#X/ 8BB-X/ 8EE-X/	16ryy	16r	[	1ryy	1ryy	1ryy
.	4gg/	16gg\LL	f	.	.	.
8r	.	16cc#X\	.	.	.	.
.	.	16b-X\JJ	.	.	.	.
4r	.	16g\LL	.	.	.	.
.	16ryy	16b-^<\	.	.	.	.
.	8ryy	16cc#\	.	.	.	.
.	.	16gg\JJ	.	.	.	.
8D/ 8AA/ 8FF#X/ 8DD/	16ryy	16r	.	.	.	.
.	4ff#X/	16ff#\LL	.	.	.	.
8r	.	16dd\	.	.	.	.
.	.	16a\JJ	.	.	.	.
!	!LO:SIC:v:s=16f#	!	!	!	!	!
4r	.	16f^\LL	.	.	.	.
.	16ryy	16dd\	.	.	.	.
.	8ryy	16a\	.	.	.	.
!	!LO:SIC:v:s=16f#	!	!	!	!	!
.	.	16f\JJ	.	.	.	.
=150	=150	=150	=150	=150	=150	=150
!	!	!	!	!LO:HP:t=diminuendo	!	!
8G\ 8Fn\ 8D\ 8BBn\	16ryy	16r	>	1ryy	1ryy	1ryy
.	4ffn/	16ffn\LL	.	.	.	.
8r	.	16dd\	.	.	.	.
.	.	16bn\JJ	.	.	.	.
4r	.	16f^\LL	.	.	.	.
.	16ryy	16b\	.	.	.	.
.	8ryy	16dd\	.	.	.	.
.	.	16ff\JJ	.	.	.	.
!!LO:PB:g=original
8A-X\ 8E-X\ 8C\	16ryy	16r	.	.	.	.
.	4ee-X/	16ee-X\LL	.	.	.	.
8r	.	16cc\	.	.	.	.
.	.	16a-X\JJ	.	.	.	.
4r	.	16e-^\LL	.	.	.	.
.	16ryy	16a-\	.	.	.	.
.	8ryy	16cc\	.	.	.	.
.	.	16ee-\JJ	.	.	.	.
=151	=151	=151	=151	=151	=151	=151
8A\ 8F#X\ 8D\	16ryy	16r	.	1ryy	1ryy	1ryy
.	4dd/	16dd\LL	.	.	.	.
8r	.	16a\	.	.	.	.
.	.	16f#X\JJ	.	.	.	.
4r	.	16d^\LL	.	.	.	.
.	16ryy	16f#\	.	.	.	.
.	8ryy	16a\	.	.	.	.
.	.	16dd\JJ	.	.	.	.
8c\ 8G\ 8E-X\	16ryy	16r	.	.	.	.
.	4cc/	16cc\LL	.	.	.	.
8r	.	16g\	.	.	.	.
.	.	16e-X\JJ	.	.	.	.
4r	.	16c^/LL	.	.	.	.
.	16ryy	16g/	.	.	.	.
.	8ryy	16e-/	.	.	.	.
.	.	16c/JJ	.	.	.	.
=152	=152	=152	=152	=152	=152	=152
8B-\ 8G\ 8D\	16r	16ryy	.	1ryy	1ryy	1ryy
.	16b-/LL	4b-\	.	.	.	.
8r	16g/	.	.	.	.	.
.	16d/JJ	.	.	.	.	.
4r	16B-^</LL	.	.	.	.	.
.	16d/	16ryy	.	.	.	.
.	16g/	8ryy	.	.	.	.
.	16b-/JJ	.	.	.	.	.
8A\ 8F#X\ 8D\	16r	16ryy	.	.	.	.
.	(<16a/LL	4a\	.	.	.	.
8r	16f#X/	.	.	.	.	.
.	16c/JJ	.	.	.	.	.
4r	16A/LL	.	.	.	.	.
.	16c/)	16ryy	.	.	.	.
.	16f#/	8ryy	.	.	.	.
.	16a/JJ	.	p	.	.	.
=153	=153	=153	=153	=153	=153	=153
4G\ 4GG\	16r	16ryy	.	1ryy	1ryy	1ryy
.	16g/LL	4g\	.	.	.	.
.	16d/	.	.	.	.	.
.	16B-/JJ	.	.	.	.	.
4r	16G/LL	.	.	.	.	.
.	16d/	16ryy	.	.	.	.
.	16B-/	8ryy	.	.	.	.
.	16G/JJ	.	>	.	.	.
4D/ 4BB-/ 4GG/	16r	2ryy	.	.	.	.
.	16g/LL	.	.	.	.	.
.	16d/	.	.	.	.	.
.	16B-/JJ	.	]	.	.	.
4r	16G/LL	.	.	.	.	.
.	16d/	.	.	.	.	.
.	16B-/	.	.	.	.	.
.	16G/JJ	.	.	.	.	.
*	*v	*v	*	*	*	*
=154	=154	=154	=154	=154	=154
!	!	!	!LO:DY:t=pp.	!	!
4D/ 4BB-/ 4GG/	16r	pp	1ryy	1ryy	1ryy
.	16b-/LL	.	.	.	.
.	16g/	.	.	.	.
.	16d/JJ	.	.	.	.
4r	16B-/LL	.	.	.	.
.	16g/	.	.	.	.
.	16d/	.	.	.	.
.	16B-/JJ	.	.	.	.
4E-/ 4BB-/ 4GG/ 4EE-/	16r	.	.	.	.
.	(16b-/LL	.	.	.	.
.	16g/	.	.	.	.
.	16d-X/JJ	.	.	.	.
4r	16B-/LL	.	.	.	.
.	16d-/	.	.	.	.
.	16g/)	.	.	.	.
.	16b-/JJ	.	.	.	.
=155	=155	=155	=155	=155	=155
4E-/ 4C/ 4AA-X/	16r	.	1ryy	1ryy	1ryy
.	16cc/LL	<	.	.	.
.	16a-X/	.	.	.	.
.	16e-/JJ	.	.	.	.
4r	16c/LL	.	.	.	.
.	16a-/	.	.	.	.
.	16e-/	.	.	.	.
.	16c/JJ	.	.	.	.
4E-/ 4C/ 4AA-/	16r	.	.	.	.
.	16cc/LL	.	.	.	.
.	16a-/	[	.	.	.
.	16e-/JJ	.	.	.	.
4r	16c/LL	.	.	.	.
.	16a-/	.	.	.	.
.	16e-/	.	.	.	.
.	16c/JJ	.	.	.	.
!!LO:LB:g=original
=156	=156	=156	=156	=156	=156
*	*^	*	*	*	*
4E-X/ 4C-X/ 4AA-X/	16r	2.ryy	.	1ryy	1ryy	1ryy
.	16cc-X/LL	.	.	.	.	.
.	16a-X/	.	.	.	.	.
.	16e-/JJ	.	.	.	.	.
!	!LO:SIC:v:s=16c-	!	!	!	!	!
4r	16c/LL	.	.	.	.	.
.	16a-/	.	.	.	.	.
.	16e-/	.	.	.	.	.
!	!LO:SIC:v:s=16c-	!	!	!	!	!
.	16c/JJ	.	.	.	.	.
4En/ 4C-/ 4AA-/ 4EEn/	16r	.	.	.	.	.
.	16cc-/LL	.	.	.	.	.
.	16a-/	.	.	.	.	.
.	16en/JJ	.	.	.	.	.
!	!	!	!LO:TX:t=cres_:problem:dynamics with extention lines	!	!	!
4r	16c/LL	4c\	<	.	.	.
.	16e/	.	.	.	.	.
.	16a-/	.	.	.	.	.
.	16cc-/JJ	.	.	.	.	.
=157	=157	=157	=157	=157	=157	=157
4En/ 4Cn/ 4AAn/	16r	4ryy	.	1ryy	1ryy	1ryy
.	16ccn/LL	.	.	.	.	.
.	16an/	.	.	.	.	.
.	16en/JJ	.	.	.	.	.
4r	16c/LL	4c\	.	.	.	.
.	16a/	.	.	.	.	.
.	16e/	.	.	.	.	.
.	16c/JJ	.	.	.	.	.
8F/ 8C/ 8AA/ 8FF/	16r	4ryy	.	.	.	.
.	16cc/LL	.	.	.	.	.
8r	16a/	.	.	.	.	.
.	16f/JJ	.	.	.	.	.
4r	16e-X^</LL	4e-\	.	.	.	.
.	16f/	.	.	.	.	.
.	16a/	.	.	.	.	.
.	16cc/JJ	.	.	.	.	.
=158	=158	=158	=158	=158	=158	=158
8F\ 8D-X\ 8BB-\	16r	4ryy	[	1ryy	1ryy	1ryy
.	16dd-X\LL	.	.	.	.	.
8r	16b-\	.	.	.	.	.
.	16f\JJ	.	.	.	.	.
!	!LO:SIC:v:s=16d-	!	!	!	!	!
4r	16d^</LL	4d\	.	.	.	.
.	16b-/	.	.	.	.	.
.	16f/	.	.	.	.	.
!	!LO:SIC:v:s=16d-	!	!	!	!	!
.	16d/JJ	.	.	.	.	.
8G\ 8D-\ 8BBn\ 8GG\	16r	4ryy	.	.	.	.
.	16ddn\LL	.	.	.	.	.
8r	16bn\	.	.	.	.	.
.	16g\JJ	.	.	.	.	.
!	!	!	!LO:TX:t=cres_:problem:dynamics with extention lines	!	!	!
4r	16f^</LL	4f\	<	.	.	.
.	16g/	.	.	.	.	.
.	16b/	.	.	.	.	.
.	16dd/JJ	.	.	.	.	.
=159	=159!!LO:LB:g=original	=159	=159	=159	=159	=159
8G\ 8E-X\ 8C\	16r	4ryy	.	1ryy	1ryy	1ryy
.	16ee-X\LL	.	.	.	.	.
8r	16cc\	.	.	.	.	.
.	16g\JJ	.	.	.	.	.
4r	16e-/LL	4e-^<\	.	.	.	.
.	16cc/	.	.	.	.	.
.	16g/	.	.	.	.	.
.	16e-/JJ	.	.	.	.	.
4A\ 4En\ 4C#X\ 4AA\	16r	4ryy	.	.	.	.
.	16een\LL	.	.	.	.	.
.	16cc#X\	.	.	.	.	.
.	16a\JJ	.	.	.	.	.
!	!LO:SIC:v:s=16e	!	!	!	!	!
4r	16e-/LL	4e-\	.	.	.	.
.	16a/	.	.	.	.	.
.	16cc#/	.	.	.	.	.
.	16ee/JJ	.	.	.	.	.
=160	=160	=160	=160	=160	=160	=160
8A\ 8F\ 8D\	16r	4ryy	.	1ryy	1ryy	1ryy
.	16ff\LL	.	.	.	.	.
8r	16dd\	.	.	.	.	.
.	16a\JJ	.	.	.	.	.
4r	16f^</LL	4f\	.	.	.	.
.	16dd/	.	.	.	.	.
.	16a/	.	.	.	.	.
.	16f/JJ	.	.	.	.	.
8C/ 8CC/	16r	4ryy	.	.	.	.
.	16ff#X\LL	.	.	.	.	.
8r	16ee-X\	.	.	.	.	.
.	16cc\JJ	.	.	.	.	.
4r	16a^\LL	4a/	.	.	.	.
.	16cc\	.	.	.	.	.
.	16ee-\	.	.	.	.	.
.	16ff#\JJ	.	.	.	.	.
*	*v	*v	*	*	*	*
!!LO:LB:g=original
=161	=161	=161	=161	=161	=161
8BB-/ 8BBB-/	16r	.	1ryy	1ryy	1ryy
.	16gg\LL	.	.	.	.
8r	16dd\	.	.	.	.
.	16b-\JJ	.	.	.	.
4r	16g^<\LL	.	.	.	.
.	16b-\	.	.	.	.
.	16dd\	.	.	.	.
.	16gg\JJ	.	.	.	.
8AA/ 8AAA/	16r	.	.	.	.
.	16aa\LL	.	.	.	.
8r	16ff#X\	.	.	.	.
.	16dd\JJ	.	.	.	.
4r	16a^<\LL	.	.	.	.
.	16dd\	.	.	.	.
.	16ff#\	.	.	.	.
.	16aa\JJ	.	.	.	.
=162	=162	=162	=162	=162	=162
*	*^	*	*	*	*
8GG/ 8DD/ 8GGG/	16r	4ryy	f	1ryy	1ryy	1ryy
.	16bb-\LL	.	.	.	.	.
8r	16gg\	.	.	.	.	.
.	16dd\JJ	.	.	.	.	.
4r	16b-\LL	4b-/	.	.	.	.
.	16dd\	.	.	.	.	.
.	16gg\	.	.	.	.	.
.	16bb-\JJ	.	.	.	.	.
8G\ 8D\ 8BB-\ 8GG\	16r	4ryy	.	.	.	.
.	16gg\LL	.	.	.	.	.
8r	16dd\	.	.	.	.	.
.	16b-\JJ	.	.	.	.	.
4r	16g^<\LL	4g/	.	.	.	.
.	16dd\	.	.	.	.	.
.	16b-\	.	.	.	.	.
.	16g\JJ	.	.	.	.	.
=163	=163	=163	=163	=163	=163	=163
8G\ 8E-\ 8C\ 8GG\	16r	4ryy	.	1ryy	1ryy	1ryy
.	16ee-\LL	.	>	.	.	.
8r	16cc\	.	.	.	.	.
.	16g\JJ	.	.	.	.	.
4r	16e-^\LL	4e-/	.	.	.	.
.	16g\	.	.	.	.	.
.	16cc\	.	.	.	.	.
.	16ee-\JJ	.	.	.	.	.
4F\ 4D\ 4GG\	16r	4ryy	.	.	.	.
.	16dd\LL	.	.	.	.	.
.	16bn\	.	.	.	.	.
.	16f\JJ	.	.	.	.	.
4r	16d^/LL	4d\	.	.	.	.
.	16b/	.	.	.	.	.
.	16f/	.	.	.	.	.
.	16d/JJ	.	.	.	.	.
=164	=164	=164	=164	=164	=164	=164
4E-\ 4C\ 4GG\	16r	4ryy	.	1ryy	1ryy	1ryy
.	16cc/LL	.	.	.	.	.
.	16g/	.	.	.	.	.
.	16e-/JJ	.	.	.	.	.
4r	16c^</LL	4c\	.	.	.	.
.	16e-/	.	.	.	.	.
.	16g/	.	.	.	.	.
.	16cc/JJ	.	.	.	.	.
4D\ 4BB-\ 4GG\	16r	4ryy	.	.	.	.
.	16b-/LL	.	.	.	.	.
.	16g/	.	.	.	.	.
.	16d/JJ	.	.	.	.	.
4r	16B-^</LL	4B-\	.	.	.	.
.	16g/	.	.	.	.	.
.	16d/	.	.	.	.	.
.	16B-/JJ	.	.	.	.	.
=165	=165	=165	=165	=165	=165	=165
4E-/ 4C/ 4GG/	16r	4ryy	]	1ryy	1ryy	1ryy
.	16a/LL	.	.	.	.	.
.	16f#X/	.	.	.	.	.
.	16e-X/JJ	.	.	.	.	.
4r	16c^</LL	4c\	.	.	.	.
.	16f#/	.	.	.	.	.
.	16e-/	.	.	.	.	.
.	16c/JJ	.	>	.	.	.
4D/ 4C/ 4GG/	16r	4ryy	.	.	.	.
.	16a/LL	.	.	.	.	.
.	16f#/	.	.	.	.	.
.	16d/JJ	.	.	.	.	.
4r	16c^</LL	4c\	.	.	.	.
.	16f#/	.	.	.	.	.
.	16d/	.	.	.	.	.
.	16c/JJ	.	.	.	.	.
=166	=166	=166	=166	=166	=166	=166
4D/ 4BB-/ 4GG/	16r	4ryy	]	1ryy	1ryy	1ryy
.	16g/LL	.	.	.	.	.
.	16d/	.	.	.	.	.
.	16B-/JJ	.	.	.	.	.
4r	16G^</LL	4G\	.	.	.	.
.	16d/	.	.	.	.	.
.	16B-/	.	.	.	.	.
.	16G/JJ	.	.	.	.	.
!!LO:LB:g=original
4D/ 4BB-/ 4GG/	16r	4ryy	p	.	.	.
.	16g/LL	.	.	.	.	.
.	16d/	.	.	.	.	.
.	16B-/JJ	.	.	.	.	.
4r	16G/LL	4G\	.	.	.	.
.	16B-/	.	.	.	.	.
.	16d/	.	.	.	.	.
.	16g/JJ	.	.	.	.	.
=167	=167	=167	=167	=167	=167	=167
4D/ 4AA/ 4DD/	16r	4ryy	.	1ryy	1ryy	1ryy
.	(16g/LL	.	.	.	.	.
.	16d/	.	.	.	.	.
.	16c/JJ	.	.	.	.	.
!	!LO:TX:b:t=rallent(ando).	!	!	!	!	!
4r	16A/LL	4A\	.	.	.	.
.	16d/	.	.	.	.	.
.	16c/)	.	.	.	.	.
.	16A/JJ	.	.	.	.	.
4D/ 4AA/ 4DD/	16r	4ryy	.	.	.	.
.	(16f#X/LL	.	.	.	.	.
.	16d/	.	.	.	.	.
.	16c/JJ	.	.	.	.	.
4r	16A/LL	4A\	.	.	.	.
.	16c/)	.	.	.	.	.
.	16d/	.	.	.	.	.
.	16f#/JJ	.	.	.	.	.
*	*v	*v	*	*	*	*
=168	=168	=168	=168	=168	=168
!LO:TX:a:t=1.	!LO:TX:a:t=1.	!	!	!	!
1r	1r	.	1ryy	1ryy	1ryy
=169	=169	=169	=169	=169	=169
!	!LO:TX:a:t=Andante	!	!	!	!
4G\ 4GG\	16r	pp	1ryy	1ryy	1ryy
.	(16bn/LL	.	.	.	.
.	16g/	.	.	.	.
.	16d/JJ	.	.	.	.
4r	16B-/LL	.	.	.	.
.	16g/	.	.	.	.
.	16d/	.	.	.	.
.	16B-/JJ)	.	.	.	.
!LO:SIC:v:s=4EE	!	!	!	!	!
4En\ 4EE-\	16r	.	.	.	.
.	16b/LL	>	.	.	.
.	16g#X/	.	.	.	.
.	16en/JJ	.	.	.	.
4r	16d/LL	.	.	.	.
.	16g#/	.	.	.	.
.	16e/	.	.	.	.
.	16d/JJ	]]	.	.	.
=170	=170	=170	=170	=170	=170
4A\ 4AA\	16r	.	1ryy	1ryy	1ryy
.	(16cc/LL	.	.	.	.
.	16a/	.	.	.	.
.	16en/JJ	.	.	.	.
4r	16c/LL	.	.	.	.
.	16e/	.	.	.	.
.	16a/	.	.	.	.
.	16cc/JJ)	.	.	.	.
4F#X\ 4FF#X;\	4r;	.	.	.	.
4r	4r	.	.	.	.
=171	=171	=171	=171	=171	=171
4G\ 4GG\	16r	.	1ryy	1ryy	1ryy
.	(16b-X/LL	.	.	.	.
.	16g/	.	.	.	.
.	16d/JJ	.	.	.	.
4r	16B-/LL	.	.	.	.
.	16g/)	.	.	.	.
.	16d/	.	.	.	.
.	16B-/JJ	.	.	.	.
4E-\ 4EE-\	16r	.	.	.	.
.	16b-/LL	>	.	.	.
.	16g/	.	.	.	.
.	16e-/JJ	.	.	.	.
4r	16B-/LL	.	.	.	.
.	16g/	.	.	.	.
.	16e-/	.	.	.	.
.	16B-/JJ	.	.	.	.
=172	=172	=172	=172	=172	=172
4A-X\ 4AA-X\	16r	.	1ryy	1ryy	1ryy
.	16cc/LL	.	.	.	.
.	16a-X/	]	.	.	.
.	16e-/JJ	.	.	.	.
4r	16c/LL	.	.	.	.
.	16e-/	.	.	.	.
.	16a-/	.	.	.	.
.	16cc/JJ	.	.	.	.
4F\ 4FF;\	4r;	.	.	.	.
!	!LO:TX:a:t=V.S.	!	!	!	!
4r	4r	.	.	.	.
!!LO:PB:g=original
=173	=173	=173	=173	=173	=173
4B-\ 4BB-\	16r	.	1ryy	1ryy	1ryy
.	16b-/LL	pp	.	.	.
.	16g/	.	.	.	.
.	16e-/JJ	.	.	.	.
4r	16B-/LL	.	.	.	.
.	16g/	.	.	.	.
.	16e-/	.	.	.	.
.	16B-/JJ	.	.	.	.
4BB-/ 4BBB-/	16r	.	.	.	.
.	16a-X/LL	>	.	.	.
.	16f/	.	.	.	.
.	16d/JJ	.	.	.	.
4r	16B-/LL	.	.	.	.
.	16f/	.	.	.	.
.	16d/	.	.	.	.
.	16B-/JJ	.	.	.	.
=174	=174	=174	=174	=174	=174
4E-/ 4EE-/	16r	.	1ryy	1ryy	1ryy
.	16g/LL	.	.	.	.
.	16e-/	]	.	.	.
.	16B-/JJ	.	.	.	.
4r	16G/LL	.	.	.	.
.	16B-/	.	.	.	.
.	16e-/	.	.	.	.
.	16g/JJ	.	.	.	.
4D-X/ 4DD-X;/	4r;	.	.	.	.
4r	8r	.	.	.	.
.	8c/	f	.	.	.
=175	=175	=175	=175	=175	=175
!	!LO:TX:a:t=Allegro.	!	!	!	!
2r	(8d-X/L	.	1ryy	1ryy	1ryy
.	8c/	.	.	.	.
.	8g/	.	.	.	.
.	8f/J)	.	.	.	.
8r	4en/	.	.	.	.
(8C\	.	.	.	.	.
4B-\)	8r	.	.	.	.
.	8g/	.	.	.	.
=176	=176	=176	=176	=176	=176
2r	(8a-X/L	.	1ryy	1ryy	1ryy
.	8g/	<	.	.	.
.	8dd-X^/	.	.	.	.
.	8cc/J)	.	.	.	.
8r	4b-/	.	.	.	.
(8G\	.	.	.	.	.
4en\)	8r	.	.	.	.
.	8cc\	[	.	.	.
=177	=177	=177	=177	=177	=177
2r	(8dd-X\L	rf	1ryy	1ryy	1ryy
.	8cc\	.	.	.	.
.	8bb-^<\	.	.	.	.
.	8aa-X\J)	.	.	.	.
8en\ 8c#X\ 8G\	8r	.	.	.	.
8r	(8gg\L	>	.	.	.
4r	8ff\	.	.	.	.
.	8een\J)	]]	.	.	.
=178	=178	=178	=178	=178	=178
8en\ 8c#X\ 8G\	12r	.	1ryy	1ryy	1ryy
.	(12b-\L	.	.	.	.
8r	.	.	.	.	.
.	12g\	.	.	.	.
4r	12een\	.	.	.	.
.	12a\	.	.	.	.
.	12b-\J	.	.	.	.
!!LO:LB:g=original
8G\ 8E-\ 8C#X\	8r	.	.	.	.
8r	(8e-/L)	.	.	.	.
4r	8a/	.	.	.	.
.	8g/J)	.	.	.	.
=179	=179	=179	=179	=179	=179
8A\ 8E-X\ 8Cn\	12r	<	1ryy	1ryy	1ryy
.	12f#X/L	.	.	.	.
8r	.	.	.	.	.
.	12e-X/	.	.	.	.
4r	12d/	.	.	.	.
.	12b-/	.	.	.	.
.	12a^/J	.	.	.	.
8G\ 8D\ 8BB-\	12r	.	.	.	.
.	(12f#X/L	.	.	.	.
8r	.	.	.	.	.
.	12g/	.	.	.	.
4r	12b-/	.	.	.	.
.	12ee-^/	.	.	.	.
.	12dd/J)	[[	.	.	.
=180	=180	=180	=180	=180	=180
4G\ 4En\ 4C#X\ 4AA\	12r	.	1ryy	1ryy	1ryy
.	12cc#X\L	.	.	.	.
.	12een\	.	.	.	.
4r	12ff\	.	.	.	.
.	12bb-^<\	.	.	.	.
.	12aa\J	.	.	.	.
!LO:TX:t=P:problem:wiem że rytmicznie nie jest to idealne rozwiązanie, \nale moim zdaniem jest najbliższe oryginałowi i temu, \nna co pozwala zapis w musescore	!	!	!	!	!
6r	12gg\L	.	.	.	.
.	12ee\	f	.	.	.
12ryy	12dd\	.	.	.	.
12r	12cc#\	.	.	.	.
(12B-X\L	(12b-X^<\	.	.	.	.
12A\J	12a\J	.	.	.	.
=181	=181	=181	=181	=181	=181
6G\)	12g/L	.	1ryy	1ryy	1ryy
.	12f/	.	.	.	.
12ryy	12en/	.	.	.	.
12r	12d/	.	.	.	.
(12C#X\L	12c#X^/	.	.	.	.
12BB-X\J)	12B-X/J	.	.	.	.
*2\right	*	*	*	*	*
!	!LO:TX:t=P:problem:przeniesione do lewej ręki	!	!	!	!
[<2AA\	12A</L	.	.	.	.
.	12G</	.	.	.	.
.	12F</	.	.	.	.
.	12En</	.	.	.	.
.	12G</	.	.	.	.
.	12F</J)	.	.	.	.
=182	=182	=182	=182	=182	=182
2AA\]	4En</	.	1ryy	1ryy	1ryy
.	4r<	.	.	.	.
4r;	4r<;	.	.	.	.
8.r	8.r<	.	.	.	.
!	!LO:TX:a:t=Largo maestoso.	!	!	!	!
16D/ 16DD/	16d/	ff	.	.	.
=183	=183	=183	=183	=183	=183
2.D/ 2.DD/	2.d/	.	1ryy	1ryy	1ryy
8.r	8.r	.	.	.	.
16D/ 16DD/	16d/	.	.	.	.
=184	=184	=184	=184	=184	=184
2.D/ 2.DD/	2.d/	.	1ryy	1ryy	1ryy
4r	4r	.	.	.	.
=185	=185	=185	=185	=185	=185
*ped	*	*	*	*	*
*tremolo	*tremolo	*	*	*	*
!LO:TX:b:t=Pedale.	!	!	!	!	!
32d\ 32D\LLL	16a/ 16f/LL	p	1ryy	1ryy	1ryy
32d\ 32D\	.	.	.	.	.
32d\ 32D\	16a/ 16f/	.	.	.	.
32d\ 32D\	.	.	.	.	.
32d\ 32D\	16a/ 16f/	.	.	.	.
32d\ 32D\	.	.	.	.	.
32d\ 32D\	16a/ 16f/	.	.	.	.
32d\ 32D\	.	.	.	.	.
32d\ 32D\	16a/ 16f/	.	.	.	.
32d\ 32D\	.	.	.	.	.
32d\ 32D\	16a/ 16f/	.	.	.	.
32d\ 32D\	.	.	.	.	.
32d\ 32D\	16a/ 16f/	.	.	.	.
32d\ 32D\	.	.	.	.	.
32d\ 32D\	16a/ 16f/	.	.	.	.
32d\ 32D\	.	.	.	.	.
32d\ 32D\	16a/ 16f/	.	.	.	.
32d\ 32D\	.	.	.	.	.
32d\ 32D\	16a/ 16f/	.	.	.	.
32d\ 32D\	.	.	.	.	.
32d\ 32D\	16a/ 16f/	.	.	.	.
32d\ 32D\	.	.	.	.	.
32d\ 32D\	16a/ 16f/JJ	.	.	.	.
32d\ 32D\JJJ	.	.	.	.	.
32d\ 32D\LLL	16a/ 16f/LL	<	.	.	.
32d\ 32D\	.	.	.	.	.
32d\ 32D\	16a/ 16f/	.	.	.	.
32d\ 32D\	.	.	.	.	.
32d\ 32D\	16a/ 16f/	.	.	.	.
32d\ 32D\	.	.	.	.	.
32d\ 32D\	16a/ 16f/JJ	.	.	.	.
32d\ 32D\JJJ	.	.	.	.	.
=186	=186	=186	=186	=186	=186
32d\ 32D\LLL	16dd/ 16f/LL	.	1ryy	1ryy	1ryy
32d\ 32D\	.	.	.	.	.
32d\ 32D\	16dd/ 16f/	.	.	.	.
32d\ 32D\	.	.	.	.	.
32d\ 32D\	16dd/ 16f/	.	.	.	.
32d\ 32D\	.	.	.	.	.
32d\ 32D\	16dd/ 16f/	.	.	.	.
32d\ 32D\	.	.	.	.	.
32d\ 32D\	16dd/ 16f/	.	.	.	.
32d\ 32D\	.	.	.	.	.
32d\ 32D\	16dd/ 16f/	.	.	.	.
32d\ 32D\	.	.	.	.	.
32d\ 32D\	16dd/ 16f/	.	.	.	.
32d\ 32D\	.	.	.	.	.
32d\ 32D\	16dd/ 16f/JJ	.	.	.	.
32d\ 32D\JJJ	.	.	.	.	.
*Xtremolo	*	*	*	*	*
4D\	16a/ 16f/LL	[ > ]]	.	.	.
.	16a/ 16f/	.	.	.	.
.	16a/ 16f/	.	.	.	.
.	16a/ 16f/	.	.	.	.
4r	16a/ 16f/	.	.	.	.
.	16a/ 16f/	.	.	.	.
.	16a/ 16f/	.	.	.	.
.	16a/ 16f/JJ	.	.	.	.
!!LO:LB:g=original
=187	=187	=187	=187	=187	=187
1r	16a/ 16f/LL	pp	1ryy	1ryy	1ryy
.	16a/ 16f/	.	.	.	.
.	16a/ 16f/	.	.	.	.
.	16a/ 16f/	.	.	.	.
.	16a/ 16f/	.	.	.	.
.	16a/ 16f/	.	.	.	.
.	16a/ 16f/	.	.	.	.
.	16a/ 16f/JJ	.	.	.	.
.	16a/ 16f/LL	>	.	.	.
.	16a/ 16f/	.	.	.	.
.	16a/ 16f/	.	.	.	.
.	16a/ 16f/	.	.	.	.
.	16a/ 16f/	.	.	.	.
.	16a/ 16f/	.	.	.	.
.	16a/ 16f/	.	.	.	.
.	16a/ 16f/JJ	.	.	.	.
=188	=188	=188	=188	=188	=188
2r	16a/ 16f/LL	.	1ryy	1ryy	1ryy
.	16a/ 16f/	.	.	.	.
.	16a/ 16f/	.	.	.	.
.	16a/ 16f/	.	.	.	.
.	16a/ 16f/	.	.	.	.
.	16a/ 16f/	.	.	.	.
.	16a/ 16f/	.	.	.	.
.	16a/ 16f/JJ	.	.	.	.
*	*Xtremolo	*	*	*	*
4r	8f/	]	.	.	.
.	8r	.	.	.	.
4F\	(4ff\ 4dd\	.	.	.	.
=189	=189	=189	=189	=189	=189
(4G\	4een\ 4cc#X\	.	1ryy	1ryy	1ryy
4A\	4ee-X\ 4ccn\	.	.	.	.
4c\	4cc\ 4a\	.	.	.	.
4d\)	4b-X\ 4g\)	.	.	.	.
=190	=190	=190	=190	=190	=190
2e-\	2a/ 2f/	.	1ryy	1ryy	1ryy
4r	4r	.	.	.	.
8.r	8.r	.	.	.	.
16BB-/ 16BBB-/	16f/ 16d/ 16B-/	ff	.	.	.
=191	=191	=191	=191	=191	=191
2.BB-/ 2.BBB-/	2.f/ 2.d/ 2.B-/	.	1ryy	1ryy	1ryy
8.r	8.r	.	.	.	.
16BB-/ 16BBB-/	16f/ 16d/ 16B-/	.	.	.	.
=192	=192	=192	=192	=192	=192
2.BB-/ 2.BBB-/	2.f/ 2.d/ 2.B-/	.	1ryy	1ryy	1ryy
4r	4r	.	.	.	.
=193	=193	=193	=193	=193	=193
*tremolo	*tremolo	*	*	*	*
*	*2\right	*	*	*	*
*	*ped	*	*	*	*
!	!LO:TX:b:t=Ped.	!LO:DY:a	!	!	!
32B-\ 32BB-\LLL	32b-\ 32d\LLL	<	1ryy	1ryy	1ryy
32B-\ 32BB-\	32b-\ 32d\	.	.	.	.
32B-\ 32BB-\	32b-\ 32d\	.	.	.	.
32B-\ 32BB-\	32b-\ 32d\	.	.	.	.
32B-\ 32BB-\	32b-\ 32d\	.	.	.	.
32B-\ 32BB-\	32b-\ 32d\	.	.	.	.
32B-\ 32BB-\	32b-\ 32d\	.	.	.	.
32B-\ 32BB-\	32b-\ 32d\	.	.	.	.
32B-\ 32BB-\	32b-\ 32d\	.	.	.	.
32B-\ 32BB-\	32b-\ 32d\	.	.	.	.
32B-\ 32BB-\	32b-\ 32d\	.	.	.	.
32B-\ 32BB-\	32b-\ 32d\	.	.	.	.
32B-\ 32BB-\	32b-\ 32d\	.	.	.	.
32B-\ 32BB-\	32b-\ 32d\	.	.	.	.
32B-\ 32BB-\	32b-\ 32d\	.	.	.	.
32B-\ 32BB-\	32b-\ 32d\	.	.	.	.
32B-\ 32BB-\	32b-\ 32d\	.	.	.	.
32B-\ 32BB-\	32b-\ 32d\	.	.	.	.
32B-\ 32BB-\	32b-\ 32d\	.	.	.	.
32B-\ 32BB-\	32b-\ 32d\	.	.	.	.
32B-\ 32BB-\	32b-\ 32d\	.	.	.	.
32B-\ 32BB-\	32b-\ 32d\	.	.	.	.
32B-\ 32BB-\	32b-\ 32d\	.	.	.	.
32B-\ 32BB-\JJJ	32b-\ 32d\JJJ	.	.	.	.
32B-\ 32BB-\LLL	32b-\ 32d\LLL	[[	.	.	.
32B-\ 32BB-\	32b-\ 32d\	.	.	.	.
32B-\ 32BB-\	32b-\ 32d\	.	.	.	.
32B-\ 32BB-\	32b-\ 32d\	.	.	.	.
32B-\ 32BB-\	32b-\ 32d\	.	.	.	.
32B-\ 32BB-\	32b-\ 32d\	.	.	.	.
32B-\ 32BB-\	32b-\ 32d\	.	.	.	.
32B-\ 32BB-\JJJ	32b-\ 32d\JJJ	.	.	.	.
=194	=194	=194	=194	=194	=194
32B-\ 32BB-\LLL	32dd\ 32f\LLL	.	1ryy	1ryy	1ryy
32B-\ 32BB-\	32dd\ 32f\	.	.	.	.
32B-\ 32BB-\	32dd\ 32f\	.	.	.	.
32B-\ 32BB-\	32dd\ 32f\	.	.	.	.
32B-\ 32BB-\	32dd\ 32f\	.	.	.	.
32B-\ 32BB-\	32dd\ 32f\	.	.	.	.
32B-\ 32BB-\	32dd\ 32f\	.	.	.	.
32B-\ 32BB-\	32dd\ 32f\	.	.	.	.
32B-\ 32BB-\	32dd\ 32f\	.	.	.	.
32B-\ 32BB-\	32dd\ 32f\	.	.	.	.
32B-\ 32BB-\	32dd\ 32f\	.	.	.	.
32B-\ 32BB-\	32dd\ 32f\	.	.	.	.
32B-\ 32BB-\	32dd\ 32f\	.	.	.	.
32B-\ 32BB-\	32dd\ 32f\	.	.	.	.
32B-\ 32BB-\	32dd\ 32f\	.	.	.	.
32B-\ 32BB-\JJJ	32dd\ 32f\JJJ	.	.	.	.
!	!	!LO:DY:a	!	!	!
4BB-/	32b-\ 32d\LLL	>	.	.	.
.	32b-\ 32d\	.	.	.	.
.	32b-\ 32d\	.	.	.	.
.	32b-\ 32d\	.	.	.	.
.	32b-\ 32d\	.	.	.	.
.	32b-\ 32d\	.	.	.	.
.	32b-\ 32d\	.	.	.	.
.	32b-\ 32d\	.	.	.	.
4r	32b-\ 32d\	.	.	.	.
.	32b-\ 32d\	.	.	.	.
.	32b-\ 32d\	.	.	.	.
.	32b-\ 32d\	.	.	.	.
.	32b-\ 32d\	.	.	.	.
.	32b-\ 32d\	.	.	.	.
.	32b-\ 32d\	.	.	.	.
.	32b-\ 32d\JJJ	.	.	.	.
=195	=195	=195	=195	=195	=195
1r	32b-\ 32d\LLL	.	1ryy	1ryy	1ryy
.	32b-\ 32d\	.	.	.	.
.	32b-\ 32d\	.	.	.	.
.	32b-\ 32d\	.	.	.	.
.	32b-\ 32d\	.	.	.	.
.	32b-\ 32d\	.	.	.	.
.	32b-\ 32d\	.	.	.	.
.	32b-\ 32d\	.	.	.	.
.	32b-\ 32d\	.	.	.	.
.	32b-\ 32d\	.	.	.	.
.	32b-\ 32d\	.	.	.	.
.	32b-\ 32d\	.	.	.	.
.	32b-\ 32d\	.	.	.	.
.	32b-\ 32d\	.	.	.	.
.	32b-\ 32d\	.	.	.	.
.	32b-\ 32d\JJJ	.	.	.	.
.	32b-\LLL	] pp	.	.	.
.	32b-\	.	.	.	.
.	32b-\	.	.	.	.
.	32b-\	.	.	.	.
.	32b-\	.	.	.	.
.	32b-\	.	.	.	.
.	32b-\	.	.	.	.
.	32b-\	.	.	.	.
.	32b-\	.	.	.	.
.	32b-\	.	.	.	.
.	32b-\	.	.	.	.
.	32b-\	.	.	.	.
.	32b-\	.	.	.	.
.	32b-\	.	.	.	.
.	32b-\	.	.	.	.
.	32b-\JJJ	.	.	.	.
!!LO:LB:g=original
=196	=196	=196	=196	=196	=196
2r	32b-\ 32g\LLL	>	1ryy	1ryy	1ryy
.	32b-\ 32g\	.	.	.	.
.	32b-\ 32g\	.	.	.	.
.	32b-\ 32g\	.	.	.	.
.	32b-\ 32g\	.	.	.	.
.	32b-\ 32g\	.	.	.	.
.	32b-\ 32g\	.	.	.	.
.	32b-\ 32g\	.	.	.	.
.	32b-\ 32g\	.	.	.	.
.	32b-\ 32g\	.	.	.	.
.	32b-\ 32g\	.	.	.	.
.	32b-\ 32g\	.	.	.	.
.	32b-\ 32g\	.	.	.	.
.	32b-\ 32g\	.	.	.	.
.	32b-\ 32g\	.	.	.	.
.	32b-\ 32g\JJJ	.	.	.	.
4r	4g/	]	.	.	.
8.r	8.rg	.	.	.	.
16E-\ 16EE-\	16B-/ 16G/	f	.	.	.
=197	=197	=197	=197	=197	=197
2E-\ 2EE-\	2B-/ 2G/	.	1ryy	1ryy	1ryy
2r	2r	.	.	.	.
=198	=198	=198	=198	=198	=198
!LO:TX:a:t=1.	!LO:TX:a:t=1.	!	!	!	!
1r	1r	.	1ryy	1ryy	1ryy
=199	=199	=199	=199	=199	=199
2r	2r	.	1ryy	1ryy	1ryy
4B-\ 4BB-\	4r	.	.	.	.
4B-\ 4BB-\	4f/ 4d-X/	p	.	.	.
=200	=200	=200	=200	=200	=200
*	*ped	*	*	*	*
!	!LO:TX:a:t=Pedale	!	!	!	!
32A-X\ 32AA-X\LLL	32g-X/ 32c/LLL	<	1ryy	1ryy	1ryy
32A-X\ 32AA-X\	32g-X/ 32c/	.	.	.	.
32A-X\ 32AA-X\	32g-X/ 32c/	.	.	.	.
32A-X\ 32AA-X\	32g-X/ 32c/	.	.	.	.
32A-X\ 32AA-X\	32g-X/ 32c/	.	.	.	.
32A-X\ 32AA-X\	32g-X/ 32c/	.	.	.	.
32A-X\ 32AA-X\	32g-X/ 32c/	.	.	.	.
32A-X\ 32AA-X\	32g-X/ 32c/	.	.	.	.
32A-X\ 32AA-X\	32g-X/ 32c/	.	.	.	.
32A-X\ 32AA-X\	32g-X/ 32c/	.	.	.	.
32A-X\ 32AA-X\	32g-X/ 32c/	.	.	.	.
32A-X\ 32AA-X\	32g-X/ 32c/	.	.	.	.
32A-X\ 32AA-X\	32g-X/ 32c/	.	.	.	.
32A-X\ 32AA-X\	32g-X/ 32c/	.	.	.	.
32A-X\ 32AA-X\	32g-X/ 32c/	.	.	.	.
32A-X\ 32AA-X\	32g-X/ 32c/	.	.	.	.
32A-X\ 32AA-X\	32g-X/ 32c/	.	.	.	.
32A-X\ 32AA-X\	32g-X/ 32c/	.	.	.	.
32A-X\ 32AA-X\	32g-X/ 32c/	.	.	.	.
32A-X\ 32AA-X\	32g-X/ 32c/	.	.	.	.
32A-X\ 32AA-X\	32g-X/ 32c/	.	.	.	.
32A-X\ 32AA-X\	32g-X/ 32c/	.	.	.	.
32A-X\ 32AA-X\	32g-X/ 32c/	.	.	.	.
32A-X\ 32AA-X\JJJ	32g-X/ 32c/JJJ	.	.	.	.
32A-\ 32AA-\LLL	32g-/ 32c/LLL	[[	.	.	.
32A-\ 32AA-\	32g-/ 32c/	.	.	.	.
32A-\ 32AA-\	32g-/ 32c/	.	.	.	.
32A-\ 32AA-\	32g-/ 32c/	.	.	.	.
32A-\ 32AA-\	32g-/ 32c/	.	.	.	.
32A-\ 32AA-\	32g-/ 32c/	.	.	.	.
32A-\ 32AA-\	32g-/ 32c/	.	.	.	.
32A-\ 32AA-\JJJ	32g-/ 32c/JJJ	.	.	.	.
=201	=201	=201	=201	=201	=201
32A-X\ 32AA-X\LLL	32f/ 32d-X/LLL	.	1ryy	1ryy	1ryy
32A-X\ 32AA-X\	32f/ 32d-X/	.	.	.	.
32A-X\ 32AA-X\	32f/ 32d-X/	.	.	.	.
32A-X\ 32AA-X\	32f/ 32d-X/	.	.	.	.
32A-X\ 32AA-X\	32f/ 32d-X/	.	.	.	.
32A-X\ 32AA-X\	32f/ 32d-X/	.	.	.	.
32A-X\ 32AA-X\	32f/ 32d-X/	.	.	.	.
32A-X\ 32AA-X\	32f/ 32d-X/	.	.	.	.
32A-X\ 32AA-X\	32f/ 32d-X/	.	.	.	.
32A-X\ 32AA-X\	32f/ 32d-X/	.	.	.	.
32A-X\ 32AA-X\	32f/ 32d-X/	.	.	.	.
32A-X\ 32AA-X\	32f/ 32d-X/	.	.	.	.
32A-X\ 32AA-X\	32f/ 32d-X/	.	.	.	.
32A-X\ 32AA-X\	32f/ 32d-X/	.	.	.	.
32A-X\ 32AA-X\	32f/ 32d-X/	.	.	.	.
32A-X\ 32AA-X\JJJ	32f/ 32d-X/JJJ	.	.	.	.
32A-\ 32AA-\LLL	32f/ 32c/LLL	.	.	.	.
32A-\ 32AA-\	32f/ 32c/	.	.	.	.
32A-\ 32AA-\	32f/ 32c/	.	.	.	.
32A-\ 32AA-\	32f/ 32c/	.	.	.	.
32A-\ 32AA-\	32f/ 32c/	.	.	.	.
32A-\ 32AA-\	32f/ 32c/	.	.	.	.
32A-\ 32AA-\	32f/ 32c/	.	.	.	.
32A-\ 32AA-\	32f/ 32c/JJJ	.	.	.	.
32A-\ 32AA-\	32f/ 32c-X/LLL	rf	.	.	.
32A-\ 32AA-\	32f/ 32c-X/	.	.	.	.
32A-\ 32AA-\	32f/ 32c-X/	.	.	.	.
32A-\ 32AA-\	32f/ 32c-X/	.	.	.	.
32A-\ 32AA-\	32f/ 32c-X/	.	.	.	.
32A-\ 32AA-\	32f/ 32c-X/	.	.	.	.
32A-\ 32AA-\	32f/ 32c-X/	.	.	.	.
32A-\ 32AA-\JJJ	32f/ 32c-X/JJJ	.	.	.	.
=202	=202	=202	=202	=202	=202
32G-X\ 32GG-X\LLL	32f/ 32B-/LLL	>	1ryy	1ryy	1ryy
32G-X\ 32GG-X\	32f/ 32B-/	.	.	.	.
32G-X\ 32GG-X\	32f/ 32B-/	.	.	.	.
32G-X\ 32GG-X\	32f/ 32B-/	.	.	.	.
32G-X\ 32GG-X\	32f/ 32B-/	.	.	.	.
32G-X\ 32GG-X\	32f/ 32B-/	.	.	.	.
32G-X\ 32GG-X\	32f/ 32B-/	.	.	.	.
32G-X\ 32GG-X\	32f/ 32B-/	.	.	.	.
32G-X\ 32GG-X\	32f/ 32B-/	.	.	.	.
32G-X\ 32GG-X\	32f/ 32B-/	.	.	.	.
32G-X\ 32GG-X\	32f/ 32B-/	.	.	.	.
32G-X\ 32GG-X\	32f/ 32B-/	.	.	.	.
32G-X\ 32GG-X\	32f/ 32B-/	.	.	.	.
32G-X\ 32GG-X\	32f/ 32B-/	.	.	.	.
32G-X\ 32GG-X\	32f/ 32B-/	.	.	.	.
32G-X\ 32GG-X\JJJ	32f/ 32B-/JJJ	.	.	.	.
32G-\ 32GG-\LLL	32en/ 32B-/LLL	]]	.	.	.
32G-\ 32GG-\	32en/ 32B-/	.	.	.	.
32G-\ 32GG-\	32en/ 32B-/	.	.	.	.
32G-\ 32GG-\	32en/ 32B-/	.	.	.	.
32G-\ 32GG-\	32en/ 32B-/	.	.	.	.
32G-\ 32GG-\	32en/ 32B-/	.	.	.	.
32G-\ 32GG-\	32en/ 32B-/	.	.	.	.
32G-\ 32GG-\	32en/ 32B-/	.	.	.	.
32G-\ 32GG-\	32en/ 32B-/	.	.	.	.
32G-\ 32GG-\	32en/ 32B-/	.	.	.	.
32G-\ 32GG-\	32en/ 32B-/	.	.	.	.
32G-\ 32GG-\	32en/ 32B-/	.	.	.	.
32G-\ 32GG-\	32en/ 32B-/	.	.	.	.
32G-\ 32GG-\	32en/ 32B-/	.	.	.	.
32G-\ 32GG-\	32en/ 32B-/	.	.	.	.
32G-\ 32GG-\JJJ	32en/ 32B-/JJJ	.	.	.	.
*	*Xtremolo	*	*	*	*
=203	=203	=203	=203	=203	=203
2F\ 2FF\	2f/ 2A/	.	1ryy	1ryy	1ryy
4r	4r	.	.	.	.
!	!	!LO:DY:b=2:t=for.	!	!	!
8.r	8.r	f	.	.	.
!	!	!LO:DY:t=for.	!	!	!
16FF\ 16FFF\	16F</	f	.	.	.
=204	=204	=204	=204	=204	=204
2.FF\ 2.FFF\	2.F</	.	1ryy	1ryy	1ryy
8.r	8.r<	.	.	.	.
16FF\ 16FFF\	16F</	.	.	.	.
=205	=205	=205	=205	=205	=205
2FF\ 2FFF\	2F</	.	1ryy	1ryy	1ryy
4r	4r<	.	.	.	.
4F\	4ff\ 4dd-X\	p	.	.	.
!!LO:LB:g=original
=206	=206	=206	=206	=206	=206
*^	*	*	*	*	*
4G/	2.F\	(4een\ 4dd-X'\	.	1ryy	1ryy	1ryy
4A/	.	4ee-X\ 4cc'\	.	.	.	.
4c/	.	4cc\ 4a'\	.	.	.	.
4d-X/ 4B-/	4F\	4b-\ 4g-X\)	>]	.	.	.
*v	*v	*	*	*	*	*
=207	=207	=207	=207	=207	=207
2e-\ 2c\ 2F\	2a/ 2f/	.	1ryy	1ryy	1ryy
4r;	4r;	.	.	.	.
4F\	4r	.	.	.	.
=208||	=208||	=208||	=208||	=208||	=208||
*M3/4	*M3/4	*	*M3/4	*M3/4	*M3/4
!	!LO:TX:a:t=Allegro	!	!	!	!
(8G\L	2.r	.	2.ryy	2.ryy	2.ryy
8A\J)	.	.	.	.	.
4B-'\	.	.	.	.	.
4B-'\	.	.	.	.	.
=209	=209	=209	=209	=209	=209
(4B-\	2.r	.	2.ryy	2.ryy	2.ryy
4A\)	.	.	.	.	.
4A'\	.	.	.	.	.
=210	=210	=210	=210	=210	=210
4B-\	4r	.	2.ryy	2.ryy	2.ryy
4F\	4r	.	.	.	.
4B-\	4b-\	.	.	.	.
=211	=211	=211	=211	=211	=211
2B-\	(8cc\L	.	2.ryy	2.ryy	2.ryy
.	8dd\J)	.	.	.	.
.	4ee-'\	.	.	.	.
4A\	4ee-'\	.	.	.	.
=212	=212	=212	=212	=212	=212
4B-\	4ee-\	.	2.ryy	2.ryy	2.ryy
4G\	4dd\	.	.	.	.
8c\L	4een\	.	.	.	.
8B-\J	.	.	.	.	.
=213	=213	=213	=213	=213	=213
2A\	4ff\	.	2.ryy	2.ryy	2.ryy
.	4cc\	.	.	.	.
4A\ 4F\	4ff\ 4f\	.	.	.	.
=214	=214	=214	=214	=214	=214
*	*^	*	*	*	*
2c\ 2C\	2ff/	8g\L	.	2.ryy	2.ryy	2.ryy
.	.	8a\J	.	.	.	.
.	.	4b-\	.	.	.	.
4C/	4een/	4b-\	.	.	.	.
=215	=215	=215	=215	=215	=215	=215
4F\	2ee-X/	4b-\	.	2.ryy	2.ryy	2.ryy
4FF/	.	4a\	.	.	.	.
4r	8ff/L	4a\	.	.	.	.
.	8ee-/J	.	.	.	.	.
=216	=216	=216	=216	=216	=216	=216
!	!	!	!LO:DY:b=2	!	!	!
4r	2dd/	4b-\	f	2.ryy	2.ryy	2.ryy
4r	.	4f\	.	.	.	.
4BB-/ 4BBB-/	4dd/	4b-\	.	.	.	.
=217	=217	=217	=217	=217	=217	=217
8C/L 8CC/	4ee-/	2b-\	.	2.ryy	2.ryy	2.ryy
8D/J 8DD/	.	.	.	.	.	.
4E-/ 4EE-/	4cc/	.	.	.	.	.
4E-/ 4EE-/	4gg/	4a\	.	.	.	.
=218	=218	=218	=218	=218	=218	=218
4E-/ 4EE-/	4ff/	2b-\	.	2.ryy	2.ryy	2.ryy
4D/ 4DD/	4bb-/	.	.	.	.	.
4En/ 4EEn/	4gg/	8cc\L	.	.	.	.
.	.	8b-\J	.	.	.	.
=219	=219	=219	=219	=219	=219	=219
4F/ 4FF/	4cc/	2a\	.	2.ryy	2.ryy	2.ryy
4C/ 4CC/	4ff/	.	.	.	.	.
4F/ 4FF/	4aa/	4ff\ 4a\	.	.	.	.
!!LO:LB:g=original
=220	=220	=220	=220	=220	=220	=220
*^	*	*	*	*	*	*
8G/L	2F\	8bb-/L	4dd\	.	2.ryy	2.ryy	2.ryy
8A/J	.	8ccc/J	.	.	.	.	.
4B-/	.	4ddd/	4r	.	.	.	.
4G/	4En\	4gg/	4cc\	.	.	.	.
=221	=221	=221	=221	=221	=221	=221	=221
8A/L	2E-X\	2ccc/	8cc\L	.	2.ryy	2.ryy	2.ryy
8B-/J	.	.	8dd\J	.	.	.	.
4c/	.	.	4ee-\	.	.	.	.
4c/	8F\L	[4ff/	4a\	.	.	.	.
.	8E-\J	.	.	.	.	.	.
=222	=222	=222	=222	=222	=222	=222	=222
2F/	4D\	4ff/]	2b-\	.	2.ryy	2.ryy	2.ryy
.	4D\	4ee-/	.	.	.	.	.
8G/L	4G\	4dd/	4bn\	.	.	.	.
8F/J	.	.	.	.	.	.	.
=223	=223	=223	=223	=223	=223	=223	=223
2E-/	4C\	4ee-/	4cc\	.	2.ryy	2.ryy	2.ryy
.	4C\	4dd/	4g\	.	.	.	.
8F/L	4F\	4cc/	4a\	.	.	.	.
8E-/J	.	.	.	.	.	.	.
=224	=224	=224	=224	=224	=224	=224	=224
4D/	2BB-\	4dd/	4b-\	.	2.ryy	2.ryy	2.ryy
4B-/	.	4ddd\ 4bb-\	4dd\	.	.	.	.
4f/	4B-\	4dd\	4b-\	.	.	.	.
*	*	*v	*v	*	*	*	*
=225	=225	=225	=225	=225	=225	=225
2g/	4B-\	8ee-\L 8cc\	.	2.ryy	2.ryy	2.ryy
.	.	8ff\J 8dd\	.	.	.	.
.	4G\	4gg\ 4ee-\	.	.	.	.
[4f/	4A\	4ee-\ 4cc\	.	.	.	.
=226	=226	=226	=226	=226	=226	=226
*	*	*^	*	*	*	*
4f/]	4B-\	2ff/	4ee-\	.	2.ryy	2.ryy	2.ryy
2B-/	4B-\	.	4dd\	.	.	.	.
.	4G\	4een/	4b-\	.	.	.	.
=227	=227	=227	=227	=227	=227	=227	=227
4c/	4F\	4ff/	4a\	.	2.ryy	2.ryy	2.ryy
4A/	4r	4cc/	4r	.	.	.	.
4F/	4r	4ff/	4ff\	.	.	.	.
=228	=228	=228	=228	=228	=228	=228	=228
8B-/L	2.r	8gg/L	2ff\	.	2.ryy	2.ryy	2.ryy
8A/J	.	8aa/J	.	.	.	.	.
4G/	.	4bb-/	.	.	.	.	.
4c/	.	[4bb-/	4een\	.	.	.	.
=229	=229	=229	=229	=229	=229	=229	=229
4F/	4r	4bb-/]	4ff\	.	2.ryy	2.ryy	2.ryy
4F/	4r	4aa/	8cc\L	.	.	.	.
.	.	.	8a\J	.	.	.	.
4F/	4FF\	4a/	4f\	.	.	.	.
=230	=230	=230	=230	=230	=230	=230	=230
4G/	4GG\	4b-/	2f\	.	2.ryy	2.ryy	2.ryy
8d-X\L	8D-X\L	8b-/L	.	.	.	.	.
8c\J	8C\J	8cc/J	.	.	.	.	.
4B-X\	4BB-X\	4dd-X/	4en\	.	.	.	.
=231	=231	=231	=231	=231	=231	=231	=231
(4B-\	(4BB-\	4dd-X/	2f\	.	2.ryy	2.ryy	2.ryy
4A\)	4AA\)	4cc/	.	.	.	.	.
4G\	4FF\	[4ff^</	4cc\ 4a\	.	.	.	.
=232	=232	=232	=232	=232	=232	=232	=232
4B-\	4BB-\	4ff/]	4dd\ 4b-\	.	2.ryy	2.ryy	2.ryy
8B-\L	8BB-\L	4dd/	4b-\	.	.	.	.
8A\J	8AA\J	.	.	.	.	.	.
4G\	4GG\	[4gg\ 4dd\ 4b-^<\	4ryy	.	.	.	.
*v	*v	*	*	*	*	*	*
*	*v	*v	*	*	*	*
!!LO:LB:g=original
=233	=233	=233	=233	=233	=233
4c\ 4C\	4gg\] 4ee-\ 4cc\	.	2.ryy	2.ryy	2.ryy
8c\L 8C\	4ee-\ 4cc\	.	.	.	.
8B-\J 8BB-\	.	.	.	.	.
4A\ 4AA\	[4aa\ 4ee-\ 4cc^<\	.	.	.	.
=234	=234	=234	=234	=234	=234
4d\ 4D\	4aa\] 4ff\ 4dd\	.	2.ryy	2.ryy	2.ryy
4f\ 4d\	4bb-\ 4ff\	.	.	.	.
4e-\ 4c\	4ccc\ [4aa-X\	.	.	.	.
=235	=235	=235	=235	=235	=235
*	*^	*	*	*	*
4d\ 4Bn\	2ddd/	4aa-\]	.	2.ryy	2.ryy	2.ryy
4d\ 4B\	.	4gg\	.	.	.	.
4G\ 4GG\	[4gg^</	4ff\ 4bn\	.	.	.	.
=236	=236	=236	=236	=236	=236	=236
4c\ 4C\	4gg/]	4ee-\ 4cc\	.	2.ryy	2.ryy	2.ryy
4e-\ 4c\	4aan/	4ee-\	.	.	.	.
4d\ 4B-X\	4bb-/	[>4gg\	.	.	.	.
=237	=237	=237	=237	=237	=237	=237
4c\ 4A\	2ccc/	4gg\]	.	2.ryy	2.ryy	2.ryy
4c\ 4A\	.	4ff\	.	.	.	.
4F\ 4FF\	[4ff^</	4ee-\ 4a\	.	.	.	.
=238	=238	=238	=238	=238	=238	=238
4B-\ 4BB-\	4ff/]	4dd\ 4b-\	.	2.ryy	2.ryy	2.ryy
4BB-/	4dd/	4b-\	.	.	.	.
[4B-^<\	4r	4ryy	.	.	.	.
=239	=239	=239	=239	=239	=239	=239
4B-\]	2.r	2c/	.	2.ryy	2.ryy	2.ryy
4A-X\	.	.	.	.	.	.
4F\	.	4d/	.	.	.	.
=240	=240	=240	=240	=240	=240	=240
4G\	4r	4e-'/	.	2.ryy	2.ryy	2.ryy
4E-\	4r	4g'/	.	.	.	.
4BB-/ 4BBB-/	4b-/	4d/	.	.	.	.
=241	=241	=241	=241	=241	=241	=241
2C/ 2CC/	4b-/	2e-\	.	2.ryy	2.ryy	2.ryy
.	4a-X/	.	.	.	.	.
4D/ 4DD/	4f/	4B-\	.	.	.	.
=242	=242	=242	=242	=242	=242	=242
4E-/ 4EE-/	4g/	4B-\	.	2.ryy	2.ryy	2.ryy
4G/ 4GG/	4e-/	4B-\	.	.	.	.
4r	4g/	4g\	.	.	.	.
=243	=243	=243	=243	=243	=243	=243
2.r	2a-X/	4g\	.	2.ryy	2.ryy	2.ryy
.	.	4f\	.	.	.	.
.	4bn/	4d\	.	.	.	.
=244	=244	=244	=244	=244	=244	=244
4r	4cc'/	4e-\	.	2.ryy	2.ryy	2.ryy
4r	4ee-'/	4c\	.	.	.	.
[4G\ 4GG\	4g/	4Bn\	.	.	.	.
!!LO:LB:g=original
=245	=245	=245	=245	=245	=245	=245
4G\] 4GG\	2a-X/	2c\	.	2.ryy	2.ryy	2.ryy
4F\ 4FF\	.	.	.	.	.	.
4D/ 4DD/	4bn/	4f\	.	.	.	.
=246	=246	=246	=246	=246	=246	=246
4E-/ 4EE-'/	4cc/	4ryy	.	2.ryy	2.ryy	2.ryy
4C/ 4CC'/	4ee-\	4r	.	.	.	.
[4c\	4cc\	4e-\	.	.	.	.
*	*v	*v	*	*	*	*
=247	=247	=247	=247	=247	=247
4c\]	4dd/ 4f/	.	2.ryy	2.ryy	2.ryy
4B-X\	4g/	.	.	.	.
4B-\ 4G\	[4gg\	.	.	.	.
=248	=248	=248	=248	=248	=248
4A\	4gg\]	.	2.ryy	2.ryy	2.ryy
4D\	4ff\	.	.	.	.
[4d\ 4F\	4dd\	.	.	.	.
=249	=249	=249	=249	=249	=249
*^	*^	*	*	*	*
4d/]	2A\	2ee/	4eenX\	.	2.ryy	2.ryy	2.ryy
4c#X/	.	.	4a\	.	.	.	.
[4A/	4A\	4ryy	4cc#X\	.	.	.	.
*	*	*v	*v	*	*	*	*
=250	=250	=250	=250	=250	=250	=250
4B-X/	4A\]	2dd\	.	2.ryy	2.ryy	2.ryy
4Bn/	4G\	.	.	.	.	.
4c#X/	4En\	4een\	.	.	.	.
=251	=251	=251	=251	=251	=251	=251
*	*	*^	*	*	*	*
4A/	2F\	4ee-/	2a\	.	2.ryy	2.ryy	2.ryy
4f/	.	4dd/	.	.	.	.	.
[4d/	4F\	[4ff^</	4a\	.	.	.	.
=252	=252	=252	=252	=252	=252	=252	=252
4d/]	2G\	4ff/]	2b-\	.	2.ryy	2.ryy	2.ryy
4g/	.	4een/	.	.	.	.	.
4en/	4G\	[4gg^</	4b-\	.	.	.	.
=253	=253	=253	=253	=253	=253	=253	=253
4c/	2A\	4gg/]	2cc\	.	2.ryy	2.ryy	2.ryy
4a/	.	4ff#X/	.	.	.	.	.
4f#X/	4A\	[4aa^</	4cc\	.	.	.	.
=254	=254	=254	=254	=254	=254	=254	=254
4d/	2B-\	4aa/]	2dd\	.	2.ryy	2.ryy	2.ryy
4en/	.	4gg/	.	.	.	.	.
4fn/	[4B-\	4ffn/	4dd\	.	.	.	.
*v	*v	*	*	*	*	*	*
=255	=255	=255	=255	=255	=255	=255
4g\ 4B-\]	4een/	4dd\	.	2.ryy	2.ryy	2.ryy
4f\ 4A\	[2ee/	4cc#X\	.	.	.	.
4c#X\ 4G\	.	4b-X\	.	.	.	.
=256	=256	=256	=256	=256	=256	=256
4A\ 4F\	4ee/]	4a\	.	2.ryy	2.ryy	2.ryy
4G\ 4En\	4aa\ 4cc#X\	2ryy	.	.	.	.
4F\ 4D\	[4ddd\ 4dd\	.	.	.	.	.
=257	=257	=257	=257	=257	=257	=257
4B-\ 4G\	4ddd\] 4een\	2.r	.	2.ryy	2.ryy	2.ryy
4En\	4ccc#X\ 4aa\ 4ee'\	.	.	.	.	.
4A\ 4AA\	4ccc#\ 4gg\ 4ee'\	.	.	.	.	.
*	*v	*v	*	*	*	*
=258	=258	=258	=258	=258	=258
4D\ 4DD\	4ddd\ 4ff\ 4dd\	.	2.ryy	2.ryy	2.ryy
4d\ 4D\	4dd\ 4a\ 4f\	.	.	.	.
!	!LO:TX:b:t=V.S.	!	!	!	!
4D\	4r	.	.	.	.
!!LO:PB:g=original
=259	=259	=259	=259	=259	=259
8En\L	4r	.	2.ryy	2.ryy	2.ryy
8F#X\J	.	.	.	.	.
4G\	4r	.	.	.	.
[4G\	4g/	.	.	.	.
=260	=260	=260	=260	=260	=260
*	*^	*	*	*	*
4G\]	8a/L	2ryy	.	2.ryy	2.ryy	2.ryy
.	8bn/J	.	.	.	.	.
8F#X\L	4cc/	.	.	.	.	.
8G\J	.	.	.	.	.	.
[4A\	4cc/	4cc\	.	.	.	.
=261	=261	=261	=261	=261	=261	=261
4A\]	8dd/L	4cc\	.	2.ryy	2.ryy	2.ryy
.	8een/J	.	.	.	.	.
4G\	4ff/	8bn\L	.	.	.	.
.	.	8cc\J	.	.	.	.
4G\ 4BBn\	[4ff/	4dd\	.	.	.	.
=262	=262	=262	=262	=262	=262	=262
*^	*	*	*	*	*	*
4G\	4C\	4ff/]	4dd\	.	2.ryy	2.ryy	2.ryy
8C/L	4C\	8een/L	4cc\	.	.	.	.
8D/J	.	8ff/J	.	.	.	.	.
4En/	4C\	[4gg/	[4b-X\	.	.	.	.
*v	*v	*	*	*	*	*	*
=263	=263	=263	=263	=263	=263	=263
4F\	4gg/]	4b-\]	.	2.ryy	2.ryy	2.ryy
4FF/	4ff/	4a\	.	.	.	.
[4f\	4ryy	4f/	.	.	.	.
*	*v	*v	*	*	*	*
=264	=264	=264	=264	=264	=264
4f\]	4g/	.	2.ryy	2.ryy	2.ryy
4e-X\	4gg\	.	.	.	.
4c\	4a/	.	.	.	.
=265	=265	=265	=265	=265	=265
4d\	4b-\	.	2.ryy	2.ryy	2.ryy
8B-\L	8dd\L	.	.	.	.
8c\J	8ee-\J	.	.	.	.
4d\	[4ff\ 4f\	.	.	.	.
=266	=266	=266	=266	=266	=266
4e-\	4ff\] 4g\	.	2.ryy	2.ryy	2.ryy
4c\	4gg\ 4ee-\	.	.	.	.
4F\	4cc\ 4a\	.	.	.	.
=267	=267	=267	=267	=267	=267
*^	*	*	*	*	*
4A\	2ryy	4dd\ 4b-\	.	2.ryy	2.ryy	2.ryy
8d\L	.	8bb-\L 8dd\	.	.	.	.
8c\J	.	8ccc\J 8ee-\	.	.	.	.
4B-/	4D\	[4ddd\ 4ff\	.	.	.	.
=268	=268	=268	=268	=268	=268	=268
*	*	*^	*	*	*	*
2G/	4E-\	4ddd/]	2gg\	.	2.ryy	2.ryy	2.ryy
.	4En\	4ccc/	.	.	.	.	.
[4d/	4F#X\	4aa/	[>4dd\	.	.	.	.
=269	=269	=269	=269	=269	=269	=269	=269
4d/]	4G\	4bb-/	2dd\]	.	2.ryy	2.ryy	2.ryy
*clefG2	*	*	*	*	*	*	*
8g/L 8B-/	2ryy	4gg/	.	.	.	.	.
8a/J 8c/	.	.	.	.	.	.	.
4b-/ [4d/	.	4dd/	4dd\	.	.	.	.
*v	*v	*	*	*	*	*	*
=270	=270	=270	=270	=270	=270	=270
4b-/ 4d/]	4ee-/	2dd\	.	2.ryy	2.ryy	2.ryy
4a/ 4c/	4een/	.	.	.	.	.
[4d/ 4A/	4ff#X/	4cc\	.	.	.	.
=271	=271	=271	=271	=271	=271	=271
4d/] 4B-/	2gg/	4b-\	.	2.ryy	2.ryy	2.ryy
4e-/ 4c/	.	4a\	.	.	.	.
4d/ 4B-/	[4gg/	4b-\	.	.	.	.
!LO:LB:g=original	!	!	!	!	!	!
=272	=272	=272	=272	=272	=272	=272
*clefF4	*	*	*	*	*	*
4c\ 4A\	4gg/]	2cc\	.	2.ryy	2.ryy	2.ryy
4c\ 4A\	4ff#X/	.	.	.	.	.
4d\ 4Bn\	4ffn/	4a-X\	.	.	.	.
=273	=273	=273	=273	=273	=273	=273
8c\L	4ee-X/	4g\	.	2.ryy	2.ryy	2.ryy
8B-X\J	.	.	.	.	.	.
4c\ 4A^\	8ff/L	8an\L	.	.	.	.
.	8ee-/J	8g\J	.	.	.	.
8B-\L	4dd/	4f\	.	.	.	.
8A\J	.	.	.	.	.	.
=274	=274	=274	=274	=274	=274	=274
4B-\ 4G\	8ee-/L	8g\L	.	2.ryy	2.ryy	2.ryy
.	8dd/J	8f\J	.	.	.	.
8A\L	4cc/	4e-\	.	.	.	.
8G\J	.	.	.	.	.	.
4A\ 4F#X\	8dd/L	4a\	.	.	.	.
.	8cc/J	.	.	.	.	.
=275	=275	=275	=275	=275	=275	=275
8G\L	4b-/	4d\	.	2.ryy	2.ryy	2.ryy
8Fn\J	.	.	.	.	.	.
4G\ 4E-X\	4cc/	4e-\	.	.	.	.
4Bn\ 4D\	4dd/	4f\	.	.	.	.
=276	=276	=276	=276	=276	=276	=276
4c\ 4C\	4ee-\	4g\	.	2.ryy	2.ryy	2.ryy
4G\ 4D\	4dd\ 4b-X\	4ryy	.	.	.	.
4G\ 4E-\	4cc#X\ 4g\	4ryy	.	.	.	.
=277	=277	=277	=277	=277	=277	=277
4A\ 4D\	4dd/	4f#X\	.	2.ryy	2.ryy	2.ryy
4D/ 4DD/	4een/	4g\	.	.	.	.
4D/ 4DD/	4ff#X/	4a\	<	.	.	.
=278	=278	=278	=278	=278	=278	=278
4D/ 4DD/	4gg\	4b-\	.	2.ryy	2.ryy	2.ryy
4G\ 4GG\	8bb-\L 8dd\	2ryy	.	.	.	.
.	8aa\J 8cc\	.	.	.	.	.
8B-\L 8BB-\	4gg\ 4b-\	.	.	.	.	.
8c\J 8C\	.	.	.	.	.	.
=279	=279	=279	=279	=279	=279	=279
4d\ 4D\	2ddd/	4ff#X\	.	2.ryy	2.ryy	2.ryy
4d\ 4D\	.	4gg\	.	.	.	.
4d\ 4D\	4ccc/	4aa\	[	.	.	.
=280	=280	=280	=280	=280	=280	=280
4d\ 4D\	4bb-/	4gg\	.	2.ryy	2.ryy	2.ryy
8B-\L 8BB-\	8ddd/L	4dd\	.	.	.	.
8A\J 8AA\	8ccc/J	.	.	.	.	.
4G\ 4GG\	4bb-/	4dd\	.	.	.	.
*	*v	*v	*	*	*	*
=281	=281	=281	=281	=281	=281
4D/ 4DD/	4aa\ 4ff#X\ 4dd'\	f	2.ryy	2.ryy	2.ryy
4G/ 4GG/	4bb-\ 4gg\ 4dd'\	.	.	.	.
8B-\L 8BB-\	4bb-\ 4gg\ 4dd'\	.	.	.	.
8c\J 8C\	.	.	.	.	.
=282	=282	=282	=282	=282	=282
4d\ 4D\	4aa\ 4ff#X\ 4dd\	.	2.ryy	2.ryy	2.ryy
8B-\L 8BB-\	4bb-\ 4gg\ 4dd\	.	.	.	.
8A\J 8AA\	.	.	.	.	.
4G\ 4GG\	4bb-\ 4gg\ 4dd\	.	.	.	.
=283	=283	=283	=283	=283	=283
4D/ 4DD/	4aa\ 4ff#X\ 4dd\	.	2.ryy	2.ryy	2.ryy
4A'\	4a'\	p	.	.	.
4G'\	4cc#X\ 4a'\	.	.	.	.
!!LO:LB:g=original
=284	=284	=284	=284	=284	=284
*	*^	*	*	*	*
8Fn\L	4dd/	2a\	.	2.ryy	2.ryy	2.ryy
8En\J	.	.	.	.	.	.
4D'\	4ffn/	.	.	.	.	.
4F'\	4dd/	4dd\	.	.	.	.
=285	=285	=285	=285	=285	=285	=285
4G\	8een/L	2dd\	.	2.ryy	2.ryy	2.ryy
.	8ff/J	.	.	.	.	.
4En\	4gg/	.	.	.	.	.
4A\	4gg/	4cc#X\	.	.	.	.
=286	=286	=286	=286	=286	=286	=286
4B-\	4ff/	4dd\	rf	2.ryy	2.ryy	2.ryy
4B-\ 4F\ 4BB-^<\	4bb-\ 4ff\ 4dd\	2ryy	.	.	.	.
4D\	4b-^<\	.	.	.	.	.
=287	=287	=287	=287	=287	=287	=287
4E-X'\	8ccn/L	2b-\	.	2.ryy	2.ryy	2.ryy
.	8dd/J	.	.	.	.	.
4C'\	4ee-/	.	.	.	.	.
4c\	4ee-/	4a\	.	.	.	.
=288	=288	=288	=288	=288	=288	=288
4B-\	4dd/	4b-\	.	2.ryy	2.ryy	2.ryy
4G\ 4D\ 4GG^<\	4gg/ 4dd/ 4b-/	4ryy	rf	.	.	.
4D\ 4BB-\	[4gg^</	4dd\	.	.	.	.
=289	=289	=289	=289	=289	=289	=289
*^	*	*	*	*	*	*
4G\	4C\	2gg/]	4ee-\	.	2.ryy	2.ryy	2.ryy
2A/	4AA\	.	2cc\	.	.	.	.
.	4D\	4ff#X/	.	.	.	.	.
*v	*v	*	*	*	*	*	*
=290	=290	=290	=290	=290	=290	=290
4G\	2gg/	2b-\	.	2.ryy	2.ryy	2.ryy
4GG/	.	.	.	.	.	.
4B-\ 4G\	4ryy	4ee-X\	.	.	.	.
=291	=291	=291	=291	=291	=291	=291
4c\ 4A-X\	8ff/L	2ee-\	.	2.ryy	2.ryy	2.ryy
.	8gg/J	.	.	.	.	.
4f\ 4F\	4aa-X/	.	.	.	.	.
4Bn\ 4F\	4aa-/	4dd\	.	.	.	.
=292	=292	=292	=292	=292	=292	=292
4c\ 4E-\	4gg/	4ee-\	.	2.ryy	2.ryy	2.ryy
4c\ 4G\ 4C^<\	4ccc\ 4ee-\ 4cc\	2ryy	rf	.	.	.
4e-\ 4c\	4cc^<\	.	.	.	.	.
*	*v	*v	*	*	*	*
=293	=293	=293	=293	=293	=293
*^	*	*	*	*	*
8f/L	2c\	(8dd\L	.	2.ryy	2.ryy	2.ryy
8g/J	.	8ee-\J)	.	.	.	.
4a-X/	.	4ff'\	.	.	.	.
4a-/	4Bn\	4ff\ 4dd'\	.	.	.	.
=294	=294	=294	=294	=294	=294	=294
*	*	*^	*	*	*	*
4g/	2B-X\	8een/L	2ee\	.	2.ryy	2.ryy	2.ryy
.	.	8ff/J	.	.	.	.	.
4c/	.	4gg/	.	.	.	.	.
4c/	4B-\	4gg/	4ee\	.	.	.	.
=295	=295	=295	=295	=295	=295	=295	=295
2c/	8A-X\L	8ff/L	2cc\	.	2.ryy	2.ryy	2.ryy
.	8G\J	8gg/J	.	.	.	.	.
.	4F\	4aa-X/	.	.	.	.	.
4F/	4FF/	4aa-/	4ff\	.	.	.	.
*v	*v	*	*	*	*	*	*
=296	=296	=296	=296	=296	=296	=296
4C/ 4CC/	2gg/	8ee-\L	<	2.ryy	2.ryy	2.ryy
.	.	8dd\J	.	.	.	.
4E-X/ 4EE-/	.	4cc\	.	.	.	.
4C/ 4CC/	4ccc^</	4ee-\	.	.	.	.
*	*v	*v	*	*	*	*
!!LO:LB:g=original
=297	=297	=297	=297	=297	=297
4G/ 4GG/	8bb-\L 8dd\	.	2.ryy	2.ryy	2.ryy
.	8aa\J 8cc\	.	.	.	.
4GG/ 4GGG/	4gg\ 4b-\	.	.	.	.
4d\ 4G\	4bb-\ 4gg^<\	.	.	.	.
=298	=298	=298	=298	=298	=298
*^	*^	*	*	*	*
2d/	8F#X\L	8aa/L	2dd\	.	2.ryy	2.ryy	2.ryy
.	8En\J	8gg/J	.	.	.	.	.
.	4D\	4ff#X/	.	.	.	.	.
4c/	4C\	4eee-^</	4ffn\	.	.	.	.
=299	=299	=299	=299	=299	=299	=299	=299
8B-\L	8BB-\L	8ddd/L	2gg\	.	2.ryy	2.ryy	2.ryy
8A\J	8AA\J	8ccc/J	.	.	.	.	.
4G\	4GG\	4bb-/	.	.	.	.	.
4d\	4G\	4gg^</	4b-\	.	.	.	.
*	*	*v	*v	*	*	*	*
=300	=300	=300	=300	=300	=300	=300
2d/	4A\	8ff#X\L 8a\	.	2.ryy	2.ryy	2.ryy
.	.	8een\J 8g\	.	.	.	.
.	4D\	4dd\ 4f#X\	.	.	.	.
4ryy	4c\	4ee-X\ 4f#^<\	.	.	.	.
=301	=301	=301	=301	=301	=301	=301
*	*	*^	*	*	*	*
2d/	8B-\L	8dd/L	2g\	.	2.ryy	2.ryy	2.ryy
.	8A\J	8cc/J	.	.	.	.	.
.	4G\	4b-/	.	.	.	.	.
4ryy	4B-\	4ddd^<\	4dd\	.	.	.	.
*v	*v	*	*	*	*	*	*
=302	=302	=302	=302	=302	=302	=302
8A\L	8ccc/L	2dd\	.	2.ryy	2.ryy	2.ryy
8G\J	8bb-/J	.	.	.	.	.
4F#X\	4aa/	.	.	.	.	.
4G\	4bb-/	4gg\	.	.	.	.
*	*v	*v	*	*	*	*
=303	=303	=303	=303	=303	=303
4C\	(8eee-\L 8ccc\	.	2.ryy	2.ryy	2.ryy
.	8ddd\J 8bb-\	.	.	.	.
4Fn\	4ccc\ 4aa\)	.	.	.	.
4A\ 4F\	4ee-\	.	.	.	.
=304	=304	=304	=304	=304	=304
8B-\L 8G\	4dd\	.	2.ryy	2.ryy	2.ryy
8c\J 8A\	.	.	.	.	.
4d\ 4B-\	4b-\	.	.	.	.
4B-\ 4BB-\	4b-\	p	.	.	.
=305	=305	=305	=305	=305	=305
(4B-\ 4BB-\	8cc\L	.	2.ryy	2.ryy	2.ryy
.	8dd\J	.	.	.	.
4A\ 4AA\)	4ee-\	.	.	.	.
4A\ 4AA'\	4ee-\	.	.	.	.
=306	=306	=306	=306	=306	=306
4B-\ 4BB-\	(4ee-\	.	2.ryy	2.ryy	2.ryy
4F\ 4FF\	4dd\)	.	.	.	.
4d\ 4D\	4ff\ 4f\	.	.	.	.
=307	=307	=307	=307	=307	=307
*	*^	*	*	*	*
2e-\ 2E-\	4ff/	8g\L	.	2.ryy	2.ryy	2.ryy
.	.	8a\J	.	.	.	.
.	4ee-/	4b-\	.	.	.	.
4en\ 4En\	4dd/	4b-\	.	.	.	.
=308	=308	=308	=308	=308	=308	=308
4f\ 4F\	2cc/	4b-\	.	2.ryy	2.ryy	2.ryy
4F\ 4FF\	.	4a\	.	.	.	.
4r	4ff/	4ff\	f	.	.	.
!!LO:PB:g=original
=309	=309	=309	=309	=309	=309	=309
4r	8gg/L	4ff\	.	2.ryy	2.ryy	2.ryy
.	8aa/J	.	.	.	.	.
4r	4bb-/	4ee-\	.	.	.	.
4BB-/ 4BBB-/	[4bb-/	4dd\	.	.	.	.
=310	=310	=310	=310	=310	=310	=310
8C/L 8CC/	4bb-/]	4ee-\	.	2.ryy	2.ryy	2.ryy
8D/J 8DD/	.	.	.	.	.	.
4E-/ 4EE-/	4aa/	4cc\	.	.	.	.
4A\ 4E-\	4ccc/	4ff\	.	.	.	.
=311	=311	=311	=311	=311	=311	=311
*^	*	*	*	*	*	*
8B-/L	4E-\	4ccc/	8gg\L	.	2.ryy	2.ryy	2.ryy
8c/J	.	.	8aa\J	.	.	.	.
4d/	4D\	4bb-/	4bb-\	.	.	.	.
4ryy	4D\	4dd\ 4b-\	4ryy	.	.	.	.
*v	*v	*	*	*	*	*	*
*	*v	*v	*	*	*	*
=312	=312	=312	=312	=312	=312
2C\	(8ee-\L 8cc\	.	2.ryy	2.ryy	2.ryy
.	8ff\J 8dd\)	.	.	.	.
.	4gg\ 4ee-'\	.	.	.	.
4F\ 4FF\	4aa\ 4ee-'\	.	.	.	.
=313	=313	=313	=313	=313	=313
*	*^	*	*	*	*
(8G\L 8GG\	8bb-/L	4ee-\	.	2.ryy	2.ryy	2.ryy
8A\J 8AA\)	8ccc/J	.	.	.	.	.
(4B-\ 4BB-\	4ddd/	4dd\	.	.	.	.
4B-\ 4BB-\)	4ddd/	4een\	.	.	.	.
*	*v	*v	*	*	*	*
=314	=314	=314	=314	=314	=314
4B-\ 4BB-\	4ccc\ 4ff\	.	2.ryy	2.ryy	2.ryy
4A\ 4AA\	4ff\ 4cc\ 4f\	.	.	.	.
[4d\ 4D^<\	4ff\ 4b-\	.	.	.	.
=315	=315	=315	=315	=315	=315
*	*^	*	*	*	*
4d\] 4D\	4gg\ 4ee-\	4ryy	.	2.ryy	2.ryy	2.ryy
4c\ 4C\	8g/L	4g\	.	.	.	.
.	8gg/	.	.	.	.	.
4A\ 4AA\	8ff/	4cc\	.	.	.	.
.	8ee-/J	.	.	.	.	.
=316	=316	=316	=316	=316	=316	=316
(4B-\ 4BB-^<\	4.dd/	4.b-\	.	2.ryy	2.ryy	2.ryy
!LO:SIC:v:s=4AA-	!	!	!	!	!	!
4A-X\ 4AA\)	.	.	.	.	.	.
.	8dd\L	4.ryy	.	.	.	.
4F\ 4FF\	8ff\	.	.	.	.	.
.	8aa-X\J	.	.	.	.	.
=317	=317	=317	=317	=317	=317	=317
(4A-X\ 4AA^<\	4.dd/	2bn\	.	2.ryy	2.ryy	2.ryy
4G\ 4GG\)	.	.	.	.	.	.
.	8dd/L	.	.	.	.	.
4E-/ 4EE-/	8ee-/	4cc\	.	.	.	.
.	8gg/J	.	.	.	.	.
=318	=318	=318	=318	=318	=318	=318
!LO:SIC:v:s=4GG-	!	!	!	!	!	!
(4G-X\ 4GG^<\	4.cc/	2a\	.	2.ryy	2.ryy	2.ryy
4F\ 4FF\)	.	.	.	.	.	.
.	8cc/L	.	.	.	.	.
4D-X/ 4DD-X/	8dd-X/	4b-\	.	.	.	.
.	8ff/J	.	.	.	.	.
=319	=319	=319	=319	=319	=319	=319
4BB-/ 4BBB-/	4ff/	8dd-X\L	.	2.ryy	2.ryy	2.ryy
.	.	8cc\J	.	.	.	.
4B-\ 4BB-\	4gg/	4dd-\ 4b-\	.	.	.	.
4Bn\ 4BBn\	4ff/ 4ddn/	4a-X\	.	.	.	.
=320	=320	=320	=320	=320	=320	=320
4c\ 4C\	8een/L 8cc^</	8g\L	.	2.ryy	2.ryy	2.ryy
.	8cc/J	8g\J 8e-\	.	.	.	.
*	*tremolo	*	*	*	*	*
4C/ 4CC/	8cc\ 8g\ 8en\L	2ryy	.	.	.	.
.	8cc\ 8g\ 8en\	.	.	.	.	.
[4c\ 4C^\	8cc\ 8g\ 8en\	.	.	.	.	.
.	8cc\ 8g\ 8en\J	.	.	.	.	.
*	*Xtremolo	*	*	*	*	*
*	*v	*v	*	*	*	*
!!LO:LB:g=original
=321	=321	=321	=321	=321	=321
4c\] 4C\	8dd-X\L 8a-X\ 8f^\	.	2.ryy	2.ryy	2.ryy
.	8dd-\J 8a-\ 8f\	.	.	.	.
*	*tremolo	*	*	*	*
4BB-/ 4BBB-/	8dd-\L 8b-\ 8f\	.	.	.	.
.	8dd-\ 8b-\ 8f\	.	.	.	.
[4B-\ 4BB-^\	8dd-\ 8b-\ 8f\	.	.	.	.
.	8dd-\J 8b-\ 8f\	.	.	.	.
=322	=322	=322	=322	=322	=322
4B-\] 4BB-\	8ddn\ 8b-\ 8f^\L	.	2.ryy	2.ryy	2.ryy
.	8ddn\ 8b-\ 8f^\	.	.	.	.
4AA-X/ 4AAA-X/	8ddn\ 8b-\ 8f^\	.	.	.	.
.	8ddn\ 8b-\ 8f^\	.	.	.	.
!LO:SIC:v:s=4A-	!	!	!	!	!
[4A\ 4AA-^\	8ddn\ 8b-\ 8f^\	.	.	.	.
.	8ddn\ 8b-\ 8f^\J	.	.	.	.
=323	=323	=323	=323	=323	=323
!LO:SIC:v:s=4A-	!	!LO:TX:t=cres_:problem:dynamics with extention lines	!	!	!
4A\] 4AA\	8ee-X\ 8b-\ 8g^\L	<	2.ryy	2.ryy	2.ryy
.	8ee-X\ 8b-\ 8g^\	.	.	.	.
4GG/ 4GGG/	8ee-X\ 8b-\ 8g^\	.	.	.	.
.	8ee-X\ 8b-\ 8g^\	.	.	.	.
4G\ 4GG^\	8ee-X\ 8b-\ 8g^\	.	.	.	.
.	8ee-X\ 8b-\ 8g^\J	.	.	.	.
=324	=324	=324	=324	=324	=324
4G-X\ 4GG-X\	8een\ 8dd-X\ 8b-^\L	.	2.ryy	2.ryy	2.ryy
.	8een\ 8dd-X\ 8b-^\	.	.	.	.
4G-\ 4GG-\	8een\ 8dd-X\ 8b-^\	.	.	.	.
.	8een\ 8dd-X\ 8b-^\	.	.	.	.
4G-\ 4GG-\	8een\ 8dd-X\ 8b-^\	.	.	.	.
.	8een\ 8dd-X\ 8b-^\J	.	.	.	.
=325	=325	=325	=325	=325	=325
8F\ 8FF\L	8ff\ 8dd-X\ 8b-^\L	[[	2.ryy	2.ryy	2.ryy
8F\ 8FF\	8ff\ 8dd-X\ 8b-^\	.	.	.	.
8F\ 8FF\	8ff\ 8dd-X\ 8b-^\	.	.	.	.
8F\ 8FF\	8ff\ 8dd-X\ 8b-^\	.	.	.	.
8F\ 8FF\	8ff\ 8dd-X\ 8b-^\	.	.	.	.
8F\ 8FF\J	8ff\ 8dd-X\ 8b-^\J	.	.	.	.
*	*Xtremolo	*	*	*	*
=326	=326	=326	=326	=326	=326
!LO:TX:t=P:problem:mixed beam	!	!	!	!	!
*tremolo	*	*	*	*	*
16EE-/LL	8gg\L 8dd-X\ 8b-\	.	2.ryy	2.ryy	2.ryy
16E-\	.	.	.	.	.
16EE-/	8gg\J 8dd-\ 8b-\	.	.	.	.
16E-\	.	.	.	.	.
!	!	!LO:DY:t=for.	!	!	!
16EE-/	8gg\L 8cc\ 8an\	f	.	.	.
16E-/	.	.	.	.	.
16EE-\	8gg\J 8cc\ 8a\	.	.	.	.
16E-/	.	.	.	.	.
16EE-/	8gg\L 8dd-\ 8b-\	.	.	.	.
16E-/	.	.	.	.	.
16EE-/	8gg\J 8dd-\ 8b-\	.	.	.	.
16E-/JJ	.	.	.	.	.
*Xtremolo	*	*	*	*	*
=327	=327	=327	=327	=327	=327
4E-X/ 4EE-X'/	4aa\ 4cc\ 4a'\	.	2.ryy	2.ryy	2.ryy
4E-/ 4EE-'/	4aa\ 4cc\ 4a'\	.	.	.	.
4r	4r	.	.	.	.
!!LO:LB:g=original
=328	=328	=328	=328	=328	=328
4D/ 4DD'/	4bb-\ 4ff\ 4b-'\	.	2.ryy	2.ryy	2.ryy
4D/ 4DD'/	4bb-\ 4ff\ 4b-'\	<	.	.	.
4r	4r	.	.	.	.
=329	=329	=329	=329	=329	=329
!	!LO:SIC:v:s=4b	!	!	!	!
4D-X/ 4DD-X'/	4bbn\ 4ff\ 4b-'\	.	2.ryy	2.ryy	2.ryy
4D-/ 4DD-'/	4bb\ 4ff\ 4b-'\	[	.	.	.
4r	4r	.	.	.	.
=330	=330	=330	=330	=330	=330
4r	4r	.	2.ryy	2.ryy	2.ryy
4r	4r	.	.	.	.
8.r	8.r	.	.	.	.
!	!	!LO:DY:t=ffor.	!	!	!
16C/ 16CC/	16ccc\ 16een\ 16cc\	ff	.	.	.
=331	=331	=331	=331	=331	=331
2C/ 2CC/	2ccc\ 2ee-\ 2cc\	.	2.ryy	2.ryy	2.ryy
8.r	8.r	.	.	.	.
16c\ 16G\ 16C\	16cc/ 16g/ 16e-/	.	.	.	.
=332	=332	=332	=332	=332	=332
!	!LO:TX:b:t=V.S.	!	!	!	!
2.c\ 2.G\ 2.C;\	2.cc/ 2.g/ 2.en;/	.	2.ryy	2.ryy	2.ryy
!!LO:PB:g=original
=333||	=333||	=333||	=333||	=333||	=333||
*k[b-e-a-d-]	*k[b-e-a-d-]	*	*k[b-e-a-d-]	*k[b-e-a-d-]	*k[b-e-a-d-]
*M4/4	*M4/4	*	*M4/4	*M4/4	*M4/4
*met(c)	*met(c)	*	*met(c)	*met(c)	*met(c)
*	*^	*	*	*	*
*ped	*	*	*	*	*	*
!LO:TX:b:t=Pedale.	!LO:TX:a:t=Adagio.	!	!	!	!	!
4f\	4cc\ 4an\	2ryy	p	1ryy	1ryy	1ryy
4dn\	4ddn\ 4f#X\	.	.	.	.	.
(4G\	8b-/L	4g\	.	.	.	.
.	8bn/J	.	.	.	.	.
4c\	4cc/	4en\	.	.	.	.
*	*v	*v	*	*	*	*
=334	=334	=334	=334	=334	=334
4F\	4an/ 4f/	.	1ryy	1ryy	1ryy
4B-\)	4b-/ 4dn/	.	.	.	.
2c\	2g/ 2en/	.	.	.	.
=335	=335	=335	=335	=335	=335
*	*^	*	*	*	*
(4c\ 4F\	4an/ 4f/	2ryy	<	1ryy	1ryy	1ryy
4An\ 4E-\	4cc/ 4f/	.	.	.	.	.
4B-\ 4D-X\	4b-/	8f\L	[	.	.	.
.	.	8en\J	.	.	.	.
4c\ 4C\	4a-X/	4f\	.	.	.	.
*	*v	*v	*	*	*	*
=336	=336	=336	=336	=336	=336
*^	*	*	*	*	*
4B-\)	4BB-\	4g/ 4f/ 4d-X/	>	1ryy	1ryy	1ryy
8c\L	4C\	4g/ 4en/	.	.	.	.
8B-\J	.	.	.	.	.	.
2ryy	2A-\ 2F;>\	2f/ 2c;/	]	.	.	.
=337	=337	=337	=337	=337	=337	=337
4.c/	4F\	(4.a-/ 4.f/	mf	1ryy	1ryy	1ryy
.	8E-\L	.	.	.	.	.
8B-/	8D-\J	8b-/ 8g/)	.	.	.	.
8C/L	2ryy	4cc/ 4a-/ 4e-/	.	.	.	.
8BB-/J	.	.	.	.	.	.
4AA-/	.	4cc/ 4a-/ 4e-/	.	.	.	.
*v	*v	*	*	*	*	*
=338	=338	=338	=338	=338	=338
*	*^	*	*	*	*
4D-X\	4b-/	8a-\L	.	1ryy	1ryy	1ryy
.	.	8f^\J	.	.	.	.
4E-\	4b-/ 4g/	8e-\L	.	.	.	.
.	.	(>8d-X^\J	.	.	.	.
2E-\ 2AA-\	2a-/ 2e-/ 2c/)	2ryy	.	.	.	.
=339	=339	=339	=339	=339	=339	=339
*^	*	*	*	*	*	*
4D-\	2ryy	4a-/ 4f/ 4d-X/	2ryy	p	1ryy	1ryy	1ryy
8C/L	.	4b-/ 4g/ 4d-/	.	.	.	.	.
8BB-/J	.	.	.	.	.	.	.
4G/	4C\	8cc/L	4en\	.	.	.	.
.	.	8b-/J	.	.	.	.	.
8F/L	4D-\	4a-/	4f\	.	.	.	.
8A-/J	.	.	.	.	.	.	.
*v	*v	*	*	*	*	*	*
=340	=340	=340	=340	=340	=340	=340
4BB-/	4g/ 4f/ 4d-/	4ryy	.	1ryy	1ryy	1ryy
4C/	4g/ 4en/	8c\L	.	.	.	.
.	.	8B-\J	.	.	.	.
2C/ 2FF;/	2e/ 2c;/	2A-X\	.	.	.	.
*	*v	*v	*	*	*	*
!!LO:LB:g=original
=341	=341	=341	=341	=341	=341
*^	*	*	*	*	*
8An\L 8F\	2ryy	4cc\ 4f\	.	1ryy	1ryy	1ryy
8B-\ 8G\	.	.	.	.	.	.
8c\ 8A\	.	4cc\ 4f\	.	.	.	.
8A\J 8F\	.	.	.	.	.	.
4B-/	8BB-\L	4dd-X\ 4f\	.	.	.	.
.	8C\	.	.	.	.	.
4c/	8D-\	4dd-\ 4f\	.	.	.	.
.	8BB-\J	.	.	.	.	.
=342	=342	=342	=342	=342	=342	=342
*	*	*^	*	*	*	*
4B-/	8E-\L	4b-/	8g\L	.	1ryy	1ryy	1ryy
.	8F\	.	8a-\	.	.	.	.
[4e-/	8G\	4b-/	8b-\	.	.	.	.
.	8E-\J	.	8g\J	.	.	.	.
4e-/]	4A-\	4cc/	4a-\	.	.	.	.
4e-;/	4A-\	4cc;/	4a-\	.	.	.	.
*	*	*v	*v	*	*	*	*
=343	=343	=343	=343	=343	=343	=343
4d-/	8D-\L	4a-/ 4f/	.	1ryy	1ryy	1ryy
.	8E-\	.	.	.	.	.
4d-/	8F\	4a-/ 4f/	.	.	.	.
.	8D-\J	.	.	.	.	.
8BB-/L	2ryy	4dd-X\ 4b-\ 4f\	.	.	.	.
8C/	.	.	.	.	.	.
8D-/	.	4dd-\ 4b-\ 4f\	.	.	.	.
8BB-/J	.	.	.	.	.	.
*v	*v	*	*	*	*	*
=344	=344	=344	=344	=344	=344
*	*^	*	*	*	*
8E-/L	4cc\ 4b-\ 4g-X^\	4ryy	.	1ryy	1ryy	1ryy
8C/J	.	.	.	.	.	.
!LO:TX:t=P:problem:mixed beam	!	!	!	!	!	!
8F\L	4cc/ 4an/	8f\L	.	.	.	.
8FF/J	.	8e-\J	.	.	.	.
2F\ 2BB-;\	2b-/ 2f/ 2d-X;/	2ryy	.	.	.	.
=345	=345	=345	=345	=345	=345	=345
4d-X\ 4B-\	4g/ 4en/	2ryy	.	1ryy	1ryy	1ryy
4c\ 4A-\	4a-/ 4f/	.	p	.	.	.
4B-\ 4G\	4b-/	8f\L	.	.	.	.
.	.	8e\J	.	.	.	.
4c\ 4F\	4a-/	4f\	.	.	.	.
*	*v	*v	*	*	*	*
=346	=346	=346	=346	=346	=346
*^	*	*	*	*	*
4Bn^\	4Dn\	(4g/ 4f^/	.	1ryy	1ryy	1ryy
8c/L	4C\	4g/ 4en/)	.	.	.	.
8B/J	.	.	.	.	.	.
2A-/	2FF;\	2f/; 2c/	.	.	.	.
=347	=347	=347	=347	=347	=347	=347
*	*	*^	*	*	*	*
4d-/	8D-\L	4ff/	8f\L	.	1ryy	1ryy	1ryy
.	8E-\	.	8g\	.	.	.	.
4d-/	8F\	4ff/	8a-\	mf	.	.	.
.	8G\J	.	8b-\J	.	.	.	.
4c/	8A-\L	4ee-/	4e-\	.	.	.	.
.	8B-\	.	.	.	.	.	.
4c/	8c\	4ee-/	4a-\	.	.	.	.
.	8A-\J	.	.	.	.	.	.
*v	*v	*	*	*	*	*	*
=348	=348	=348	=348	=348	=348	=348
!LO:TX:t=P:problem:mixed beam	!	!	!	!	!	!
8F\L	4ddn/	4a-\	.	1ryy	1ryy	1ryy
8Dn\	.	.	.	.	.	.
8G\	4dd/	8g\L	.	.	.	.
8GG/J	.	8f\J	.	.	.	.
2G\ 2C;\	2cc\ 2g\ 2en;\	2ryy	.	.	.	.
!!LO:LB:g=original
=349	=349	=349	=349	=349	=349	=349
*^	*	*	*	*	*	*
4An/	8F\L	4cc/	4f\	.	1ryy	1ryy	1ryy
.	8E-\	.	.	.	.	.	.
4A/	8D-\	4cc/	4f\	.	.	.	.
.	8C\J	.	.	.	.	.	.
4B-/	4BB-\	4dd-/	8f\L	.	.	.	.
.	.	.	8g^\J	.	.	.	.
4E-/	8C\L	4cc/	4a-\	.	.	.	.
.	8D-^\J	.	.	.	.	.	.
*v	*v	*	*	*	*	*	*
=350	=350	=350	=350	=350	=350	=350
4E-\	4b-/	8a-\L	.	1ryy	1ryy	1ryy
.	.	8f^\	.	.	.	.
4E-\	4b-/	8e-\	.	.	.	.
.	.	8d-^\J	.	.	.	.
2E-\ 2AA-;\	2a-;/	2ryy	.	.	.	.
*	*v	*v	*	*	*	*
=351	=351	=351	=351	=351	=351
8D-/L	4a-/ 4f/ 4d-/	.	1ryy	1ryy	1ryy
8E-/	.	.	.	.	.
8D-/	4a-/ 4f/ 4d-/	.	.	.	.
8C/J	.	.	.	.	.
8BB-/L	4.dd-\ 4.b-\ 4.f\	.	.	.	.
8C/	.	.	.	.	.
8D-/	.	.	.	.	.
8BB-/J	8dd-\ 8b-\ 8f\	.	.	.	.
=352	=352	=352	=352	=352	=352
*	*^	*	*	*	*
8E-\L	4b-/ 4g/ 4e-/	1ryy	.	1ryy	1ryy	1ryy
8F\	.	.	.	.	.	.
8E-\	4b-/ 4g/ 4e-/	.	.	.	.	.
8D-\J	.	.	.	.	.	.
8C/L	4.ee-\ 4.cc\ 4.g\	.	.	.	.	.
8D-/	.	.	.	.	.	.
8E-/	.	.	.	.	.	.
8C/J	8ee-\ 8cc\ 8g\	.	.	.	.	.
=353	=353	=353	=353	=353	=353	=353
8F\L	4cc/	8a-\L 8f\	.	1ryy	1ryy	1ryy
8En\	.	8g\	.	.	.	.
8F\	4cc/	8a-\ 8f\	.	.	.	.
8G\J	.	8b-\J	.	.	.	.
8A-\L	4ff/	4cc\ 4f\	.	.	.	.
8G\	.	.	.	.	.	.
8A-\	4ff/	8b-\L	.	.	.	.
8B-\J	.	8a-\J	.	.	.	.
=354	=354	=354	=354	=354	=354	=354
4c\	4een/	8g\L	.	1ryy	1ryy	1ryy
.	.	8dd-X\	.	.	.	.
4c\ 4C\	4ee/	8cc\	.	.	.	.
.	.	8b-\J	.	.	.	.
2c\ 2F;\	2ff\ 2an;\	2ryy	.	.	.	.
*	*v	*v	*	*	*	*
*clefG2	*	*	*	*	*
=355	=355	=355	=355	=355	=355
!	!	!LO:DY:t=ppo.	!	!	!
4ff\	(4ccc\ 4aan\	pp	1ryy	1ryy	1ryy
[4ddn\	4dddn\ 4ff#X\	.	.	.	.
4dd\] 4g\	4bb-\ 4gg\	.	.	.	.
*	*ped	*	*	*	*
!	!LO:TX:b:t=Ped.	!	!	!	!
[4cc\	4ccc\ 4een\	.	.	.	.
=356	=356	=356	=356	=356	=356
4cc\] 4f\	4aan\ 4ff\	.	1ryy	1ryy	1ryy
4b-\	4bb-\ 4ddn\	.	.	.	.
2cc\	2gg\ 2een\)	.	.	.	.
=357	=357	=357	=357	=357	=357
*clefF4	*	*	*	*	*
*	*^	*	*	*	*
4r	8cc/L	4an\	.	1ryy	1ryy	1ryy
.	8dd-/J	.	.	.	.	.
[4dn\	4ddn/	4f#X\	.	.	.	.
4d\] 4G\	8b-/L	4g\	.	.	.	.
.	8bn/	.	.	.	.	.
[4c\	8ccn/	4en\	.	.	.	.
.	8b-X/J	.	.	.	.	.
*	*v	*v	*	*	*	*
=358	=358	=358	=358	=358	=358
4c\] 4F\	(4an/ 4f/	.	1ryy	1ryy	1ryy
4B-\ 4C\	4g/ 4en'/	.	.	.	.
4An\ 4F\	4f'/)	.	.	.	.
4r	4r	.	.	.	.
=359	=359	=359	=359	=359	=359
!	!	!LO:HP:t=dimin	!	!	!
(4c\ 4C'\	(4ff\ 4cc\ 4an'\	>	1ryy	1ryy	1ryy
4c\ 4C'\	4een\ 4cc\ 4g'\	.	.	.	.
4c\ 4F'\)	4ff\ 4cc\ 4a'\)	.	.	.	.
4r	4r	.	.	.	.
*clefG2	*	*	*	*	*
=360	=360	=360	=360	=360	=360
!	!LO:TX:b:t=rallent(ando).	!	!	!	!
(4cc/ 4c'/	(4ccc\ 4aan\ 4ff'\	.	1ryy	1ryy	1ryy
4cc/ 4c'/	4ccc\ 4gg\ 4een'\	.	.	.	.
4cc/ 4f'/)	4ccc\ 4aa\ 4ff'\)	.	.	.	.
4r	4r	.	.	.	.
.	.	ppp	.	.	.
=361	=361	=361	=361	=361	=361
!	!	!LO:HP:b=2	!	!	!
4cc\	4fff\ 4ccc\ 4aan\	>	1ryy	1ryy	1ryy
4cc\	4eeen\ 4ccc\ 4gg\	.	.	.	.
4ff;\	4fff\; 4ccc\ 4aa\	]	.	.	.
4r;	4r;	.	.	.	.
*clefF4	*	*	*	*	*
=362	=362	=362	=362	=362	=362
1B-\ 1BB-\^<	1b-/ 1f/ 1d-/^<	.	1ryy	1ryy	1ryy
=363	=363	=363	=363	=363	=363
0F/ 0FF/;	0a-/ 0f/ 0c/;	.	0ryy	0ryy	0ryy
!	!LO:TX:b:t=Fine	!	!	!	!
==	==	==	==	==	==
*-	*-	*-	*-	*-	*-
!!!system-decoration: [(s1,s2,s3)][s4,s5]
!!!RDF**kern: > = above
!!!RDF**kern: < = below
!!!RDF**dynam: f = fo.
!!!RDF**dynam: p = po
!!!EED: Leszek Kubiak
!!!EST: 2021-04-19
!!!ENC: Andrzej Gręziak
!!!END: 2021-03-30 poprawione 2021-04-14
